mariogtz55/UR_RTDE_Databse/rtde-2.6.0/historic.csv
timestamp,actual_TCP_pose_0,actual_TCP_pose_1,actual_TCP_pose_2,actual_TCP_pose_3,actual_TCP_pose_4,actual_TCP_pose_5,actual_digital_input_bits,joint_temperatures_0,joint_temperatures_1,joint_temperatures_2,joint_temperatures_3,joint_temperatures_4,joint_temperatures_5,actual_robot_voltage,actual_robot_current,actual_joint_voltage_0,actual_joint_voltage_1,actual_joint_voltage_2,actual_joint_voltage_3,actual_joint_voltage_4,actual_joint_voltage_5,tool_temperature
1242.6799999999998,-0.0841730225249436,-0.2089845861801813,0.356264529274507,1.3034222857459634,1.1170923196818374,-1.7989930939294383,0,31.47943687438965,32.75998306274414,31.4799919128418,38.40998458862305,37.23998260498047,38.139984130859375,48.13019943237305,0.3222666978836059,47.78799819946289,47.87900161743164,48.01499938964844,47.8489990234375,47.92499923706055,47.8489990234375,36.0
1242.688,-0.0841741036856287,-0.2089825452074573,0.3562619088121316,1.3034482779952048,1.1170573338432954,-1.7990127547427062,0,31.47943687438965,32.75998306274414,31.4799919128418,38.40998458862305,37.23998260498047,38.139984130859375,48.13019943237305,0.2148458659648895,47.78799819946289,47.87900161743164,48.01499938964844,47.8489990234375,47.92499923706055,47.8489990234375,36.0
1242.696,-0.0841677894801757,-0.2089834160373246,0.3562579720236846,1.303432714851135,1.1170743850113312,-1.7990126576338836,0,31.47943687438965,32.75998306274414,31.4799919128418,38.40998458862305,37.23998260498047,38.139984130859375,48.13019943237305,0.2864562273025512,47.78799819946289,47.87900161743164,48.01499938964844,47.8489990234375,47.92499923706055,47.8489990234375,36.0
1242.704,-0.0841741189892463,-0.2089822254963099,0.356266613337004,1.3034466324267282,1.1170585722266624,-1.799012592415453,0,31.479494094848636,32.75998306274414,31.4799919128418,38.40998458862305,37.23998260498047,38.139984130859375,48.13019943237305,0.3580718636512756,47.803001403808594,47.87900161743164,48.01499938964844,47.83399963378906,47.92499923706055,47.8489990234375,36.0
1242.712,-0.0841711430309868,-0.2089834315503504,0.3562613832794352,1.3034422770960936,1.1170707727057625,-1.7989830807647933,0,31.479494094848636,32.75998306274414,31.4799919128418,38.40998458862305,37.23998260498047,38.139984130859375,48.13019943237305,0.3580718636512756,47.803001403808594,47.90999984741211,48.01499938964844,47.83399963378906,47.90999984741211,47.8489990234375,36.0
1242.752,-0.0841868711734229,-0.2089825960999525,0.3562722361929202,1.3034899414971963,1.1170253538354205,-1.7989255973927645,0,31.479494094848636,32.75998306274414,31.4799919128418,38.40998458862305,37.23998260498047,38.139984130859375,48.13019943237305,0.2864562273025512,47.803001403808594,47.90999984741211,48.02999877929688,47.83399963378906,47.90999984741211,47.8489990234375,36.0
1242.76,-0.0841667284946902,-0.2089836749322671,0.3562623339199138,1.3034168876648031,1.1171050335992865,-1.799020092265479,0,31.479494094848636,32.75998306274414,31.4799919128418,38.40998458862305,37.23998260498047,38.139984130859375,48.13019943237305,0.3222666978836059,47.803001403808594,47.90999984741211,48.02999877929688,47.83399963378906,47.90999984741211,47.8489990234375,36.0
1242.768,-0.0841801181379084,-0.2089843462469887,0.3562676125338837,1.303441323728123,1.1171077502802065,-1.7989692477975057,0,31.479494094848636,32.75998306274414,31.4799919128418,38.40998458862305,37.23998260498047,38.139984130859375,48.13019943237305,0.3222666978836059,47.803001403808594,47.90999984741211,48.02999877929688,47.83399963378906,47.90999984741211,47.8489990234375,36.0
1242.7759999999998,-0.0841872493190173,-0.2089815068134381,0.3562738942873221,1.3034983930920103,1.11701611863826,-1.798953659872657,0,31.479494094848636,32.75998306274414,31.4799919128418,38.40998458862305,37.23998260498047,38.139984130859375,48.13019943237305,0.3580718636512756,47.803001403808594,47.90999984741211,48.02999877929688,47.83399963378906,47.90999984741211,47.8489990234375,36.0
1242.784,-0.0841685048864985,-0.2089833936679146,0.3562624159759883,1.303412370397944,1.1171114164094278,-1.7990484503425173,0,31.47954559326172,32.75998306274414,31.4799919128418,38.40998458862305,37.23998260498047,38.139984130859375,48.13019943237305,0.3938823342323303,47.81800079345703,47.90999984741211,48.02999877929688,47.8489990234375,47.90999984741211,47.8489990234375,36.0
1242.792,-0.0841784199238688,-0.2089819935938062,0.3562757960764202,1.3034557500052202,1.1170645264029884,-1.799010318551667,0,31.47954559326172,32.75998306274414,31.4799919128418,38.40998458862305,37.23998260498047,38.139984130859375,48.13019943237305,0.5013031363487244,47.81800079345703,47.89500045776367,48.02999877929688,47.8489990234375,47.92499923706055,47.8489990234375,36.0
1242.8,-0.084172123525993,-0.208981790884793,0.356267926317392,1.3034443780132203,1.1170558350907625,-1.7990323189798054,0,31.47954559326172,32.75998306274414,31.4799919128418,38.40998458862305,37.23998260498047,38.139984130859375,48.13019943237305,0.3580718636512756,47.81800079345703,47.89500045776367,48.02999877929688,47.8489990234375,47.92499923706055,47.8489990234375,36.0
1242.808,-0.0841712392150884,-0.2089839405240804,0.3562608754779662,1.3034527195779335,1.1170530273669972,-1.7989462677765888,0,31.47954559326172,32.75998306274414,31.4799919128418,38.40998458862305,37.23998260498047,38.139984130859375,48.13019943237305,0.2148458659648895,47.81800079345703,47.89500045776367,48.02999877929688,47.8489990234375,47.92499923706055,47.8489990234375,36.0
1242.816,-0.0841842163385726,-0.208982718619361,0.3562737311359359,1.3034940350220183,1.117028311569359,-1.7989241524333142,0,31.47954559326172,32.75998306274414,31.4799919128418,38.40998458862305,37.23998260498047,38.139984130859375,48.13019943237305,0.3222666978836059,47.81800079345703,47.89500045776367,48.02999877929688,47.8489990234375,47.92499923706055,47.8489990234375,36.0
1242.8239999999998,-0.0841686169006294,-0.2089830425501342,0.3562569200261353,1.3034229844993612,1.1170823117635202,-1.7990228539191957,0,31.47954559326172,32.75998306274414,31.4799919128418,38.40998458862305,37.23998260498047,38.139984130859375,48.19097137451172,0.2506510317325592,47.81800079345703,47.89500045776367,48.02999877929688,47.8489990234375,47.92499923706055,47.81800079345703,36.0
1242.84,-0.0841867243605621,-0.208981554832677,0.356273268894883,1.303473394174668,1.1170503605542896,-1.798990880408378,0,31.47954559326172,32.75998306274414,31.4799919128418,38.40998458862305,37.23998260498047,38.139984130859375,48.13019943237305,0.2148458659648895,47.81800079345703,47.89500045776367,48.02999877929688,47.8489990234375,47.92499923706055,47.81800079345703,36.0
1242.848,-0.0841742934491323,-0.2089818710437202,0.3562612013639999,1.3034451987124311,1.117059546948206,-1.7990128914197532,0,31.47954559326172,32.75998306274414,31.4799919128418,38.40998458862305,37.23998260498047,38.139984130859375,48.13019943237305,0.2148458659648895,47.81800079345703,47.89500045776367,48.02999877929688,47.8489990234375,47.92499923706055,47.81800079345703,36.0
1242.856,-0.0841954522198142,-0.2089805439274371,0.3562821092047027,1.3034937948292895,1.1170493878868448,-1.798997320262072,0,31.47954559326172,32.75998306274414,31.4799919128418,38.40998458862305,37.23998260498047,38.139984130859375,48.13019943237305,0.3580718636512756,47.81800079345703,47.89500045776367,48.02999877929688,47.8489990234375,47.92499923706055,47.81800079345703,36.0
1242.864,-0.0841741792173437,-0.2089853768972775,0.3562693520092119,1.303442651973044,1.11706663206531,-1.7989461926638524,0,31.479591369628903,32.75998306274414,31.4799919128418,38.40998458862305,37.23998260498047,38.139984130859375,48.13019943237305,0.2148458659648895,47.803001403808594,47.89500045776367,48.02999877929688,47.83399963378906,47.92499923706055,47.81800079345703,36.0
1242.8719999999998,-0.0841734907806605,-0.2089845439055781,0.3562702214946768,1.303431015076456,1.1170982999420973,-1.7989906074760047,0,31.479591369628903,32.75998306274414,31.4799919128418,38.40998458862305,37.23998260498047,38.139984130859375,48.13019943237305,0.2148458659648895,47.803001403808594,47.86399841308594,48.02999877929688,47.83399963378906,47.92499923706055,47.81800079345703,36.0
1242.88,-0.0841819952097103,-0.2089802131813358,0.3562669590654237,1.3034746678607492,1.1170358497544717,-1.799039410814474,0,31.479591369628903,32.75998306274414,31.4799919128418,38.40998458862305,37.23998260498047,38.139984130859375,48.13019943237305,0.3222666978836059,47.803001403808594,47.86399841308594,48.01499938964844,47.83399963378906,47.92499923706055,47.81800079345703,36.0
1242.888,-0.0841816195355793,-0.208982180052836,0.3562791137252254,1.303436361179375,1.1170878134102329,-1.7990397867519643,0,31.479591369628903,32.75998306274414,31.4799919128418,38.40998458862305,37.23998260498047,38.139984130859375,48.13019943237305,0.3580718636512756,47.803001403808594,47.86399841308594,48.01499938964844,47.83399963378906,47.92499923706055,47.81800079345703,36.0
1242.896,-0.0841884903274256,-0.2089808959309423,0.3562692710145199,1.3035048656030146,1.117006310575202,-1.7989636111210234,0,31.479591369628903,32.75998306274414,31.4799919128418,38.40998458862305,37.23998260498047,38.139984130859375,48.13019943237305,0.2148458659648895,47.803001403808594,47.86399841308594,48.01499938964844,47.83399963378906,47.92499923706055,47.81800079345703,36.0
1242.904,-0.0841684769265037,-0.2089825389066954,0.3562625818036877,1.3034245543472966,1.1170700697478917,-1.799033866176408,0,31.479591369628903,32.75998306274414,31.4799919128418,38.40998458862305,37.23998260498047,38.139984130859375,48.13019943237305,0.3580718636512756,47.803001403808594,47.86399841308594,48.01499938964844,47.83399963378906,47.92499923706055,47.83399963378906,36.0
1242.912,-0.0841910727468221,-0.208981639532625,0.3562778306688049,1.3035046868366165,1.117004599349233,-1.7989451172890074,0,31.479591369628903,32.75998306274414,31.4799919128418,38.40998458862305,37.23998260498047,38.139984130859375,48.13019943237305,0.3580718636512756,47.803001403808594,47.86399841308594,48.01499938964844,47.83399963378906,47.92499923706055,47.83399963378906,36.0
1242.9199999999998,-0.0841824058774026,-0.2089823072261925,0.356273711968616,1.303450313048338,1.117086990417945,-1.7990084441511025,0,31.479591369628903,32.75998306274414,31.4799919128418,38.40998458862305,37.23998260498047,38.139984130859375,48.13019943237305,0.3938823342323303,47.803001403808594,47.86399841308594,48.01499938964844,47.83399963378906,47.92499923706055,47.83399963378906,36.0
1242.928,-0.0841760248543781,-0.2089835060684176,0.3562752882503534,1.3034406539690426,1.1170925408294723,-1.798999596230521,0,31.479591369628903,32.75998306274414,31.4799919128418,38.40998458862305,37.23998260498047,38.139984130859375,48.13019943237305,0.3580718636512756,47.803001403808594,47.86399841308594,48.01499938964844,47.83399963378906,47.92499923706055,47.83399963378906,36.0
1242.936,-0.0841935578900134,-0.2089811739129823,0.3562823725275791,1.3035200596341732,1.116991799705193,-1.798925290406325,0,31.479591369628903,32.75998306274414,31.4799919128418,38.40998458862305,37.23998260498047,38.139984130859375,48.13019943237305,0.4296875,47.803001403808594,47.86399841308594,48.01499938964844,47.83399963378906,47.92499923706055,47.83399963378906,36.0
1242.952,-0.08418555769257,-0.2089812817536573,0.3562730083870336,1.303446818685724,1.1170989081537983,-1.7990361838934057,0,31.479631423950195,32.75998306274414,31.4799919128418,38.40998458862305,37.23998260498047,38.139984130859375,48.13019943237305,0.1790353953838348,47.83399963378906,47.87900161743164,48.02999877929688,47.8489990234375,47.93999862670898,47.83399963378906,36.0
1242.96,-0.0841818594710284,-0.2089832130825111,0.3562729237929291,1.3034452850822642,1.117082504858791,-1.7989912699716455,0,31.479631423950195,32.75998306274414,31.4799919128418,38.40998458862305,37.23998260498047,38.139984130859375,48.13019943237305,0.2506510317325592,47.83399963378906,47.87900161743164,48.02999877929688,47.8489990234375,47.93999862670898,47.83399963378906,36.0
1242.9679999999998,-0.0841813392640325,-0.2089825635151743,0.356272923272037,1.3034464942009794,1.1170876656290158,-1.798990066148472,0,31.479631423950195,32.75998306274414,31.4799919128418,38.40998458862305,37.23998260498047,38.139984130859375,48.13019943237305,0.2148458659648895,47.83399963378906,47.87900161743164,48.02999877929688,47.8489990234375,47.93999862670898,47.83399963378906,36.0
1242.976,-0.0841850792060986,-0.2089831970238844,0.3562674498060847,1.3034880091475636,1.1170377457993277,-1.7989146805354252,0,31.479631423950195,32.75998306274414,31.4799919128418,38.40998458862305,37.23998260498047,38.139984130859375,48.13019943237305,0.2864562273025512,47.83399963378906,47.87900161743164,48.02999877929688,47.8489990234375,47.93999862670898,47.83399963378906,36.0
1242.984,-0.0841849263116729,-0.208982693785013,0.3562730243686516,1.3034775659982816,1.1170554850222547,-1.7989514972834142,0,31.479631423950195,32.75998306274414,31.4799919128418,38.40998458862305,37.23998260498047,38.139984130859375,48.13019943237305,0.1790353953838348,47.83399963378906,47.87900161743164,48.02999877929688,47.8489990234375,47.93999862670898,47.8489990234375,36.0
1242.992,-0.0841765892291246,-0.2089815393182833,0.3562567581088313,1.3034614618642184,1.117041843842579,-1.7990128597778392,0,31.479631423950195,32.75998306274414,31.4799919128418,38.40998458862305,37.23998260498047,38.139984130859375,48.13019943237305,0.3938823342323303,47.83399963378906,47.87900161743164,48.02999877929688,47.8489990234375,47.93999862670898,47.8489990234375,36.0
1243.0,-0.0841805116416283,-0.2089829371739045,0.3562739752474054,1.3034440020714255,1.117109960687626,-1.7990059601605193,0,31.479631423950195,32.75998306274414,31.4799919128418,38.40998458862305,37.23998260498047,38.139984130859375,48.13019943237305,0.2148458659648895,47.83399963378906,47.87900161743164,48.02999877929688,47.8489990234375,47.93999862670898,47.8489990234375,36.0
1243.008,-0.084172923433057,-0.2089828130944193,0.3562712535794946,1.3034322747196114,1.1170881172586906,-1.7990203888208447,0,31.479631423950195,32.75998306274414,31.4799919128418,38.40998458862305,37.23998260498047,38.139984130859375,48.13019943237305,0.3222666978836059,47.83399963378906,47.87900161743164,48.02999877929688,47.8489990234375,47.93999862670898,47.8489990234375,36.0
1243.0159999999998,-0.0841765175264815,-0.2089838701803276,0.3562749265924567,1.3034414774596097,1.117078839248813,-1.7989916488620188,0,31.479631423950195,32.75998306274414,31.4799919128418,38.40998458862305,37.23998260498047,38.139984130859375,48.13019943237305,0.3222666978836059,47.83399963378906,47.87900161743164,48.02999877929688,47.8489990234375,47.93999862670898,47.8489990234375,36.0
1243.024,-0.0841805172392941,-0.2089829396208679,0.3562791259484122,1.3034726656387048,1.117039362023066,-1.798944948365944,0,31.47966766357422,32.75998306274414,31.4799919128418,38.40998458862305,37.23998260498047,38.139984130859375,48.13019943237305,0.1432302296161651,47.803001403808594,47.87900161743164,48.01499938964844,47.8489990234375,47.93999862670898,47.8489990234375,36.0
1243.032,-0.0841721956383762,-0.2089814654864431,0.3562675640274174,1.3034305126202252,1.1170873019737677,-1.7990582433343023,0,31.47966766357422,32.75998306274414,31.4799919128418,38.40998458862305,37.23998260498047,38.139984130859375,48.13019943237305,0.3580718636512756,47.803001403808594,47.87900161743164,48.01499938964844,47.8489990234375,47.92499923706055,47.8489990234375,36.0
1243.04,-0.0841757140397962,-0.208979690773871,0.3562637939423463,1.3034534747137467,1.1170486105390376,-1.7990787006577769,0,31.47966766357422,32.75998306274414,31.4799919128418,38.40998458862305,37.23998260498047,38.139984130859375,48.13019943237305,0.3938823342323303,47.803001403808594,47.87900161743164,48.01499938964844,47.8489990234375,47.92499923706055,47.8489990234375,36.0
1243.048,-0.0841797325933339,-0.2089845518561245,0.356268827530289,1.3034620819164222,1.1170530556830844,-1.7989447574749269,0,31.47966766357422,32.75998306274414,31.4799919128418,38.40998458862305,37.23998260498047,38.139984130859375,48.13019943237305,0.3580718636512756,47.803001403808594,47.87900161743164,48.01499938964844,47.8489990234375,47.92499923706055,47.8489990234375,36.0
1243.072,-0.0841804639442106,-0.2089836691730201,0.3562682835066599,1.303445955881675,1.1170687196385236,-1.798983127923348,0,31.47966766357422,32.75998306274414,31.4799919128418,38.40998458862305,37.23998260498047,38.139984130859375,48.13019943237305,0.4296875,47.803001403808594,47.87900161743164,48.01499938964844,47.8489990234375,47.92499923706055,47.803001403808594,36.0
1243.08,-0.0841773804162574,-0.2089843486355518,0.3562686452115799,1.3034435861192126,1.1170681595454246,-1.7989648118631278,0,31.47966766357422,32.75998306274414,31.4799919128418,38.40998458862305,37.23998260498047,38.139984130859375,48.13019943237305,0.3222666978836059,47.803001403808594,47.87900161743164,48.01499938964844,47.8489990234375,47.92499923706055,47.803001403808594,36.0
1243.088,-0.0841779566144617,-0.2089813384565956,0.3562707287065572,1.3034569203432944,1.117069794236528,-1.799009197202547,0,31.47966766357422,32.75998306274414,31.4799919128418,38.40998458862305,37.23998260498047,38.139984130859375,48.13019943237305,0.2148458659648895,47.803001403808594,47.87900161743164,48.01499938964844,47.8489990234375,47.92499923706055,47.803001403808594,36.0
1243.096,-0.0841794511947779,-0.2089826554825279,0.3562686446682263,1.3034625698369031,1.1170474535321595,-1.7989552279591998,0,31.47966766357422,32.75998306274414,31.4799919128418,38.40998458862305,37.23998260498047,38.139984130859375,48.13019943237305,0.1790353953838348,47.803001403808594,47.87900161743164,48.04600143432617,47.8489990234375,47.92499923706055,47.803001403808594,36.0
1243.104,-0.0841666563719157,-0.2089840003260233,0.3562626962140024,1.3034226188541729,1.1170936810920804,-1.7990115330052274,0,31.479700088500977,32.75998306274414,31.4799919128418,38.40998458862305,37.23998260498047,38.139984130859375,48.13019943237305,0.3938823342323303,47.803001403808594,47.87900161743164,48.04600143432617,47.86399841308594,47.92499923706055,47.803001403808594,36.0
1243.112,-0.0841774516214833,-0.2089825582302242,0.3562601693220596,1.3034576670906697,1.1170538698719414,-1.7989833693622768,0,31.479700088500977,32.75998306274414,31.4799919128418,38.40998458862305,37.23998260498047,38.139984130859375,48.13019943237305,0.4296875,47.803001403808594,47.87900161743164,48.04600143432617,47.86399841308594,47.93999862670898,47.803001403808594,36.0
1243.12,-0.0841792829000524,-0.2089824720240989,0.3562695147055112,1.3034537712425085,1.1170639538744642,-1.7989922072315676,0,31.479700088500977,32.75998306274414,31.4799919128418,38.40998458862305,37.23998260498047,38.139984130859375,48.13019943237305,0.3938823342323303,47.803001403808594,47.87900161743164,48.04600143432617,47.86399841308594,47.93999862670898,47.803001403808594,36.0
1243.128,-0.0841891138623964,-0.2089800271220598,0.3562840112494512,1.3034848224595283,1.117031920198083,-1.7990105237720304,0,31.479700088500977,32.75998306274414,31.4799919128418,38.40998458862305,37.23998260498047,38.139984130859375,48.13019943237305,0.2864562273025512,47.803001403808594,47.87900161743164,48.04600143432617,47.86399841308594,47.93999862670898,47.803001403808594,36.0
1243.136,-0.0841822938967421,-0.2089826585071879,0.3562792077711949,1.3034641028503335,1.1170557531125136,-1.7989819453647644,0,31.479700088500977,32.75998306274414,31.4799919128418,38.40998458862305,37.23998260498047,38.139984130859375,48.13019943237305,0.2506510317325592,47.803001403808594,47.87900161743164,48.04600143432617,47.86399841308594,47.93999862670898,47.803001403808594,36.0
1243.144,-0.0841759348537469,-0.2089824590285633,0.3562712542175034,1.303452556757674,1.1170472035231271,-1.7990041411932438,0,31.479700088500977,32.75998306274414,31.4799919128418,38.40998458862305,37.23998260498047,38.139984130859375,48.13019943237305,0.5013031363487244,47.803001403808594,47.87900161743164,48.04600143432617,47.86399841308594,47.93999862670898,47.78799819946289,36.0
1243.152,-0.0841816207175779,-0.2089844599756803,0.3562731061116693,1.3034663218674611,1.1170430322257052,-1.7989362264125428,0,31.479700088500977,32.75998306274414,31.4799919128418,38.40998458862305,37.23998260498047,38.139984130859375,48.13019943237305,0.3580718636512756,47.803001403808594,47.87900161743164,48.04600143432617,47.86399841308594,47.93999862670898,47.78799819946289,36.0
1243.16,-0.084187959271034,-0.2089814819802043,0.3562731875106488,1.3034859708433355,1.1170332848406035,-1.7989723655208203,0,31.479700088500977,32.75998306274414,31.4799919128418,38.40998458862305,37.23998260498047,38.139984130859375,48.13019943237305,0.2506510317325592,47.803001403808594,47.87900161743164,48.04600143432617,47.86399841308594,47.93999862670898,47.78799819946289,36.0
1243.168,-0.0841661312777301,-0.2089840483473842,0.356262070730666,1.303413887727136,1.1170876942871235,-1.799014023152239,0,31.479700088500977,32.75998306274414,31.4799919128418,38.40998458862305,37.23998260498047,38.139984130859375,48.13019943237305,0.3580718636512756,47.803001403808594,47.87900161743164,48.04600143432617,47.86399841308594,47.93999862670898,47.78799819946289,36.0
1243.176,-0.0841803648041973,-0.208981895907941,0.3562750079471977,1.3034681255113707,1.1170343953091773,-1.7989844185770594,0,31.479700088500977,32.75998306274414,31.4799919128418,38.40998458862305,37.23998260498047,38.139984130859375,48.13019943237305,0.2148458659648895,47.803001403808594,47.87900161743164,47.98600006103516,47.86399841308594,47.93999862670898,47.78799819946289,36.0
1243.184,-0.0841790633914314,-0.208982296717037,0.3562806021902051,1.303445184572891,1.117080198916433,-1.7990289124545522,0,31.4797306060791,32.75998306274414,31.4799919128418,38.40998458862305,37.23998260498047,38.139984130859375,48.13019943237305,0.2506510317325592,47.803001403808594,47.87900161743164,47.98600006103516,47.83399963378906,47.93999862670898,47.78799819946289,36.0
1243.192,-0.0841790751090463,-0.2089817737617928,0.3562658258251702,1.3034508407973824,1.1170578773299715,-1.7990311790888742,0,31.4797306060791,32.75998306274414,31.4799919128418,38.40998458862305,37.23998260498047,38.139984130859375,48.13019943237305,0.3580718636512756,47.803001403808594,47.8489990234375,47.98600006103516,47.83399963378906,47.92499923706055,47.78799819946289,36.0
1243.2,-0.0841739532324836,-0.2089834888923473,0.3562807681383816,1.3034384578580542,1.117050135186309,-1.7989967042816437,0,31.4797306060791,32.75998306274414,31.4799919128418,38.40998458862305,37.23998260498047,38.139984130859375,48.13019943237305,0.2506510317325592,47.803001403808594,47.8489990234375,47.98600006103516,47.83399963378906,47.92499923706055,47.78799819946289,36.0
1243.208,-0.0841830872405676,-0.2089805321185613,0.356264529274507,1.3034678692203223,1.1170498594172618,-1.7990106317093546,0,31.4797306060791,32.75998306274414,31.4799919128418,38.40998458862305,37.23998260498047,38.139984130859375,48.13019943237305,0.3222666978836059,47.803001403808594,47.8489990234375,47.98600006103516,47.83399963378906,47.92499923706055,47.78799819946289,36.0
1243.216,-0.0841698360107489,-0.2089838298338221,0.3562618268410548,1.3034353907581302,1.1170765960143547,-1.798993122565977,0,31.4797306060791,32.75998306274414,31.4799919128418,38.40998458862305,37.23998260498047,38.139984130859375,48.13019943237305,0.1790353953838348,47.803001403808594,47.8489990234375,47.98600006103516,47.83399963378906,47.92499923706055,47.78799819946289,36.0
1243.224,-0.0841694224367947,-0.2089840671437703,0.3562653979977641,1.303419188485048,1.117094331057375,-1.7989933672453062,0,31.4797306060791,32.75998306274414,31.4799919128418,38.40998458862305,37.23998260498047,38.139984130859375,48.13019943237305,0.3938823342323303,47.803001403808594,47.8489990234375,47.98600006103516,47.83399963378906,47.92499923706055,47.81800079345703,36.0
1243.232,-0.0841680698566222,-0.2089844886946146,0.3562658245296553,1.303408005676737,1.117110538478685,-1.7990116655622703,0,31.4797306060791,32.75998306274414,31.4799919128418,38.40998458862305,37.23998260498047,38.139984130859375,48.13019943237305,0.3222666978836059,47.803001403808594,47.8489990234375,47.98600006103516,47.83399963378906,47.92499923706055,47.81800079345703,36.0
1243.24,-0.0841792298857027,-0.2089816113449362,0.3562723708865202,1.303466421749795,1.11704072849415,-1.7990302128904998,0,31.4797306060791,32.75998306274414,31.4799919128418,38.40998458862305,37.23998260498047,38.139984130859375,48.13019943237305,0.2148458659648895,47.803001403808594,47.8489990234375,47.98600006103516,47.83399963378906,47.92499923706055,47.81800079345703,36.0
1243.248,-0.0841906379538707,-0.2089827345766828,0.3562812393197935,1.3034799655337836,1.117054056515051,-1.7989517887622988,0,31.4797306060791,32.75998306274414,31.4799919128418,38.40998458862305,37.23998260498047,38.139984130859375,48.13019943237305,0.2864562273025512,47.803001403808594,47.8489990234375,48.0,47.83399963378906,47.92499923706055,47.81800079345703,36.0
1243.256,-0.0841755567198098,-0.2089835483425601,0.356269596031543,1.3034319245856558,1.1170865606127922,-1.7990020827277593,0,31.4797306060791,32.75998306274414,31.4799919128418,38.40998458862305,37.23998260498047,38.139984130859375,48.13019943237305,0.3580718636512756,47.803001403808594,47.8489990234375,48.0,47.83399963378906,47.92499923706055,47.81800079345703,36.0
1243.264,-0.0841992504218102,-0.2089791416670364,0.3562816657351731,1.3035180832754114,1.1170179170856946,-1.798978553117635,0,31.47975730895996,32.75998306274414,31.4799919128418,38.40998458862305,37.23998260498047,38.139984130859375,48.13019943237305,0.2506510317325592,47.83399963378906,47.8489990234375,48.0,47.81800079345703,47.92499923706055,47.81800079345703,36.0
1243.272,-0.084163674161314,-0.2089843892103424,0.3562664362949878,1.3033886332676372,1.1171262190021154,-1.7990324045953765,0,31.47975730895996,32.75998306274414,31.4799919128418,38.40998458862305,37.23998260498047,38.139984130859375,48.13019943237305,0.1790353953838348,47.83399963378906,47.86399841308594,48.0,47.81800079345703,47.90999984741211,47.81800079345703,36.0
1243.28,-0.084189092452995,-0.2089808850141806,0.3562838484660931,1.303492613042026,1.1170233147509676,-1.798982133215414,0,31.47975730895996,32.75998306274414,31.4799919128418,38.40998458862305,37.23998260498047,38.139984130859375,48.13019943237305,0.3580718636512756,47.83399963378906,47.86399841308594,48.0,47.81800079345703,47.90999984741211,47.81800079345703,36.0
1243.288,-0.084189092452995,-0.2089808850141806,0.3562838484660931,1.303492613042026,1.1170233147509676,-1.798982133215414,0,31.47975730895996,32.75998306274414,31.4799919128418,38.40998458862305,37.23998260498047,38.139984130859375,48.13019943237305,0.3222666978836059,47.83399963378906,47.86399841308594,48.0,47.81800079345703,47.90999984741211,47.81800079345703,36.0
1243.296,-0.0841760423207162,-0.2089829855826911,0.3562656625643928,1.3034505305236916,1.117060064091024,-1.798993032118947,0,31.47975730895996,32.75998306274414,31.4799919128418,38.40998458862305,37.23998260498047,38.139984130859375,48.13019943237305,0.3580718636512756,47.83399963378906,47.86399841308594,48.0,47.81800079345703,47.90999984741211,47.81800079345703,36.0
1243.304,-0.0841872554125097,-0.2089809687830007,0.3562693524280203,1.3034882020716223,1.1170334936251136,-1.7989908517524846,0,31.47975730895996,32.75998306274414,31.4799919128418,38.40998458862305,37.23998260498047,38.139984130859375,48.13019943237305,0.2148458659648895,47.83399963378906,47.86399841308594,48.0,47.81800079345703,47.90999984741211,47.803001403808594,36.0
1243.312,-0.0841828337371002,-0.2089786041327571,0.3562619901519013,1.3034809130489533,1.1170321697820875,-1.7990484618063276,0,31.47975730895996,32.75998306274414,31.4799919128418,38.40998458862305,37.23998260498047,38.139984130859375,48.13019943237305,0.3580718636512756,47.83399963378906,47.86399841308594,48.0,47.81800079345703,47.90999984741211,47.803001403808594,36.0
1243.32,-0.0841841824467482,-0.2089820261081237,0.3562737937922073,1.303453931356904,1.1170732598396378,-1.7990194369483323,0,31.47975730895996,32.75998306274414,31.4799919128418,38.40998458862305,37.23998260498047,38.139984130859375,48.13019943237305,0.2148458659648895,47.83399963378906,47.86399841308594,48.01499938964844,47.81800079345703,47.90999984741211,47.803001403808594,36.0
1243.328,-0.0841815915299967,-0.2089830697879052,0.3562737937922073,1.3034524252339008,1.117058898018231,-1.7989930871209474,0,31.47975730895996,32.75998306274414,31.4799919128418,38.40998458862305,37.23998260498047,38.139984130859375,48.13019943237305,0.1790353953838348,47.83399963378906,47.86399841308594,48.01499938964844,47.81800079345703,47.90999984741211,47.803001403808594,36.0
1243.336,-0.0841728057749026,-0.2089831618195501,0.3562715987674302,1.303437757148058,1.1170771424143502,-1.7990114465366185,0,31.47975730895996,32.75998306274414,31.4799919128418,38.40998458862305,37.23998260498047,38.139984130859375,48.13019943237305,0.4654926657676697,47.83399963378906,47.86399841308594,48.01499938964844,47.81800079345703,47.90999984741211,47.803001403808594,36.0
1243.344,-0.0841792614441104,-0.2089833298293618,0.3562693520092119,1.3034696957873833,1.1170352339228646,-1.7989464518438405,0,31.479782104492188,32.75998306274414,31.4799919128418,38.40998458862305,37.23998260498047,38.139984130859375,48.13019943237305,0.1432302296161651,47.8489990234375,47.86399841308594,48.01499938964844,47.83399963378906,47.90999984741211,47.803001403808594,36.0
1243.352,-0.084187959271034,-0.2089814819802043,0.3562731875106488,1.3034941045622113,1.1170131703723318,-1.7989550005327184,0,31.479782104492188,32.75998306274414,31.4799919128418,38.40998458862305,37.23998260498047,38.139984130859375,48.13019943237305,0.2148458659648895,47.8489990234375,47.86399841308594,48.01499938964844,47.83399963378906,47.92499923706055,47.803001403808594,36.0
1243.36,-0.0841604057584163,-0.2089857920704877,0.3562572644825881,1.303397409258826,1.1171034196445524,-1.7989951697869968,0,31.479782104492188,32.75998306274414,31.4799919128418,38.40998458862305,37.23998260498047,38.139984130859375,48.13019943237305,0.2506510317325592,47.8489990234375,47.86399841308594,48.01499938964844,47.83399963378906,47.92499923706055,47.803001403808594,36.0
1243.368,-0.0841817527135613,-0.2089823263194698,0.3562693520092119,1.303470831139032,1.1170498167553684,-1.7989724561625855,0,31.479782104492188,32.75998306274414,31.4799919128418,38.40998458862305,37.23998260498047,38.139984130859375,48.13019943237305,0.2148458659648895,47.8489990234375,47.86399841308594,48.01499938964844,47.83399963378906,47.92499923706055,47.803001403808594,36.0
1243.4,-0.0841786153242917,-0.208984275813171,0.3562685638560563,1.303439934581681,1.1170912123524508,-1.7989809405968231,0,31.479782104492188,32.75998306274414,31.4799919128418,38.40998458862305,37.23998260498047,38.139984130859375,48.13019943237305,0.3580718636512756,47.8489990234375,47.86399841308594,48.01499938964844,47.83399963378906,47.92499923706055,47.81800079345703,36.0
1243.408,-0.0841681428124562,-0.2089843098131615,0.3562724216270569,1.303423485515399,1.1170932945812888,-1.7990114738634742,0,31.479782104492188,32.75998306274414,31.4799919128418,38.40998458862305,37.23998260498047,38.139984130859375,48.13019943237305,0.2506510317325592,47.8489990234375,47.86399841308594,48.01499938964844,47.83399963378906,47.92499923706055,47.81800079345703,36.0
1243.416,-0.0841815997166075,-0.2089818230553841,0.3562749265924567,1.3034644747769533,1.1170574482998172,-1.799000547325882,0,31.479782104492188,32.75998306274414,31.4799919128418,38.40998458862305,37.23998260498047,38.139984130859375,48.13019943237305,0.2506510317325592,47.8489990234375,47.86399841308594,48.01499938964844,47.83399963378906,47.92499923706055,47.81800079345703,36.0
1243.424,-0.0841785161259235,-0.2089825025971739,0.3562752882503534,1.3034702390033697,1.117036773882821,-1.7989648662836886,0,31.47980308532715,32.75998306274414,31.4799919128418,38.40998458862305,37.23998260498047,38.139984130859375,48.13019943237305,0.3938823342323303,47.8489990234375,47.86399841308594,48.01499938964844,47.8489990234375,47.92499923706055,47.81800079345703,36.0
1243.432,-0.0841816565175491,-0.2089818173157825,0.3562698598361029,1.3034685231691554,1.1170474479048782,-1.798991904123339,0,31.47980308532715,32.75998306274414,31.4799919128418,38.40998458862305,37.23998260498047,38.139984130859375,48.13019943237305,0.3222666978836059,47.8489990234375,47.8489990234375,48.01499938964844,47.8489990234375,47.92499923706055,47.81800079345703,36.0
1243.44,-0.0841803709327438,-0.2089813578759067,0.3562704660876422,1.3034660675893357,1.1170316554452882,-1.7990042455330877,0,31.47980308532715,32.75998306274414,31.4799919128418,38.40998458862305,37.23998260498047,38.139984130859375,48.13019943237305,0.2148458659648895,47.8489990234375,47.8489990234375,48.01499938964844,47.8489990234375,47.92499923706055,47.81800079345703,36.0
1243.448,-0.0841747506054522,-0.208983064159523,0.3562708106607407,1.3034379518332757,1.1170771327838165,-1.79901155087618,0,31.47980308532715,32.75998306274414,31.4799919128418,38.40998458862305,37.23998260498047,38.139984130859375,48.13019943237305,0.2864562273025512,47.8489990234375,47.8489990234375,48.01499938964844,47.8489990234375,47.92499923706055,47.81800079345703,36.0
1243.456,-0.084179768498483,-0.2089819092589844,0.3562655812096534,1.3034845976626903,1.1170072356052472,-1.7989570657774443,0,31.47980308532715,32.75998306274414,31.4799919128418,38.40998458862305,37.23998260498047,38.139984130859375,48.13019943237305,0.3580718636512756,47.8489990234375,47.8489990234375,48.01499938964844,47.8489990234375,47.92499923706055,47.81800079345703,36.0
1243.464,-0.0841745253767632,-0.2089846566817634,0.3562635779111843,1.3034358981071976,1.1170786370211552,-1.7989553104347933,0,31.47980308532715,32.75998306274414,31.4799919128418,38.40998458862305,37.23998260498047,38.139984130859375,48.13019943237305,0.2506510317325592,47.8489990234375,47.8489990234375,48.02999877929688,47.8489990234375,47.92499923706055,47.81800079345703,36.0
1243.472,-0.084177809240792,-0.2089837916197759,0.3562697784666168,1.3034581435040706,1.1170516634956749,-1.798964404359037,0,31.47980308532715,32.75998306274414,31.4799919128418,38.40998458862305,37.23998260498047,38.139984130859375,48.13019943237305,0.2864562273025512,47.8489990234375,47.8489990234375,48.02999877929688,47.8489990234375,47.92499923706055,47.81800079345703,36.0
1243.48,-0.0841794865347204,-0.2089817372234478,0.3562765847159821,1.303463616279806,1.117053844133847,-1.799020057029917,0,31.47980308532715,32.75998306274414,31.4799919128418,38.40998458862305,37.23998260498047,38.139984130859375,48.13019943237305,0.3222666978836059,47.8489990234375,47.8489990234375,48.02999877929688,47.8489990234375,47.92499923706055,47.81800079345703,36.0
1243.496,-0.0841730702713643,-0.2089838543296966,0.356270220905054,1.3034529110647155,1.1170530041921825,-1.7989463799528906,0,31.47980308532715,32.75998306274414,31.4799919128418,38.40998458862305,37.23998260498047,38.139984130859375,48.13019943237305,0.2506510317325592,47.8489990234375,47.8489990234375,48.02999877929688,47.8489990234375,47.92499923706055,47.81800079345703,36.0
1243.504,-0.0841777730635669,-0.2089814746463276,0.3562668942139672,1.303462029342851,1.1170547345695965,-1.799020161700461,0,31.47982215881348,32.75998306274414,31.4799919128418,38.40998458862305,37.23998260498047,38.139984130859375,48.13019943237305,0.3222666978836059,47.81800079345703,47.8489990234375,48.02999877929688,47.81800079345703,47.92499923706055,47.81800079345703,36.0
1243.512,-0.0841830658061932,-0.2089813899097832,0.3562643666076981,1.3034715723239354,1.117051360707377,-1.7989909670738842,0,31.47982215881348,32.75998306274414,31.4799919128418,38.40998458862305,37.23998260498047,38.139984130859375,48.13019943237305,0.2506510317325592,47.81800079345703,47.87900161743164,48.02999877929688,47.81800079345703,47.92499923706055,47.81800079345703,36.0
1243.52,-0.0841825652501692,-0.2089800182405628,0.3562765376059223,1.303486322166535,1.1170366806405003,-1.7990093687685542,0,31.47982215881348,32.75998306274414,31.4799919128418,38.40998458862305,37.23998260498047,38.139984130859375,48.13019943237305,0.2148458659648895,47.81800079345703,47.87900161743164,48.02999877929688,47.81800079345703,47.92499923706055,47.81800079345703,36.0
1243.528,-0.0841775022630069,-0.2089830904925351,0.3562596444486294,1.303455638883886,1.117066723340446,-1.7989722642000017,0,31.47982215881348,32.75998306274414,31.4799919128418,38.40998458862305,37.23998260498047,38.139984130859375,48.13019943237305,0.3222666978836059,47.81800079345703,47.87900161743164,48.02999877929688,47.81800079345703,47.92499923706055,47.81800079345703,36.0
1243.5359999999998,-0.084179165254166,-0.2089828208245276,0.3562698598361029,1.303455206833273,1.1170629863811663,-1.7989919041233389,0,31.47982215881348,32.75998306274414,31.4799919128418,38.40998458862305,37.23998260498047,38.139984130859375,48.13019943237305,0.2864562273025512,47.81800079345703,47.87900161743164,48.0,47.81800079345703,47.92499923706055,47.81800079345703,36.0
1243.544,-0.0841852452023304,-0.2089828594989948,0.3562837670522961,1.303494454287046,1.116997309245349,-1.798928542581828,0,31.47982215881348,32.75998306274414,31.4799919128418,38.40998458862305,37.23998260498047,38.139984130859375,48.13019943237305,0.2864562273025512,47.81800079345703,47.87900161743164,48.0,47.81800079345703,47.92499923706055,47.83399963378906,36.0
1243.552,-0.0841701641784694,-0.2089836730647892,0.3562721236639227,1.303434191565747,1.1170600339349346,-1.799004927458609,0,31.47982215881348,32.75998306274414,31.4799919128418,38.40998458862305,37.23998260498047,38.139984130859375,48.13019943237305,0.2864562273025512,47.81800079345703,47.87900161743164,48.0,47.81800079345703,47.92499923706055,47.83399963378906,36.0
1243.56,-0.0841713597356203,-0.2089830854662197,0.3562674834166964,1.3034322806601355,1.117070717189944,-1.7990318610926377,0,31.47982215881348,32.75998306274414,31.4799919128418,38.40998458862305,37.23998260498047,38.139984130859375,48.13019943237305,0.2506510317325592,47.81800079345703,47.87900161743164,48.0,47.81800079345703,47.92499923706055,47.83399963378906,36.0
1243.568,-0.0841765381447875,-0.2089815474987891,0.3562669755684823,1.3034534991296318,1.1170618029662616,-1.799030037276642,0,31.47982215881348,32.75998306274414,31.4799919128418,38.40998458862305,37.23998260498047,38.139984130859375,48.13019943237305,0.2506510317325592,47.81800079345703,47.87900161743164,48.0,47.81800079345703,47.92499923706055,47.83399963378906,36.0
1243.576,-0.0841783866755439,-0.2089809407868541,0.3562666953094068,1.3034554320935945,1.117049416887422,-1.7990409503314009,0,31.47982215881348,32.75998306274414,31.4799919128418,38.40998458862305,37.23998260498047,38.139984130859375,48.13019943237305,0.2864562273025512,47.81800079345703,47.87900161743164,48.0,47.81800079345703,47.92499923706055,47.83399963378906,36.0
1243.5839999999998,-0.0841828760882822,-0.2089820642822621,0.3562650738240689,1.3034868733392122,1.117018927109363,-1.798964739222044,0,31.47983932495117,32.75998306274414,31.4799919128418,38.40998458862305,37.23998260498047,38.139984130859375,48.13019943237305,0.2864562273025512,47.78799819946289,47.87900161743164,48.0,47.8489990234375,47.92499923706055,47.83399963378906,36.0
1243.592,-0.0841784982125889,-0.2089811300854525,0.3562708919859896,1.3034520077713392,1.117063131793233,-1.7990300656848024,0,31.47983932495117,32.75998306274414,31.4799919128418,38.40998458862305,37.23998260498047,38.139984130859375,48.13019943237305,0.2148458659648895,47.78799819946289,47.89500045776367,48.0,47.8489990234375,47.92499923706055,47.83399963378906,36.0
1243.608,-0.0841848362396216,-0.2089816467811027,0.3562689903134997,1.303473201085915,1.1170503769502222,-1.7989907721558915,0,31.47983932495117,32.75998306274414,31.4799919128418,38.40998458862305,37.23998260498047,38.139984130859375,48.13019943237305,0.2864562273025512,47.78799819946289,47.89500045776367,48.02999877929688,47.8489990234375,47.92499923706055,47.83399963378906,36.0
1243.616,-0.0841779911909261,-0.208982550616444,0.3562746627878998,1.3034411926395832,1.11708102273143,-1.7990107259373944,0,31.47983932495117,32.75998306274414,31.4799919128418,38.40998458862305,37.23998260498047,38.139984130859375,48.13019943237305,0.1432302296161651,47.78799819946289,47.89500045776367,48.02999877929688,47.8489990234375,47.92499923706055,47.83399963378906,36.0
1243.624,-0.0841716885229335,-0.2089828859472368,0.3562713348760332,1.3034318790358093,1.1170750716115112,-1.7990128992548735,0,31.47983932495117,32.75998306274414,31.4799919128418,38.40998458862305,37.23998260498047,38.139984130859375,48.13019943237305,0.2864562273025512,47.78799819946289,47.89500045776367,48.02999877929688,47.8489990234375,47.92499923706055,47.81800079345703,36.0
1243.6319999999998,-0.0841760069574036,-0.2089821335563759,0.3562708919859896,1.3034264692151234,1.1171088915427585,-1.7990561562773677,0,31.47983932495117,32.75998306274414,31.4799919128418,38.40998458862305,37.23998260498047,38.139984130859375,48.13019943237305,0.3580718636512756,47.78799819946289,47.89500045776367,48.02999877929688,47.8489990234375,47.92499923706055,47.81800079345703,36.0
1243.64,-0.0841785667611111,-0.2089830348598772,0.3562747633767094,1.3034601170179685,1.117069641534243,-1.798971039716602,0,31.47983932495117,32.75998306274414,31.4799919128418,38.40998458862305,37.23998260498047,38.139984130859375,48.13019943237305,0.4296875,47.78799819946289,47.89500045776367,48.02999877929688,47.8489990234375,47.92499923706055,47.81800079345703,36.0
1243.648,-0.0841710147352141,-0.208985227554899,0.3562749260439608,1.3034241471009285,1.1170950622059657,-1.798973166564407,0,31.47983932495117,32.75998306274414,31.4799919128418,38.40998458862305,37.23998260498047,38.139984130859375,48.13019943237305,0.3580718636512756,47.78799819946289,47.89500045776367,48.02999877929688,47.8489990234375,47.92499923706055,47.81800079345703,36.0
1243.656,-0.0841873274890085,-0.2089806432049624,0.3562689903134997,1.3034743365938382,1.117064960089078,-1.7990167762895677,0,31.47983932495117,32.75998306274414,31.4799919128418,38.40998458862305,37.23998260498047,38.139984130859375,48.13019943237305,0.3580718636512756,47.78799819946289,47.89500045776367,48.02999877929688,47.8489990234375,47.92499923706055,47.81800079345703,36.0
1243.664,-0.0841828193475847,-0.2089820700181343,0.3562701405810988,1.303486871740893,1.1170189203418954,-1.798964743139435,0,31.479854583740234,32.75998306274414,31.4799919128418,38.40998458862305,37.23998260498047,38.139984130859375,48.13019943237305,0.2864562273025512,47.81800079345703,47.89500045776367,48.02999877929688,47.86399841308594,47.92499923706055,47.81800079345703,36.0
1243.672,-0.0841812272709145,-0.2089829147846595,0.3562784191374215,1.3034480618719178,1.1170866495873475,-1.7989896581295768,0,31.479854583740234,32.75998306274414,31.4799919128418,38.40998458862305,37.23998260498047,38.139984130859375,48.13019943237305,0.2864562273025512,47.81800079345703,47.86399841308594,48.02999877929688,47.86399841308594,47.90999984741211,47.81800079345703,36.0
1243.6799999999998,-0.0841687694188052,-0.2089840862279834,0.3562610380583035,1.3034234377874323,1.117097385864343,-1.7989921093234469,0,31.479854583740234,32.75998306274414,31.4799919128418,38.40998458862305,37.23998260498047,38.139984130859375,48.13019943237305,0.2864562273025512,47.81800079345703,47.86399841308594,48.04600143432617,47.86399841308594,47.90999984741211,47.81800079345703,36.0
1243.688,-0.0841810533252744,-0.2089827289012953,0.3562741384400204,1.303467580808494,1.1170328486197718,-1.7989660080347063,0,31.479854583740234,32.75998306274414,31.4799919128418,38.40998458862305,37.23998260498047,38.139984130859375,48.13019943237305,0.2148458659648895,47.81800079345703,47.86399841308594,48.04600143432617,47.86399841308594,47.90999984741211,47.81800079345703,36.0
1243.696,-0.0841847641592427,-0.2089819723584717,0.3562693524280203,1.3034748454344356,1.117049132407981,-1.7989909381451794,0,31.479854583740234,32.75998306274414,31.4799919128418,38.40998458862305,37.23998260498047,38.139984130859375,48.13019943237305,0.2506510317325592,47.81800079345703,47.86399841308594,48.04600143432617,47.86399841308594,47.90999984741211,47.81800079345703,36.0
1243.704,-0.0841817741592713,-0.2089814685140277,0.3562695147055112,1.303475261968882,1.1170282009861996,-1.798974755823243,0,31.479854583740234,32.75998306274414,31.4799919128418,38.40998458862305,37.23998260498047,38.139984130859375,48.13019943237305,0.2148458659648895,47.81800079345703,47.86399841308594,48.04600143432617,47.86399841308594,47.90999984741211,47.81800079345703,36.0
1243.712,-0.0841666063069621,-0.2089849328310711,0.3562713348760332,1.3034129690532517,1.1170863549352996,-1.7989952749925773,0,31.479854583740234,32.75998306274414,31.4799919128418,38.40998458862305,37.23998260498047,38.139984130859375,48.13019943237305,0.2864562273025512,47.81800079345703,47.86399841308594,48.04600143432617,47.86399841308594,47.90999984741211,47.81800079345703,36.0
1243.736,-0.0841691411324942,-0.208981284602352,0.356263024561459,1.3034200129019995,1.117095637986959,-1.799068708274992,0,31.479854583740234,32.75998306274414,31.4799919128418,38.40998458862305,37.23998260498047,38.139984130859375,48.13019943237305,0.3222666978836059,47.81800079345703,47.86399841308594,48.04600143432617,47.86399841308594,47.90999984741211,47.81800079345703,36.0
1243.752,-0.0841771622322188,-0.2089832726655747,0.3562608765963376,1.3034644229470058,1.1170418718386192,-1.7989742474212185,0,31.479869842529297,32.75998306274414,31.4799919128418,38.40998458862305,37.23998260498047,38.139984130859375,48.13019943237305,0.2864562273025512,47.803001403808594,47.86399841308594,48.04600143432617,47.86399841308594,47.92499923706055,47.81800079345703,36.0
1243.76,-0.0841830597072622,-0.2089819279088991,0.3562689084910456,1.3034736297181946,1.1170541001313363,-1.7989711401358843,0,31.479869842529297,32.75998306274414,31.4799919128418,38.40998458862305,37.23998260498047,38.139984130859375,48.13019943237305,0.1074197590351104,47.803001403808594,47.86399841308594,47.98600006103516,47.86399841308594,47.92499923706055,47.81800079345703,36.0
1243.768,-0.0841954736290401,-0.2089796859594866,0.3562822720470477,1.3034982252315217,1.1170277711677048,-1.7989996204190424,0,31.479869842529297,32.75998306274414,31.4799919128418,38.40998458862305,37.23998260498047,38.139984130859375,48.13019943237305,0.2506510317325592,47.803001403808594,47.86399841308594,47.98600006103516,47.86399841308594,47.92499923706055,47.81800079345703,36.0
1243.7759999999998,-0.0841747437467111,-0.2089804563164759,0.3562624972717438,1.3034397839644305,1.117081777716389,-1.799066878697525,0,31.479869842529297,32.75998306274414,31.4799919128418,38.40998458862305,37.23998260498047,38.139984130859375,48.13019943237305,0.3222666978836059,47.803001403808594,47.86399841308594,47.98600006103516,47.86399841308594,47.92499923706055,47.81800079345703,36.0
1243.784,-0.0841799582425484,-0.2089812349864115,0.3562648738434294,1.3034449352387605,1.1170999129614216,-1.7990353017371068,0,31.479869842529297,32.75998306274414,31.4799919128418,38.40998458862305,37.23998260498047,38.139984130859375,48.13019943237305,0.2506510317325592,47.803001403808594,47.86399841308594,47.98600006103516,47.86399841308594,47.92499923706055,47.81800079345703,36.0
1243.792,-0.0841686011006968,-0.208983902671397,0.3562619081523371,1.3034349950789288,1.117063550411241,-1.7989856329601508,0,31.479869842529297,32.75998306274414,31.4799919128418,38.40998458862305,37.23998260498047,38.139984130859375,48.13019943237305,0.3222666978836059,47.803001403808594,47.86399841308594,47.98600006103516,47.86399841308594,47.92499923706055,47.81800079345703,36.0
1243.8,-0.0841773862438838,-0.2089800914879886,0.3562689316164101,1.3034767824315363,1.1170400680344463,-1.799038555549806,0,31.479869842529297,32.75998306274414,31.4799919128418,38.40998458862305,37.23998260498047,38.139984130859375,48.13019943237305,0.2506510317325592,47.803001403808594,47.86399841308594,47.98600006103516,47.86399841308594,47.92499923706055,47.81800079345703,36.0
1243.808,-0.0841824058774026,-0.2089823072261925,0.356273711968616,1.3034665816019997,1.1170467617288158,-1.7989737142735576,0,31.479869842529297,32.75998306274414,31.4799919128418,38.40998458862305,37.23998260498047,38.139984130859375,48.13019943237305,0.2148458659648895,47.803001403808594,47.86399841308594,47.98600006103516,47.86399841308594,47.92499923706055,47.81800079345703,36.0
1243.816,-0.084188602916305,-0.2089817852079769,0.3562779935111468,1.3034713592852276,1.1170589651307723,-1.7989995985619351,0,31.479869842529297,32.75998306274414,31.4799919128418,38.40998458862305,37.23998260498047,38.139984130859375,48.13019943237305,0.2864562273025512,47.803001403808594,47.86399841308594,47.98600006103516,47.86399841308594,47.92499923706055,47.81800079345703,36.0
1243.8239999999998,-0.0841876842294123,-0.2089804117282747,0.3562704855923361,1.3035108929299273,1.1169968828160886,-1.798973079030205,0,31.479883193969727,32.75998306274414,31.4799919128418,38.40998458862305,37.23998260498047,38.139984130859375,48.13019943237305,0.2864562273025512,47.78799819946289,47.86399841308594,47.98600006103516,47.83399963378906,47.92499923706055,47.81800079345703,36.0
1243.832,-0.0841779054182924,-0.2089843006261821,0.3562692706389446,1.3034523169984344,1.1170741465504248,-1.7989623214114128,0,31.479883193969727,32.75998306274414,31.4799919128418,38.40998458862305,37.23998260498047,38.139984130859375,48.13019943237305,0.2864562273025512,47.78799819946289,47.90999984741211,48.06100082397461,47.83399963378906,47.93999862670898,47.81800079345703,36.0
1243.84,-0.0841865157265885,-0.2089801439379663,0.3562804394363433,1.3034970516979445,1.117014770359137,-1.7989917098785713,0,31.479883193969727,32.75998306274414,31.4799919128418,38.40998458862305,37.23998260498047,38.139984130859375,48.13019943237305,0.1790353953838348,47.78799819946289,47.90999984741211,48.06100082397461,47.83399963378906,47.93999862670898,47.81800079345703,36.0
1243.848,-0.0841705539536219,-0.2089852670016825,0.3562641702610984,1.3034150783971177,1.1170893717820465,-1.798976043900823,0,31.479883193969727,32.75998306274414,31.4799919128418,38.40998458862305,37.23998260498047,38.139984130859375,48.13019943237305,0.3580718636512756,47.78799819946289,47.90999984741211,48.06100082397461,47.83399963378906,47.93999862670898,47.81800079345703,36.0
1243.856,-0.0841789511201413,-0.2089814075370402,0.3562718796003775,1.3034705578966068,1.1170476593920975,-1.799010290016173,0,31.479883193969727,32.75998306274414,31.4799919128418,38.40998458862305,37.23998260498047,38.139984130859375,48.13019943237305,0.2148458659648895,47.78799819946289,47.90999984741211,48.06100082397461,47.83399963378906,47.93999862670898,47.81800079345703,36.0
1243.864,-0.0841772139015723,-0.2089812058680499,0.3562709765486068,1.3034390894744958,1.1170804901919056,-1.7990489754814476,0,31.479883193969727,32.75998306274414,31.4799919128418,38.40998458862305,37.23998260498047,38.139984130859375,48.13019943237305,0.2864562273025512,47.78799819946289,47.90999984741211,48.06100082397461,47.83399963378906,47.93999862670898,47.81800079345703,36.0
1243.8719999999998,-0.0841762320832121,-0.2089823113422509,0.3562649551401922,1.3034474513889798,1.117062277050893,-1.798993168789359,0,31.479883193969727,32.75998306274414,31.4799919128418,38.40998458862305,37.23998260498047,38.139984130859375,48.13019943237305,0.3222666978836059,47.78799819946289,47.90999984741211,48.06100082397461,47.83399963378906,47.93999862670898,47.81800079345703,36.0
1243.88,-0.0841764812835379,-0.2089815532416892,0.3562720423241529,1.3034575443256675,1.1170517890523248,-1.7990214018938675,0,31.479883193969727,32.75998306274414,31.4799919128418,38.40998458862305,37.23998260498047,38.139984130859375,48.13019943237305,0.2864562273025512,47.78799819946289,47.90999984741211,48.06100082397461,47.83399963378906,47.93999862670898,47.81800079345703,36.0
1243.888,-0.0841798497592613,-0.2089847434345569,0.3562781750692979,1.3034547416319306,1.1170767278186708,-1.7989424074145786,0,31.479883193969727,32.75998306274414,31.4799919128418,38.40998458862305,37.23998260498047,38.139984130859375,48.13019943237305,0.3580718636512756,47.78799819946289,47.90999984741211,48.06100082397461,47.83399963378906,47.93999862670898,47.81800079345703,36.0
1243.896,-0.0841815997166075,-0.2089818230553841,0.3562749265924567,1.3034766554664805,1.1170273267671067,-1.7989745430293267,0,31.479883193969727,32.75998306274414,31.4799919128418,38.40998458862305,37.23998260498047,38.139984130859375,48.13019943237305,0.2864562273025512,47.78799819946289,47.90999984741211,48.06100082397461,47.83399963378906,47.93999862670898,47.81800079345703,36.0
1243.904,-0.0841641865489208,-0.2089841460015364,0.3562628587923284,1.3034055582977888,1.11710781788835,-1.7990312838713705,0,31.479894638061523,32.75998306274414,31.4799919128418,38.40998458862305,37.23998260498047,38.139984130859375,48.13019943237305,0.2148458659648895,47.81800079345703,47.90999984741211,48.02999877929688,47.8489990234375,47.93999862670898,47.81800079345703,36.0
1243.912,-0.0841821460889404,-0.2089809172270468,0.3562757147216808,1.3034775963610008,1.1170419193475098,-1.7990004429880373,0,31.479894638061523,32.75998306274414,31.4799919128418,38.40998458862305,37.23998260498047,38.139984130859375,48.13019943237305,0.2864562273025512,47.81800079345703,47.87900161743164,48.02999877929688,47.8489990234375,47.90999984741211,47.81800079345703,36.0
1243.9199999999998,-0.0841652041399981,-0.2089844619612271,0.3562631227271143,1.3034273348185164,1.1170698818344431,-1.7989947555525296,0,31.479894638061523,32.75998306274414,31.4799919128418,38.40998458862305,37.23998260498047,38.139984130859375,48.13019943237305,0.4296875,47.81800079345703,47.87900161743164,48.02999877929688,47.8489990234375,47.90999984741211,47.81800079345703,36.0
1243.952,-0.0841875137334098,-0.2089821991819174,0.3562725165631266,1.3034850555161694,1.117062429160695,-1.7989494142185198,0,31.479894638061523,32.75998306274414,31.4799919128418,38.40998458862305,37.23998260498047,38.139984130859375,48.13019943237305,0.3222666978836059,47.81800079345703,47.87900161743164,48.02999877929688,47.8489990234375,47.90999984741211,47.8489990234375,36.0
1243.96,-0.0841816779449246,-0.2089809595122465,0.3562700225308395,1.303464819810093,1.1170459463797675,-1.7990115688211743,0,31.479894638061523,32.75998306274414,31.4799919128418,38.40998458862305,37.23998260498047,38.139984130859375,48.13019943237305,0.2148458659648895,47.81800079345703,47.87900161743164,48.02999877929688,47.8489990234375,47.90999984741211,47.8489990234375,36.0
1243.9679999999998,-0.0841841830801258,-0.2089816658749858,0.3562646303253525,1.3034855846685742,1.1170333176409395,-1.7989721490128625,0,31.479894638061523,32.75998306274414,31.4799919128418,38.40998458862305,37.23998260498047,38.139984130859375,48.13019943237305,0.2864562273025512,47.81800079345703,47.87900161743164,48.02999877929688,47.8489990234375,47.90999984741211,47.8489990234375,36.0
1243.976,-0.0841743868233763,-0.2089860750337414,0.3562730409929798,1.3034456219681223,1.117072607329904,-1.7989071345888303,0,31.479894638061523,32.75998306274414,31.4799919128418,38.40998458862305,37.23998260498047,38.139984130859375,48.13019943237305,0.2864562273025512,47.81800079345703,47.87900161743164,48.01499938964844,47.8489990234375,47.90999984741211,47.8489990234375,36.0
1243.984,-0.0841747794464247,-0.2089822035840512,0.356265909792253,1.3034338683350426,1.117076020940291,-1.7990316929664725,0,31.47990608215332,32.75998306274414,31.4799919128418,38.40998458862305,37.23998260498047,38.139984130859375,48.13019943237305,0.2864562273025512,47.757999420166016,47.87900161743164,48.01499938964844,47.8489990234375,47.90999984741211,47.8489990234375,36.0
1243.992,-0.0841832626459986,-0.2089833236309667,0.3562719724569408,1.3034503914145572,1.117089157024218,-1.7989705059328205,0,31.47990608215332,32.75998306274414,31.4799919128418,38.40998458862305,37.23998260498047,38.139984130859375,48.13019943237305,0.2506510317325592,47.757999420166016,47.87900161743164,48.01499938964844,47.8489990234375,47.93999862670898,47.8489990234375,36.0
1244.0,-0.0841841824467482,-0.2089820261081237,0.3562737937922073,1.3034661122989242,1.117043138319529,-1.79899343269342,0,31.47990608215332,32.75998306274414,31.4799919128418,38.40998458862305,37.23998260498047,38.139984130859375,48.13019943237305,0.1432302296161651,47.757999420166016,47.87900161743164,48.01499938964844,47.8489990234375,47.93999862670898,47.8489990234375,36.0
1244.008,-0.084186279919471,-0.2089829721831628,0.356277123569337,1.3034545782162263,1.117088324231304,-1.7989887966280398,0,31.47990608215332,32.75998306274414,31.4799919128418,38.40998458862305,37.23998260498047,38.139984130859375,48.13019943237305,0.3580718636512756,47.757999420166016,47.87900161743164,48.01499938964844,47.8489990234375,47.93999862670898,47.8489990234375,36.0
1244.048,-0.084179971348868,-0.2089833050079937,0.3562686452115799,1.303453226403334,1.11706240702011,-1.798973796749077,0,31.47990608215332,32.75998306274414,31.4799919128418,38.40998458862305,37.23998260498047,38.139984130859375,48.13019943237305,0.3222666978836059,47.757999420166016,47.87900161743164,48.01499938964844,47.8489990234375,47.93999862670898,47.83399963378906,36.0
1244.056,-0.0841748074064683,-0.2089830584205638,0.3562657439043869,1.303450134583792,1.1170470183325123,-1.7989855425807408,0,31.47990608215332,32.75998306274414,31.4799919128418,38.40998458862305,37.23998260498047,38.139984130859375,48.13019943237305,0.1432302296161651,47.757999420166016,47.87900161743164,48.01499938964844,47.8489990234375,47.93999862670898,47.83399963378906,36.0
1244.064,-0.0841716302735268,-0.2089846758366011,0.3562798980532372,1.3034013612834,1.1171297297882836,-1.7990292715010845,0,31.479915618896484,32.75998306274414,31.4799919128418,38.40998458862305,37.23998260498047,38.139984130859375,48.13019943237305,0.2864562273025512,47.81800079345703,47.87900161743164,48.01499938964844,47.8489990234375,47.93999862670898,47.83399963378906,36.0
1244.072,-0.0841764419066622,-0.2089810384667642,0.3562674834166964,1.303455237409364,1.1170494265192628,-1.7990408459908702,0,31.479915618896484,32.75998306274414,31.4799919128418,38.40998458862305,37.23998260498047,38.139984130859375,48.13019943237305,0.2148458659648895,47.81800079345703,47.87900161743164,48.01499938964844,47.8489990234375,47.93999862670898,47.83399963378906,36.0
1244.08,-0.0841809741607964,-0.2089804463181851,0.3562661874611528,1.3034832774463438,1.1170060260008818,-1.7989954115343536,0,31.479915618896484,32.75998306274414,31.4799919128418,38.40998458862305,37.23998260498047,38.139984130859375,48.13019943237305,0.537108302116394,47.81800079345703,47.87900161743164,48.01499938964844,47.8489990234375,47.93999862670898,47.83399963378906,36.0
1244.088,-0.0841665443852099,-0.2089836874997695,0.3562674354478443,1.3034165370722015,1.1171053099586328,-1.7990204870254145,0,31.479915618896484,32.75998306274414,31.4799919128418,38.40998458862305,37.23998260498047,38.139984130859375,48.13019943237305,0.3222666978836059,47.81800079345703,47.87900161743164,48.01499938964844,47.8489990234375,47.93999862670898,47.83399963378906,36.0
1244.096,-0.0841803495131216,-0.2089822156931721,0.3562703033638611,1.3034575904598562,1.117063278701228,-1.799010585087343,0,31.479915618896484,32.75998306274414,31.4799919128418,38.40998458862305,37.23998260498047,38.139984130859375,48.13019943237305,0.1790353953838348,47.81800079345703,47.87900161743164,48.01499938964844,47.8489990234375,47.93999862670898,47.83399963378906,36.0
1244.104,-0.0841815997166075,-0.2089818230553841,0.3562749265924567,1.3034685215708397,1.117047441137405,-1.7989919080408183,0,31.479915618896484,32.75998306274414,31.4799919128418,38.40998458862305,37.23998260498047,38.139984130859375,48.13019943237305,0.2506510317325592,47.81800079345703,47.87900161743164,48.01499938964844,47.8489990234375,47.93999862670898,47.81800079345703,36.0
1244.112,-0.0841737975545618,-0.2089833090496948,0.3562598883831532,1.303438183464548,1.1170678150329527,-1.7989845255452257,0,31.479915618896484,32.75998306274414,31.4799919128418,38.40998458862305,37.23998260498047,38.139984130859375,48.13019943237305,0.2864562273025512,47.81800079345703,47.87900161743164,48.01499938964844,47.8489990234375,47.93999862670898,47.81800079345703,36.0
1244.12,-0.0841778805303684,-0.2089820011995238,0.3562613025606723,1.303468136996097,1.1170474807093778,-1.7989916876100709,0,31.479915618896484,32.75998306274414,31.4799919128418,38.40998458862305,37.23998260498047,38.139984130859375,48.13019943237305,0.3222666978836059,47.81800079345703,47.87900161743164,48.04600143432617,47.8489990234375,47.93999862670898,47.81800079345703,36.0
1244.128,-0.0841701219892882,-0.2089836646677703,0.3562606115380876,1.3034387078988536,1.1170710711151428,-1.7989650853116512,0,31.479915618896484,32.75998306274414,31.4799919128418,38.40998458862305,37.23998260498047,38.139984130859375,48.13019943237305,0.2506510317325592,47.81800079345703,47.87900161743164,48.04600143432617,47.8489990234375,47.93999862670898,47.81800079345703,36.0
1244.136,-0.0841780479918659,-0.2089825448768321,0.356269596031543,1.303465596632925,1.117020686908272,-1.7989586268455178,0,31.479915618896484,32.75998306274414,31.4799919128418,38.40998458862305,37.23998260498047,38.139984130859375,48.13019943237305,0.2864562273025512,47.81800079345703,47.87900161743164,48.04600143432617,47.8489990234375,47.93999862670898,47.81800079345703,36.0
1244.144,-0.0841899493483374,-0.2089819014737388,0.3562821089410613,1.3034967783098106,1.1170153742277111,-1.7989354694334432,0,31.479923248291016,32.75998306274414,31.4799919128418,38.40998458862305,37.23998260498047,38.139984130859375,48.13019943237305,0.2864562273025512,47.81800079345703,47.87900161743164,48.04600143432617,47.81800079345703,47.93999862670898,47.81800079345703,36.0
1244.16,-0.0841749189167758,-0.2089832476733062,0.3562699405997891,1.303434528746903,1.1170908540646134,-1.7990006622666637,0,31.479923248291016,32.75998306274414,31.4799919128418,38.40998458862305,37.23998260498047,38.139984130859375,48.13019943237305,0.2506510317325592,47.81800079345703,47.87900161743164,48.04600143432617,47.81800079345703,47.92499923706055,47.81800079345703,36.0
1244.168,-0.0841871986718871,-0.2089809745195203,0.3562744191850505,1.303492247092375,1.1170234796150609,-1.7989822163923543,0,31.479923248291016,32.75998306274414,31.4799919128418,38.40998458862305,37.23998260498047,38.139984130859375,48.13019943237305,0.3938823342323303,47.81800079345703,47.87900161743164,48.04600143432617,47.81800079345703,47.92499923706055,47.81800079345703,36.0
1244.176,-0.0841753324637802,-0.2089830104021861,0.3562663693170258,1.303458865923229,1.11705300531063,-1.7989830522252943,0,31.479923248291016,32.75998306274414,31.4799919128418,38.40998458862305,37.23998260498047,38.139984130859375,48.13019943237305,0.2864562273025512,47.81800079345703,47.87900161743164,48.04600143432617,47.81800079345703,47.92499923706055,47.81800079345703,36.0
1244.184,-0.0841835292425029,-0.208982045196088,0.3562694338267756,1.3034907166150445,1.11699585763538,-1.798948718680032,0,31.479923248291016,32.75998306274414,31.4799919128418,38.40998458862305,37.23998260498047,38.139984130859375,48.13019943237305,0.2864562273025512,47.81800079345703,47.87900161743164,48.04600143432617,47.81800079345703,47.92499923706055,47.803001403808594,36.0
1244.192,-0.0841804276733659,-0.2089813521393765,0.3562653993306122,1.3034538885005558,1.1170617837052097,-1.7990302459541796,0,31.479923248291016,32.75998306274414,31.4799919128418,38.40998458862305,37.23998260498047,38.139984130859375,48.13019943237305,0.3222666978836059,47.81800079345703,47.87900161743164,48.02999877929688,47.81800079345703,47.92499923706055,47.803001403808594,36.0
1244.2,-0.0841760969583455,-0.208983180563828,0.3562749260439608,1.3034430571661944,1.1170837787228385,-1.7989907907205644,0,31.479923248291016,32.75998306274414,31.4799919128418,38.40998458862305,37.23998260498047,38.139984130859375,48.13019943237305,0.2864562273025512,47.81800079345703,47.87900161743164,48.02999877929688,47.81800079345703,47.92499923706055,47.803001403808594,36.0
1244.208,-0.0841749367474033,-0.208984620144368,0.3562743369146052,1.303452759857351,1.1170644958792733,-1.798935463032696,0,31.479923248291016,32.75998306274414,31.4799919128418,38.40998458862305,37.23998260498047,38.139984130859375,48.13019943237305,0.2864562273025512,47.81800079345703,47.87900161743164,48.02999877929688,47.81800079345703,47.92499923706055,47.803001403808594,36.0
1244.216,-0.0841903841688206,-0.20898080642229,0.3562787002959453,1.3035092780173023,1.116996138457417,-1.798954888640531,0,31.479923248291016,32.75998306274414,31.4799919128418,38.40998458862305,37.23998260498047,38.139984130859375,48.13019943237305,0.2864562273025512,47.81800079345703,47.87900161743164,48.02999877929688,47.81800079345703,47.92499923706055,47.803001403808594,36.0
1244.224,-0.0841818856553886,-0.2089816577114415,0.3562737114245889,1.3034514816980114,1.1170922512822672,-1.7990073266865152,0,31.479930877685547,32.75998306274414,31.4799919128418,38.40998458862305,37.23998260498047,38.139984130859375,48.13019943237305,0.3938823342323303,47.81800079345703,47.87900161743164,48.02999877929688,47.83399963378906,47.92499923706055,47.803001403808594,36.0
1244.232,-0.0841780842594597,-0.2089848618197928,0.3562724802601632,1.3034413958175055,1.1170678508675589,-1.7989462390662967,0,31.479930877685547,32.75998306274414,31.4799919128418,38.40998458862305,37.23998260498047,38.139984130859375,48.13019943237305,0.2864562273025512,47.81800079345703,47.89500045776367,48.02999877929688,47.83399963378906,47.92499923706055,47.803001403808594,36.0
1244.24,-0.0841823844214885,-0.2089831650686607,0.3562735492428236,1.3034702846606554,1.1170482632609715,-1.7989540495573355,0,31.479930877685547,32.75998306274414,31.4799919128418,38.40998458862305,37.23998260498047,38.139984130859375,48.13019943237305,0.2864562273025512,47.81800079345703,47.89500045776367,48.02999877929688,47.83399963378906,47.92499923706055,47.803001403808594,36.0
1244.248,-0.0841895936933138,-0.2089794618828455,0.3562749270365052,1.303491074910648,1.1170356937065749,-1.799027668567226,0,31.479930877685547,32.75998306274414,31.4799919128418,38.40998458862305,37.23998260498047,38.139984130859375,48.13019943237305,0.2148458659648895,47.81800079345703,47.89500045776367,48.02999877929688,47.83399963378906,47.92499923706055,47.803001403808594,36.0
1244.272,-0.0841868205506267,-0.2089820638366323,0.3562727610671337,1.30348383597408,1.117032614900878,-1.7989540675001656,0,31.479930877685547,32.75998306274414,31.4799919128418,38.40998458862305,37.23998260498047,38.139984130859375,48.13019943237305,0.2148458659648895,47.81800079345703,47.89500045776367,48.06100082397461,47.83399963378906,47.92499923706055,47.83399963378906,36.0
1244.28,-0.0841777524397081,-0.2089837973580811,0.3562748452229706,1.3034459606189477,1.1170817780333335,-1.7989904125587453,0,31.479930877685547,32.75998306274414,31.4799919128418,38.40998458862305,37.23998260498047,38.139984130859375,48.13019943237305,0.2864562273025512,47.81800079345703,47.89500045776367,48.06100082397461,47.83399963378906,47.92499923706055,47.83399963378906,36.0
1244.288,-0.0841867300810925,-0.208981557273137,0.3562784195957738,1.3034857475905195,1.1170200904775711,-1.798964684701941,0,31.479930877685547,32.75998306274414,31.4799919128418,38.40998458862305,37.23998260498047,38.139984130859375,48.13019943237305,0.3222666978836059,47.81800079345703,47.89500045776367,48.06100082397461,47.83399963378906,47.92499923706055,47.83399963378906,36.0
1244.296,-0.0841884392460605,-0.2089809041109747,0.3562794884713293,1.3035050368648675,1.1170061553420665,-1.7989634236072691,0,31.479930877685547,32.75998306274414,31.4799919128418,38.40998458862305,37.23998260498047,38.139984130859375,48.13019943237305,0.2506510317325592,47.81800079345703,47.89500045776367,48.06100082397461,47.83399963378906,47.92499923706055,47.83399963378906,36.0
1244.312,-0.0841783228704216,-0.2089827283915662,0.3562701076835957,1.3034329180011537,1.1170840103277109,-1.79904006249104,0,31.47993850708008,32.75998306274414,31.4799919128418,38.40998458862305,37.23998260498047,38.139984130859375,48.13019943237305,0.3580718636512756,47.77299880981445,47.86399841308594,48.06100082397461,47.8489990234375,47.95500183105469,47.83399963378906,36.0
1244.32,-0.0841766386256446,-0.2089829722394323,0.3562750892871933,1.3034462792305943,1.1170570022078017,-1.798994294099259,0,31.47993850708008,32.75998306274414,31.4799919128418,38.40998458862305,37.23998260498047,38.139984130859375,48.13019943237305,0.2864562273025512,47.77299880981445,47.86399841308594,48.06100082397461,47.8489990234375,47.95500183105469,47.83399963378906,36.0
1244.328,-0.0841777376129407,-0.2089806226325584,0.3562721236639227,1.303466417513165,1.1170332118217563,-1.7990225517245209,0,31.47993850708008,32.75998306274414,31.4799919128418,38.40998458862305,37.23998260498047,38.139984130859375,48.13019943237305,0.4296875,47.77299880981445,47.86399841308594,48.06100082397461,47.8489990234375,47.95500183105469,47.83399963378906,36.0
1244.336,-0.0841803149830971,-0.2089810034465566,0.3562663693170258,1.3034855386377553,1.1170218280401236,-1.7989829658321903,0,31.47993850708008,32.75998306274414,31.4799919128418,38.40998458862305,37.23998260498047,38.139984130859375,48.13019943237305,0.2506510317325592,47.77299880981445,47.86399841308594,48.01499938964844,47.8489990234375,47.95500183105469,47.83399963378906,36.0
1244.344,-0.0841725846223036,-0.208984417053561,0.3562741543451526,1.3034220832319314,1.1171097219982906,-1.7989815210743287,0,31.47993850708008,32.75998306274414,31.4799919128418,38.40998458862305,37.23998260498047,38.139984130859375,48.13019943237305,0.2148458659648895,47.77299880981445,47.86399841308594,48.01499938964844,47.8489990234375,47.95500183105469,47.81800079345703,36.0
1244.352,-0.0841729588382365,-0.2089836650813653,0.3562660241865052,1.3034359794237556,1.1170896253311096,-1.799000720318079,0,31.47993850708008,32.75998306274414,31.4799919128418,38.40998458862305,37.23998260498047,38.139984130859375,48.13019943237305,0.3938823342323303,47.77299880981445,47.86399841308594,48.01499938964844,47.8489990234375,47.95500183105469,47.81800079345703,36.0
1244.36,-0.0841891435333238,-0.2089808768341431,0.3562736310094391,1.3034924417778904,1.1170234699833557,-1.798982320728721,0,31.47993850708008,32.75998306274414,31.4799919128418,38.40998458862305,37.23998260498047,38.139984130859375,48.13019943237305,0.2864562273025512,47.77299880981445,47.86399841308594,48.01499938964844,47.8489990234375,47.95500183105469,47.81800079345703,36.0
1244.384,-0.0841773380799243,-0.2089825697064854,0.3562703028354523,1.3034495296343862,1.1170739706125974,-1.7990007421813692,0,31.479944229125977,32.75998306274414,31.4799919128418,38.40998458862305,37.23998260498047,38.139984130859375,48.13019943237305,0.2506510317325592,47.81800079345703,47.86399841308594,48.01499938964844,47.8489990234375,47.95500183105469,47.81800079345703,36.0
1244.392,-0.0841786153242917,-0.208984275813171,0.3562685638560563,1.303456203505696,1.1170509840370584,-1.798946210608826,0,31.479944229125977,32.75998306274414,31.4799919128418,38.40998458862305,37.23998260498047,38.139984130859375,48.13019943237305,0.3222666978836059,47.81800079345703,47.87900161743164,48.01499938964844,47.8489990234375,47.92499923706055,47.81800079345703,36.0
1244.4,-0.084181621144051,-0.2089809652526145,0.3562750892871933,1.3034566841690136,1.1170660540215986,-1.799028937706696,0,31.479944229125977,32.75998306274414,31.4799919128418,38.40998458862305,37.23998260498047,38.139984130859375,48.13019943237305,0.2506510317325592,47.81800079345703,47.87900161743164,48.01499938964844,47.8489990234375,47.92499923706055,47.81800079345703,36.0
1244.408,-0.0841792434323939,-0.2089819572846351,0.3562649557738063,1.303451464621746,1.1170615916505275,-1.7990116512966523,0,31.479944229125977,32.75998306274414,31.4799919128418,38.40998458862305,37.23998260498047,38.139984130859375,48.13019943237305,0.3222666978836059,47.81800079345703,47.87900161743164,48.02999877929688,47.8489990234375,47.92499923706055,47.81800079345703,36.0
1244.416,-0.0841844013745612,-0.208982741804209,0.3562723989191606,1.3034647480012058,1.11705960551882,-1.7989627134508628,0,31.479944229125977,32.75998306274414,31.4799919128418,38.40998458862305,37.23998260498047,38.139984130859375,48.13019943237305,0.2864562273025512,47.81800079345703,47.87900161743164,48.02999877929688,47.8489990234375,47.92499923706055,47.81800079345703,36.0
1244.424,-0.0841872554125097,-0.2089809687830007,0.3562693524280203,1.303480068207225,1.117053608208825,-1.7990082166518762,0,31.479944229125977,32.75998306274414,31.4799919128418,38.40998458862305,37.23998260498047,38.139984130859375,48.13019943237305,0.2864562273025512,47.81800079345703,47.87900161743164,48.02999877929688,47.8489990234375,47.92499923706055,47.81800079345703,36.0
1244.432,-0.0841704496058322,-0.208983296014323,0.3562616278911525,1.303424746819602,1.1170812856537395,-1.7990225503679125,0,31.479944229125977,32.75998306274414,31.4799919128418,38.40998458862305,37.23998260498047,38.139984130859375,48.13019943237305,0.2506510317325592,47.81800079345703,47.87900161743164,48.02999877929688,47.8489990234375,47.92499923706055,47.81800079345703,36.0
1244.44,-0.0841789511201413,-0.2089814075370402,0.3562718796003775,1.3034746046042616,1.117037652199585,-1.7990016507263713,0,31.479944229125977,32.75998306274414,31.4799919128418,38.40998458862305,37.23998260498047,38.139984130859375,48.13019943237305,0.3222666978836059,47.81800079345703,47.87900161743164,48.02999877929688,47.8489990234375,47.92499923706055,47.81800079345703,36.0
1244.448,-0.0841785908418898,-0.2089828717554858,0.3562692376310198,1.3034420469450063,1.1170673892059368,-1.79900351526035,0,31.479944229125977,32.75998306274414,31.4799919128418,38.40998458862305,37.23998260498047,38.139984130859375,48.13019943237305,0.2864562273025512,47.81800079345703,47.87900161743164,48.02999877929688,47.8489990234375,47.92499923706055,47.81800079345703,36.0
1244.456,-0.0841854680116511,-0.2089824855640765,0.3562731875106488,1.3034848353009107,1.1170187020166809,-1.798946361211019,0,31.479944229125977,32.75998306274414,31.4799919128418,38.40998458862305,37.23998260498047,38.139984130859375,48.13019943237305,0.4654926657676697,47.81800079345703,47.87900161743164,48.02999877929688,47.8489990234375,47.92499923706055,47.81800079345703,36.0
1244.464,-0.0841717976682668,-0.208980741412461,0.3562600566486568,1.303448523141929,1.117070294538602,-1.799076297200762,0,31.479949951171875,32.75998306274414,31.4799919128418,38.40998458862305,37.23998260498047,38.139984130859375,48.13019943237305,0.2864562273025512,47.81800079345703,47.87900161743164,48.02999877929688,47.83399963378906,47.92499923706055,47.81800079345703,36.0
1244.472,-0.0841747794464247,-0.2089822035840512,0.356265909792253,1.303446089862204,1.1170457996474947,-1.7990056021628775,0,31.479949951171875,32.75998306274414,31.4799919128418,38.40998458862305,37.23998260498047,38.139984130859375,48.13019943237305,0.3580718636512756,47.81800079345703,47.86399841308594,48.02999877929688,47.83399963378906,47.92499923706055,47.81800079345703,36.0
1244.488,-0.0841745933664442,-0.2089816451795067,0.3562677636526007,1.3034573512401704,1.11705180545568,-1.7990212936347572,0,31.479949951171875,32.75998306274414,31.4799919128418,38.40998458862305,37.23998260498047,38.139984130859375,48.13019943237305,0.2148458659648895,47.81800079345703,47.86399841308594,48.01499938964844,47.83399963378906,47.92499923706055,47.81800079345703,36.0
1244.496,-0.0841787359944449,-0.2089839182882733,0.3562784191374215,1.3034469267904645,1.117072066593674,-1.798963653904892,0,31.479949951171875,32.75998306274414,31.4799919128418,38.40998458862305,37.23998260498047,38.139984130859375,48.13019943237305,0.2148458659648895,47.81800079345703,47.86399841308594,48.01499938964844,47.83399963378906,47.92499923706055,47.81800079345703,36.0
1244.504,-0.0841721742107783,-0.2089823231766034,0.3562674014211611,1.3034219938277565,1.1171190247602785,-1.799064669314651,0,31.479949951171875,32.75998306274414,31.4799919128418,38.40998458862305,37.23998260498047,38.139984130859375,48.13019943237305,0.3222666978836059,47.81800079345703,47.86399841308594,48.01499938964844,47.83399963378906,47.92499923706055,47.81800079345703,36.0
1244.512,-0.0841893118049835,-0.208981060236827,0.3562727610671337,1.3034890181932188,1.1170371906027097,-1.7989714324491513,0,31.479949951171875,32.75998306274414,31.4799919128418,38.40998458862305,37.23998260498047,38.139984130859375,48.13019943237305,0.2864562273025512,47.81800079345703,47.86399841308594,48.01499938964844,47.83399963378906,47.92499923706055,47.81800079345703,36.0
1244.52,-0.0841823096751634,-0.2089817982229394,0.3562742197947628,1.3034601862148774,1.1170545000039571,-1.7990018879357648,0,31.479949951171875,32.75998306274414,31.4799919128418,38.40998458862305,37.23998260498047,38.139984130859375,48.13019943237305,0.2506510317325592,47.81800079345703,47.86399841308594,48.01499938964844,47.83399963378906,47.92499923706055,47.81800079345703,36.0
1244.528,-0.0841756567208842,-0.2089831909600262,0.3562668776682345,1.3034509317347411,1.1170557040402846,-1.7990119973522891,0,31.479949951171875,32.75998306274414,31.4799919128418,38.40998458862305,37.23998260498047,38.139984130859375,48.13019943237305,0.3580718636512756,47.81800079345703,47.86399841308594,48.01499938964844,47.83399963378906,47.92499923706055,47.81800079345703,36.0
1244.5359999999998,-0.0841935639961235,-0.2089806358818704,0.3562778306688049,1.303505822580757,1.1170191822051465,-1.7989711215277433,0,31.479949951171875,32.75998306274414,31.4799919128418,38.40998458862305,37.23998260498047,38.139984130859375,48.13019943237305,0.3222666978836059,47.81800079345703,47.86399841308594,48.01499938964844,47.83399963378906,47.92499923706055,47.81800079345703,36.0
1244.544,-0.0841819026746514,-0.2089828615911292,0.3562752720601978,1.303472465787551,1.1170314279214597,-1.7989837367531505,0,31.479955673217773,32.75998306274414,31.4799919128418,38.40998458862305,37.23998260498047,38.139984130859375,48.13019943237305,0.2864562273025512,47.81800079345703,47.86399841308594,48.01499938964844,47.8489990234375,47.92499923706055,47.81800079345703,36.0
1244.552,-0.0841815449576875,-0.2089816280854425,0.3562656630734617,1.3034679013702726,1.117043740788402,-1.7990114278492209,0,31.479955673217773,32.75998306274414,31.4799919128418,38.40998458862305,37.23998260498047,38.139984130859375,48.13019943237305,0.2864562273025512,47.81800079345703,47.86399841308594,48.01499938964844,47.8489990234375,47.90999984741211,47.81800079345703,36.0
1244.56,-0.0841816959126211,-0.2089823320590741,0.3562744187655687,1.3034708295406805,1.1170498099879422,-1.7989724600800816,0,31.479955673217773,32.75998306274414,31.4799919128418,38.40998458862305,37.23998260498047,38.139984130859375,48.13019943237305,0.2864562273025512,47.81800079345703,47.86399841308594,48.01499938964844,47.8489990234375,47.90999984741211,47.81800079345703,36.0
1244.568,-0.0841747506054522,-0.208983064159523,0.3562708106607407,1.303441998780882,1.1170671257257063,-1.799002911564064,0,31.479955673217773,32.75998306274414,31.4799919128418,38.40998458862305,37.23998260498047,38.139984130859375,48.13019943237305,0.2506510317325592,47.81800079345703,47.86399841308594,48.01499938964844,47.8489990234375,47.90999984741211,47.81800079345703,36.0
1244.576,-0.0841847794990007,-0.2089816525176304,0.3562740570705329,1.3034853800448498,1.1170202485766718,-1.7989647717943664,0,31.479955673217773,32.75998306274414,31.4799919128418,38.40998458862305,37.23998260498047,38.139984130859375,48.13019943237305,0.2864562273025512,47.81800079345703,47.86399841308594,48.01499938964844,47.8489990234375,47.90999984741211,47.81800079345703,36.0
1244.6,-0.0841826094194747,-0.2089833427269024,0.3562676125338837,1.3034668625860453,1.1170619904579726,-1.7989431572703587,0,31.479955673217773,32.75998306274414,31.4799919128418,38.40998458862305,37.23998260498047,38.139984130859375,48.13019943237305,0.2506510317325592,47.81800079345703,47.86399841308594,48.01499938964844,47.8489990234375,47.90999984741211,47.83399963378906,36.0
1244.608,-0.0841686011006968,-0.208983902671397,0.3562619081523371,1.303439082465064,1.117053443366531,-1.7989769072031012,0,31.479955673217773,32.75998306274414,31.4799919128418,38.40998458862305,37.23998260498047,38.139984130859375,48.13019943237305,0.3580718636512756,47.81800079345703,47.86399841308594,48.01499938964844,47.8489990234375,47.90999984741211,47.83399963378906,36.0
1244.616,-0.0841792046431025,-0.2089833355683183,0.3562744187655687,1.303465647394209,1.1170452342352442,-1.7989550950859632,0,31.479955673217773,32.75998306274414,31.4799919128418,38.40998458862305,37.23998260498047,38.139984130859375,48.13019943237305,0.3222666978836059,47.81800079345703,47.86399841308594,48.01499938964844,47.8489990234375,47.90999984741211,47.83399963378906,36.0
1244.624,-0.0841859694153126,-0.2089810498153792,0.356279651284175,1.3034757561272747,1.1170505141358258,-1.7990092655511785,0,31.47995948791504,32.75998306274414,31.4799919128418,38.40998458862305,37.23998260498047,38.139984130859375,48.13019943237305,0.3222666978836059,47.83399963378906,47.86399841308594,48.02999877929688,47.83399963378906,47.90999984741211,47.83399963378906,36.0
1244.6319999999998,-0.0841820954166357,-0.2089803849347839,0.3562762396186577,1.3034796241654334,1.1170290655500068,-1.7990115481876428,0,31.47995948791504,32.75998306274414,31.4799919128418,38.40998458862305,37.23998260498047,38.139984130859375,48.13019943237305,0.3222666978836059,47.83399963378906,47.87900161743164,48.02999877929688,47.83399963378906,47.92499923706055,47.83399963378906,36.0
1244.64,-0.084177120064326,-0.2089814937324417,0.3562625341731579,1.3034866338558937,1.117007453708611,-1.7989754477952928,0,31.47995948791504,32.75998306274414,31.4799919128418,38.40998458862305,37.23998260498047,38.139984130859375,48.13019943237305,0.2864562273025512,47.83399963378906,47.87900161743164,48.02999877929688,47.83399963378906,47.92499923706055,47.83399963378906,36.0
1244.648,-0.0841815096193174,-0.2089807759906759,0.3562708925821973,1.3034682425963835,1.117032224894679,-1.7990224572945823,0,31.47995948791504,32.75998306274414,31.4799919128418,38.40998458862305,37.23998260498047,38.139984130859375,48.13019943237305,0.2864562273025512,47.83399963378906,47.87900161743164,48.02999877929688,47.83399963378906,47.92499923706055,47.83399963378906,36.0
1244.6799999999998,-0.0841780986398292,-0.208983077138715,0.3562690711582999,1.303447300460742,1.1170737687851526,-1.7989822518561538,0,31.47995948791504,32.75998306274414,31.4799919128418,38.40998458862305,37.23998260498047,38.139984130859375,48.13019943237305,0.2864562273025512,47.83399963378906,47.87900161743164,48.02999877929688,47.83399963378906,47.92499923706055,47.81800079345703,36.0
1244.688,-0.0841815972505895,-0.2089830722283427,0.3562789444931002,1.3034444637940883,1.1170788638189015,-1.7990102606761833,0,31.47995948791504,32.75998306274414,31.4799919128418,38.40998458862305,37.23998260498047,38.139984130859375,48.13019943237305,0.3580718636512756,47.83399963378906,47.87900161743164,48.02999877929688,47.83399963378906,47.92499923706055,47.81800079345703,36.0
1244.696,-0.0841666354594955,-0.2089863228083318,0.3562706473950507,1.3034065493186393,1.1171207235350262,-1.798981784001791,0,31.47995948791504,32.75998306274414,31.4799919128418,38.40998458862305,37.23998260498047,38.139984130859375,48.13019943237305,0.1790353953838348,47.83399963378906,47.87900161743164,48.0,47.83399963378906,47.92499923706055,47.81800079345703,36.0
1244.712,-0.0841856419947768,-0.2089826713924215,0.356277468264583,1.3034775379417285,1.1170422811981449,-1.7989439208127038,0,31.479963302612305,32.75998306274414,31.4799919128418,38.40998458862305,37.23998260498047,38.139984130859375,48.13019943237305,0.3938823342323303,47.803001403808594,47.87900161743164,48.0,47.83399963378906,47.95500183105469,47.81800079345703,36.0
1244.72,-0.0841766456179295,-0.2089820740515989,0.3562613839154102,1.3034596069532367,1.117054549201877,-1.799001563168608,0,31.479963302612305,32.75998306274414,31.4799919128418,38.40998458862305,37.23998260498047,38.139984130859375,48.13019943237305,0.3222666978836059,47.803001403808594,47.87900161743164,48.0,47.83399963378906,47.95500183105469,47.81800079345703,36.0
1244.7279999999998,-0.0841810642466862,-0.2089814933527557,0.3562702214946768,1.3034673292269838,1.117061370760657,-1.798999505920417,0,31.479963302612305,32.75998306274414,31.4799919128418,38.40998458862305,37.23998260498047,38.139984130859375,48.13019943237305,0.2148458659648895,47.803001403808594,47.87900161743164,48.0,47.83399963378906,47.95500183105469,47.81800079345703,36.0
1244.736,-0.0841873060596385,-0.2089815010769157,0.356268827530289,1.3034780397064816,1.1170664618309856,-1.7989971113961456,0,31.479963302612305,32.75998306274414,31.4799919128418,38.40998458862305,37.23998260498047,38.139984130859375,48.13019943237305,0.2148458659648895,47.803001403808594,47.87900161743164,48.0,47.83399963378906,47.95500183105469,47.81800079345703,36.0
1244.744,-0.0841909462285184,-0.2089790401626775,0.3562745005838058,1.3034982093898635,1.117029492262358,-1.7990180098396975,0,31.479963302612305,32.75998306274414,31.4799919128418,38.40998458862305,37.23998260498047,38.139984130859375,48.13019943237305,0.2864562273025512,47.803001403808594,47.87900161743164,48.0,47.83399963378906,47.95500183105469,47.83399963378906,36.0
1244.752,-0.0841843507390843,-0.2089822095416562,0.3562729237929291,1.3034667762885026,1.1170467520996603,-1.798973818608958,0,31.479963302612305,32.75998306274414,31.4799919128418,38.40998458862305,37.23998260498047,38.139984130859375,48.13019943237305,0.2864562273025512,47.803001403808594,47.87900161743164,48.0,47.83399963378906,47.95500183105469,47.83399963378906,36.0
1244.76,-0.0841767418198879,-0.2089825830550162,0.3562608760893747,1.3034700491149382,1.1170368038234566,-1.7989647501907833,0,31.479963302612305,32.75998306274414,31.4799919128418,38.40998458862305,37.23998260498047,38.139984130859375,48.13019943237305,0.2864562273025512,47.803001403808594,47.87900161743164,48.0,47.83399963378906,47.95500183105469,47.83399963378906,36.0
1244.768,-0.084196595827145,-0.2089787237859836,0.35627346816769,1.3035321269425963,1.116988161917901,-1.798971122232388,0,31.479963302612305,32.75998306274414,31.4799919128418,38.40998458862305,37.23998260498047,38.139984130859375,48.13019943237305,0.2506510317325592,47.803001403808594,47.87900161743164,48.01499938964844,47.83399963378906,47.95500183105469,47.83399963378906,36.0
1244.7759999999998,-0.0841741036856287,-0.2089825452074573,0.3562619088121316,1.3034523652708725,1.1170472266916356,-1.7990040290170304,0,31.479963302612305,32.75998306274414,31.4799919128418,38.40998458862305,37.23998260498047,38.139984130859375,48.13019943237305,0.2506510317325592,47.803001403808594,47.87900161743164,48.01499938964844,47.83399963378906,47.95500183105469,47.83399963378906,36.0
1244.784,-0.0841705611398918,-0.2089834853182444,0.3562658245296553,1.303413187773707,1.1171151146507543,-1.7990290305391972,0,31.47996711730957,32.75998306274414,31.4799919128418,38.40998458862305,37.23998260498047,38.139984130859375,48.13019943237305,0.3222666978836059,47.81800079345703,47.87900161743164,48.01499938964844,47.83399963378906,47.95500183105469,47.83399963378906,36.0
1244.792,-0.0841914874733772,-0.2089793723549904,0.3562843563175984,1.303483307112564,1.117055643582043,-1.7990449502390773,0,31.47996711730957,32.75998306274414,31.4799919128418,38.40998458862305,37.23998260498047,38.139984130859375,48.13019943237305,0.3222666978836059,47.81800079345703,47.86399841308594,48.01499938964844,47.83399963378906,47.92499923706055,47.83399963378906,36.0
1244.8,-0.0841710355157291,-0.2089829050316199,0.3562669749080136,1.3034361286421177,1.117078126600561,-1.7990116412645487,0,31.47996711730957,32.75998306274414,31.4799919128418,38.40998458862305,37.23998260498047,38.139984130859375,48.13019943237305,0.3938823342323303,47.81800079345703,47.86399841308594,48.01499938964844,47.83399963378906,47.92499923706055,47.83399963378906,36.0
1244.8239999999998,-0.0841784982125889,-0.2089811300854525,0.3562708919859896,1.3034520077713392,1.117063131793233,-1.7990300656848024,0,31.47996711730957,32.75998306274414,31.4799919128418,38.40998458862305,37.23998260498047,38.139984130859375,48.13019943237305,0.2864562273025512,47.81800079345703,47.86399841308594,48.01499938964844,47.83399963378906,47.92499923706055,47.83399963378906,36.0
1244.856,-0.0841764812835379,-0.2089815532416892,0.3562720423241529,1.3034575443256675,1.1170517890523248,-1.7990214018938675,0,31.47996711730957,32.75998306274414,31.4799919128418,38.40998458862305,37.23998260498047,38.139984130859375,48.13019943237305,0.2864562273025512,47.81800079345703,47.86399841308594,48.02999877929688,47.83399963378906,47.92499923706055,47.83399963378906,36.0
1244.864,-0.0841873060596385,-0.2089815010769157,0.356268827530289,1.3034902609508725,1.1170362399350815,-1.7989710209017629,0,31.47997093200684,32.75998306274414,31.4799919128418,38.40998458862305,37.23998260498047,38.139984130859375,48.13019943237305,0.2864562273025512,47.78799819946289,47.86399841308594,48.02999877929688,47.81800079345703,47.92499923706055,47.83399963378906,36.0
1244.8719999999998,-0.0841791194183825,-0.2089815910592957,0.3562710096014077,1.3034671345407334,1.1170613803961622,-1.7989994015822617,0,31.47997093200684,32.75998306274414,31.4799919128418,38.40998458862305,37.23998260498047,38.139984130859375,48.13019943237305,0.3580718636512756,47.78799819946289,47.87900161743164,48.02999877929688,47.81800079345703,47.92499923706055,47.83399963378906,36.0
1244.88,-0.084172923433057,-0.2089828130944193,0.3562712535794946,1.3034322747196114,1.1170881172586906,-1.7990203888208447,0,31.47997093200684,32.75998306274414,31.4799919128418,38.40998458862305,37.23998260498047,38.139984130859375,48.13019943237305,0.3222666978836059,47.78799819946289,47.87900161743164,48.02999877929688,47.81800079345703,47.92499923706055,47.83399963378906,36.0
1244.888,-0.0841779413731628,-0.2089816581823272,0.3562660241865052,1.3034504718158595,1.1170885701910185,-1.7990266380854087,0,31.47997093200684,32.75998306274414,31.4799919128418,38.40998458862305,37.23998260498047,38.139984130859375,48.13019943237305,0.3580718636512756,47.78799819946289,47.87900161743164,48.02999877929688,47.81800079345703,47.92499923706055,47.83399963378906,36.0
1244.896,-0.0841787412714117,-0.2089826803210941,0.3562693514859568,1.3034505487663848,1.117090730133927,-1.7989887037394008,0,31.47997093200684,32.75998306274414,31.4799919128418,38.40998458862305,37.23998260498047,38.139984130859375,48.13019943237305,0.2148458659648895,47.78799819946289,47.87900161743164,48.02999877929688,47.81800079345703,47.92499923706055,47.83399963378906,36.0
1244.904,-0.0841755693344816,-0.2089802181318778,0.356273454370854,1.3034472973642353,1.1170713641014087,-1.7990770162602467,0,31.47997093200684,32.75998306274414,31.4799919128418,38.40998458862305,37.23998260498047,38.139984130859375,48.13019943237305,0.4296875,47.78799819946289,47.87900161743164,48.02999877929688,47.81800079345703,47.92499923706055,47.81800079345703,36.0
1244.912,-0.0841764419066622,-0.2089810384667642,0.3562674834166964,1.3034633712237862,1.1170293121642918,-1.7990234809315369,0,31.47997093200684,32.75998306274414,31.4799919128418,38.40998458862305,37.23998260498047,38.139984130859375,48.13019943237305,0.2864562273025512,47.78799819946289,47.87900161743164,48.02999877929688,47.81800079345703,47.92499923706055,47.81800079345703,36.0
1244.936,-0.0841729194372202,-0.2089831503382193,0.3562614652554029,1.3034377603444578,1.1170771559493775,-1.7990114387016125,0,31.47997093200684,32.75998306274414,31.4799919128418,38.40998458862305,37.23998260498047,38.139984130859375,48.13019943237305,0.2864562273025512,47.78799819946289,47.87900161743164,48.02999877929688,47.81800079345703,47.92499923706055,47.81800079345703,36.0
1244.944,-0.0841948437554946,-0.2089810928878306,0.3562720736273905,1.3035202845953495,1.1170050009699055,-1.7989329671648335,0,31.4799747467041,32.75998306274414,31.4799919128418,38.40998458862305,37.23998260498047,38.139984130859375,48.13019943237305,0.3580718636512756,47.81800079345703,47.87900161743164,48.02999877929688,47.83399963378906,47.92499923706055,47.81800079345703,36.0
1244.952,-0.084158774615279,-0.208986009912791,0.3562571994269385,1.30338218856278,1.117146772947509,-1.7990109958031035,0,31.4799747467041,32.75998306274414,31.4799919128418,38.40998458862305,37.23998260498047,38.139984130859375,48.13019943237305,0.2864562273025512,47.81800079345703,47.86399841308594,48.02999877929688,47.83399963378906,47.95500183105469,47.81800079345703,36.0
1244.96,-0.0841736118985021,-0.2089836460014302,0.3562703841614828,1.3034357769310398,1.1170765632136976,-1.7989933390816248,0,31.4799747467041,32.75998306274414,31.4799919128418,38.40998458862305,37.23998260498047,38.139984130859375,48.13019943237305,0.3580718636512756,47.81800079345703,47.86399841308594,48.02999877929688,47.83399963378906,47.95500183105469,47.81800079345703,36.0
1244.9679999999998,-0.0841791866917735,-0.2089819630211707,0.3562700225308395,1.3034555503192482,1.117051477704332,-1.7990029295094971,0,31.4799747467041,32.75998306274414,31.4799919128418,38.40998458862305,37.23998260498047,38.139984130859375,48.13019943237305,0.2864562273025512,47.81800079345703,47.86399841308594,48.02999877929688,47.83399963378906,47.95500183105469,47.81800079345703,36.0
1244.976,-0.0841828630256167,-0.2089799941831284,0.3562613025606723,1.3034907630220554,1.117026310473505,-1.7990002405034846,0,31.4799747467041,32.75998306274414,31.4799919128418,38.40998458862305,37.23998260498047,38.139984130859375,48.13019943237305,0.2864562273025512,47.81800079345703,47.86399841308594,48.02999877929688,47.83399963378906,47.95500183105469,47.81800079345703,36.0
1244.984,-0.084169511180654,-0.2089836921340665,0.3562677636526007,1.3034343944762654,1.1170730961878452,-1.7990123087448937,0,31.4799747467041,32.75998306274414,31.4799919128418,38.40998458862305,37.23998260498047,38.139984130859375,48.13019943237305,0.2864562273025512,47.81800079345703,47.86399841308594,48.02999877929688,47.83399963378906,47.95500183105469,47.81800079345703,36.0
1244.992,-0.0841798502313709,-0.2089842029910696,0.3562684824857874,1.3034606460599598,1.11705402271724,-1.7989450607647497,0,31.4799747467041,32.75998306274414,31.4799919128418,38.40998458862305,37.23998260498047,38.139984130859375,48.19097137451172,0.2148458659648895,47.81800079345703,47.86399841308594,48.02999877929688,47.83399963378906,47.95500183105469,47.81800079345703,36.0
1245.0,-0.0841654789093473,-0.2089855321746868,0.3562658245296553,1.3034065000948178,1.1170961767335226,-1.798985315597908,0,31.4799747467041,32.75998306274414,31.4799919128418,38.40998458862305,37.23998260498047,38.139984130859375,48.13019943237305,0.2148458659648895,47.81800079345703,47.86399841308594,48.02999877929688,47.83399963378906,47.95500183105469,47.81800079345703,36.0
1245.008,-0.0841804129842506,-0.2089836773454066,0.3562785009655577,1.303442039699941,1.1170786715379886,-1.7989916661054903,0,31.4799747467041,32.75998306274414,31.4799919128418,38.40998458862305,37.23998260498047,38.139984130859375,48.13019943237305,0.4296875,47.81800079345703,47.86399841308594,48.02999877929688,47.83399963378906,47.95500183105469,47.81800079345703,36.0
1245.0159999999998,-0.0841693159705981,-0.2089831805437271,0.3562618261200473,1.303436600318357,1.1170817573343443,-1.798991918589855,0,31.4799747467041,32.75998306274414,31.4799919128418,38.40998458862305,37.23998260498047,38.139984130859375,48.13019943237305,0.2864562273025512,47.81800079345703,47.86399841308594,48.02999877929688,47.83399963378906,47.95500183105469,47.81800079345703,36.0
1245.04,-0.0841674894023294,-0.2089836419270818,0.3562514096636171,1.3034124280641406,1.1171022407522568,-1.79902162019423,0,31.47997665405273,32.75998306274414,31.4799919128418,38.40998458862305,37.23998260498047,38.139984130859375,48.13019943237305,0.4296875,47.803001403808594,47.86399841308594,48.02999877929688,47.83399963378906,47.90999984741211,47.81800079345703,36.0
1245.048,-0.0841923290822112,-0.208980708734128,0.3562779120973485,1.303505426234865,1.1170061360754495,-1.7989636322800786,0,31.47997665405273,32.75998306274414,31.4799919128418,38.40998458862305,37.23998260498047,38.139984130859375,48.13019943237305,0.2506510317325592,47.803001403808594,47.86399841308594,48.02999877929688,47.83399963378906,47.90999984741211,47.81800079345703,36.0
1245.056,-0.0841811210475586,-0.2089814876122742,0.3562651547383202,1.3034713776377302,1.117051370341532,-1.7989908627366984,0,31.47997665405273,32.75998306274414,31.4799919128418,38.40998458862305,37.23998260498047,38.139984130859375,48.13019943237305,0.1790353953838348,47.803001403808594,47.86399841308594,48.01499938964844,47.83399963378906,47.90999984741211,47.81800079345703,36.0
1245.064,-0.084187959271034,-0.2089814819802043,0.3562731875106488,1.3034859708433355,1.1170332848406035,-1.7989723655208203,0,31.47997665405273,32.75998306274414,31.4799919128418,38.40998458862305,37.23998260498047,38.139984130859375,48.13019943237305,0.2864562273025512,47.803001403808594,47.86399841308594,48.01499938964844,47.83399963378906,47.90999984741211,47.86399841308594,36.0
1245.072,-0.0841835207271069,-0.2089838325031578,0.3562779935111468,1.3034687176916084,1.117030020582748,-1.798947244399871,0,31.47997665405273,32.75998306274414,31.4799919128418,38.40998458862305,37.23998260498047,38.139984130859375,48.13019943237305,0.3580718636512756,47.803001403808594,47.86399841308594,48.01499938964844,47.83399963378906,47.90999984741211,47.86399841308594,36.0
1245.08,-0.0841704657691031,-0.2089831228402809,0.3562732916793154,1.3034565338047526,1.1170237066747997,-1.7989875457074918,0,31.47997665405273,32.75998306274414,31.4799919128418,38.40998458862305,37.23998260498047,38.139984130859375,48.13019943237305,0.2506510317325592,47.803001403808594,47.86399841308594,48.01499938964844,47.83399963378906,47.90999984741211,47.86399841308594,36.0
1245.088,-0.0841830658061932,-0.2089813899097832,0.3562643666076981,1.303479706255559,1.117031246285868,-1.7989736021015983,0,31.47997665405273,32.75998306274414,31.4799919128418,38.40998458862305,37.23998260498047,38.139984130859375,48.13019943237305,0.3222666978836059,47.803001403808594,47.86399841308594,48.01499938964844,47.83399963378906,47.90999984741211,47.86399841308594,36.0
1245.096,-0.084179768498483,-0.2089819092589844,0.3562655812096534,1.303460195971364,1.1170675787084634,-1.799009160815269,0,31.47997665405273,32.75998306274414,31.4799919128418,38.40998458862305,37.23998260498047,38.139984130859375,48.13019943237305,0.2506510317325592,47.803001403808594,47.86399841308594,48.01499938964844,47.83399963378906,47.90999984741211,47.86399841308594,36.0
