mariogtz55/UR_RTDE_Databse/rtde-2.6.0/mid.csv
timestamp,actual_TCP_pose_0,actual_TCP_pose_1,actual_TCP_pose_2,actual_TCP_pose_3,actual_TCP_pose_4,actual_TCP_pose_5,actual_digital_input_bits,joint_temperatures_0,joint_temperatures_1,joint_temperatures_2,joint_temperatures_3,joint_temperatures_4,joint_temperatures_5,actual_robot_voltage,actual_robot_current,actual_joint_voltage_0,actual_joint_voltage_1,actual_joint_voltage_2,actual_joint_voltage_3,actual_joint_voltage_4,actual_joint_voltage_5,tool_temperature
1242.6799999999998,-0.08417302252494363,-0.20898458618018134,0.356264529274507,1.3034222857459634,1.1170923196818374,-1.7989930939294385,0,31.47943687438965,32.75998306274414,31.479991912841797,38.40998458862305,37.23998260498047,38.139984130859375,48.13019943237305,0.32226669788360596,47.78799819946289,47.87900161743164,48.01499938964844,47.8489990234375,47.92499923706055,47.8489990234375,36.0
1242.6879999999999,-0.0841741036856287,-0.2089825452074573,0.35626190881213166,1.3034482779952048,1.1170573338432954,-1.7990127547427062,0,31.47943687438965,32.75998306274414,31.479991912841797,38.40998458862305,37.23998260498047,38.139984130859375,48.13019943237305,0.21484586596488953,47.78799819946289,47.87900161743164,48.01499938964844,47.8489990234375,47.92499923706055,47.8489990234375,36.0
1242.696,-0.08416778948017578,-0.20898341603732465,0.3562579720236846,1.3034327148511353,1.1170743850113312,-1.7990126576338836,0,31.47943687438965,32.75998306274414,31.479991912841797,38.40998458862305,37.23998260498047,38.139984130859375,48.13019943237305,0.28645622730255127,47.78799819946289,47.87900161743164,48.01499938964844,47.8489990234375,47.92499923706055,47.8489990234375,36.0
1242.704,-0.08417411898924632,-0.20898222549630996,0.356266613337004,1.3034466324267282,1.1170585722266624,-1.799012592415453,0,31.479494094848633,32.75998306274414,31.479991912841797,38.40998458862305,37.23998260498047,38.139984130859375,48.13019943237305,0.35807186365127563,47.803001403808594,47.87900161743164,48.01499938964844,47.83399963378906,47.92499923706055,47.8489990234375,36.0
1242.712,-0.08417114303098687,-0.20898343155035043,0.35626138327943524,1.3034422770960936,1.1170707727057623,-1.7989830807647933,0,31.479494094848633,32.75998306274414,31.479991912841797,38.40998458862305,37.23998260498047,38.139984130859375,48.13019943237305,0.35807186365127563,47.803001403808594,47.90999984741211,48.01499938964844,47.83399963378906,47.90999984741211,47.8489990234375,36.0
1242.752,-0.08418687117342297,-0.2089825960999525,0.35627223619292026,1.3034899414971963,1.1170253538354205,-1.7989255973927645,0,31.479494094848633,32.75998306274414,31.479991912841797,38.40998458862305,37.23998260498047,38.139984130859375,48.13019943237305,0.28645622730255127,47.803001403808594,47.90999984741211,48.029998779296875,47.83399963378906,47.90999984741211,47.8489990234375,36.0
1242.76,-0.08416672849469023,-0.2089836749322671,0.3562623339199138,1.3034168876648033,1.1171050335992863,-1.7990200922654793,0,31.479494094848633,32.75998306274414,31.479991912841797,38.40998458862305,37.23998260498047,38.139984130859375,48.13019943237305,0.32226669788360596,47.803001403808594,47.90999984741211,48.029998779296875,47.83399963378906,47.90999984741211,47.8489990234375,36.0
1242.768,-0.08418011813790846,-0.2089843462469887,0.3562676125338837,1.303441323728123,1.1171077502802063,-1.7989692477975057,0,31.479494094848633,32.75998306274414,31.479991912841797,38.40998458862305,37.23998260498047,38.139984130859375,48.13019943237305,0.32226669788360596,47.803001403808594,47.90999984741211,48.029998779296875,47.83399963378906,47.90999984741211,47.8489990234375,36.0
1242.7759999999998,-0.08418724931901736,-0.20898150681343813,0.3562738942873221,1.3034983930920105,1.11701611863826,-1.798953659872657,0,31.479494094848633,32.75998306274414,31.479991912841797,38.40998458862305,37.23998260498047,38.139984130859375,48.13019943237305,0.35807186365127563,47.803001403808594,47.90999984741211,48.029998779296875,47.83399963378906,47.90999984741211,47.8489990234375,36.0
1242.7839999999999,-0.0841685048864985,-0.20898339366791463,0.35626241597598834,1.303412370397944,1.1171114164094278,-1.7990484503425173,0,31.47954559326172,32.75998306274414,31.479991912841797,38.40998458862305,37.23998260498047,38.139984130859375,48.13019943237305,0.3938823342323303,47.81800079345703,47.90999984741211,48.029998779296875,47.8489990234375,47.90999984741211,47.8489990234375,36.0
1242.792,-0.08417841992386882,-0.20898199359380626,0.3562757960764202,1.3034557500052202,1.1170645264029884,-1.799010318551667,0,31.47954559326172,32.75998306274414,31.479991912841797,38.40998458862305,37.23998260498047,38.139984130859375,48.13019943237305,0.5013031363487244,47.81800079345703,47.89500045776367,48.029998779296875,47.8489990234375,47.92499923706055,47.8489990234375,36.0
1242.8,-0.08417212352599303,-0.20898179088479304,0.356267926317392,1.3034443780132203,1.1170558350907625,-1.7990323189798054,0,31.47954559326172,32.75998306274414,31.479991912841797,38.40998458862305,37.23998260498047,38.139984130859375,48.13019943237305,0.35807186365127563,47.81800079345703,47.89500045776367,48.029998779296875,47.8489990234375,47.92499923706055,47.8489990234375,36.0
1242.808,-0.0841712392150884,-0.2089839405240804,0.35626087547796625,1.3034527195779335,1.1170530273669972,-1.7989462677765888,0,31.47954559326172,32.75998306274414,31.479991912841797,38.40998458862305,37.23998260498047,38.139984130859375,48.13019943237305,0.21484586596488953,47.81800079345703,47.89500045776367,48.029998779296875,47.8489990234375,47.92499923706055,47.8489990234375,36.0
1242.816,-0.0841842163385726,-0.20898271861936102,0.3562737311359359,1.3034940350220185,1.117028311569359,-1.7989241524333142,0,31.47954559326172,32.75998306274414,31.479991912841797,38.40998458862305,37.23998260498047,38.139984130859375,48.13019943237305,0.32226669788360596,47.81800079345703,47.89500045776367,48.029998779296875,47.8489990234375,47.92499923706055,47.8489990234375,36.0
1242.8239999999998,-0.08416861690062945,-0.20898304255013425,0.3562569200261353,1.3034229844993612,1.1170823117635202,-1.7990228539191955,0,31.47954559326172,32.75998306274414,31.479991912841797,38.40998458862305,37.23998260498047,38.139984130859375,48.19097137451172,0.2506510317325592,47.81800079345703,47.89500045776367,48.029998779296875,47.8489990234375,47.92499923706055,47.81800079345703,36.0
1242.84,-0.08418672436056215,-0.20898155483267705,0.356273268894883,1.3034733941746681,1.1170503605542896,-1.798990880408378,0,31.47954559326172,32.75998306274414,31.479991912841797,38.40998458862305,37.23998260498047,38.139984130859375,48.13019943237305,0.21484586596488953,47.81800079345703,47.89500045776367,48.029998779296875,47.8489990234375,47.92499923706055,47.81800079345703,36.0
1242.848,-0.08417429344913238,-0.20898187104372024,0.3562612013639999,1.3034451987124311,1.1170595469482059,-1.7990128914197532,0,31.47954559326172,32.75998306274414,31.479991912841797,38.40998458862305,37.23998260498047,38.139984130859375,48.13019943237305,0.21484586596488953,47.81800079345703,47.89500045776367,48.029998779296875,47.8489990234375,47.92499923706055,47.81800079345703,36.0
1242.856,-0.08419545221981428,-0.20898054392743712,0.35628210920470277,1.3034937948292897,1.1170493878868448,-1.798997320262072,0,31.47954559326172,32.75998306274414,31.479991912841797,38.40998458862305,37.23998260498047,38.139984130859375,48.13019943237305,0.35807186365127563,47.81800079345703,47.89500045776367,48.029998779296875,47.8489990234375,47.92499923706055,47.81800079345703,36.0
1242.864,-0.08417417921734377,-0.2089853768972775,0.35626935200921195,1.303442651973044,1.11706663206531,-1.7989461926638524,0,31.479591369628906,32.75998306274414,31.479991912841797,38.40998458862305,37.23998260498047,38.139984130859375,48.13019943237305,0.21484586596488953,47.803001403808594,47.89500045776367,48.029998779296875,47.83399963378906,47.92499923706055,47.81800079345703,36.0
1242.8719999999998,-0.08417349078066051,-0.20898454390557814,0.3562702214946768,1.303431015076456,1.1170982999420973,-1.7989906074760047,0,31.479591369628906,32.75998306274414,31.479991912841797,38.40998458862305,37.23998260498047,38.139984130859375,48.13019943237305,0.21484586596488953,47.803001403808594,47.86399841308594,48.029998779296875,47.83399963378906,47.92499923706055,47.81800079345703,36.0
1242.8799999999999,-0.08418199520971031,-0.20898021318133586,0.3562669590654237,1.3034746678607492,1.1170358497544717,-1.799039410814474,0,31.479591369628906,32.75998306274414,31.479991912841797,38.40998458862305,37.23998260498047,38.139984130859375,48.13019943237305,0.32226669788360596,47.803001403808594,47.86399841308594,48.01499938964844,47.83399963378906,47.92499923706055,47.81800079345703,36.0
1242.888,-0.08418161953557937,-0.20898218005283606,0.35627911372522547,1.303436361179375,1.1170878134102327,-1.7990397867519643,0,31.479591369628906,32.75998306274414,31.479991912841797,38.40998458862305,37.23998260498047,38.139984130859375,48.13019943237305,0.35807186365127563,47.803001403808594,47.86399841308594,48.01499938964844,47.83399963378906,47.92499923706055,47.81800079345703,36.0
1242.896,-0.08418849032742562,-0.20898089593094238,0.3562692710145199,1.3035048656030146,1.117006310575202,-1.7989636111210234,0,31.479591369628906,32.75998306274414,31.479991912841797,38.40998458862305,37.23998260498047,38.139984130859375,48.13019943237305,0.21484586596488953,47.803001403808594,47.86399841308594,48.01499938964844,47.83399963378906,47.92499923706055,47.81800079345703,36.0
1242.904,-0.08416847692650375,-0.20898253890669546,0.3562625818036877,1.3034245543472966,1.1170700697478915,-1.799033866176408,0,31.479591369628906,32.75998306274414,31.479991912841797,38.40998458862305,37.23998260498047,38.139984130859375,48.13019943237305,0.35807186365127563,47.803001403808594,47.86399841308594,48.01499938964844,47.83399963378906,47.92499923706055,47.83399963378906,36.0
1242.912,-0.08419107274682212,-0.208981639532625,0.3562778306688049,1.3035046868366165,1.117004599349233,-1.7989451172890074,0,31.479591369628906,32.75998306274414,31.479991912841797,38.40998458862305,37.23998260498047,38.139984130859375,48.13019943237305,0.35807186365127563,47.803001403808594,47.86399841308594,48.01499938964844,47.83399963378906,47.92499923706055,47.83399963378906,36.0
1242.9199999999998,-0.08418240587740264,-0.20898230722619257,0.356273711968616,1.303450313048338,1.117086990417945,-1.7990084441511025,0,31.479591369628906,32.75998306274414,31.479991912841797,38.40998458862305,37.23998260498047,38.139984130859375,48.13019943237305,0.3938823342323303,47.803001403808594,47.86399841308594,48.01499938964844,47.83399963378906,47.92499923706055,47.83399963378906,36.0
1242.9279999999999,-0.08417602485437813,-0.20898350606841767,0.35627528825035343,1.3034406539690426,1.1170925408294725,-1.798999596230521,0,31.479591369628906,32.75998306274414,31.479991912841797,38.40998458862305,37.23998260498047,38.139984130859375,48.13019943237305,0.35807186365127563,47.803001403808594,47.86399841308594,48.01499938964844,47.83399963378906,47.92499923706055,47.83399963378906,36.0
1242.936,-0.08419355789001343,-0.20898117391298232,0.35628237252757916,1.3035200596341732,1.116991799705193,-1.798925290406325,0,31.479591369628906,32.75998306274414,31.479991912841797,38.40998458862305,37.23998260498047,38.139984130859375,48.13019943237305,0.4296875,47.803001403808594,47.86399841308594,48.01499938964844,47.83399963378906,47.92499923706055,47.83399963378906,36.0
1242.952,-0.08418555769257,-0.2089812817536573,0.3562730083870336,1.303446818685724,1.1170989081537985,-1.7990361838934055,0,31.479631423950195,32.75998306274414,31.479991912841797,38.40998458862305,37.23998260498047,38.139984130859375,48.13019943237305,0.17903539538383484,47.83399963378906,47.87900161743164,48.029998779296875,47.8489990234375,47.939998626708984,47.83399963378906,36.0
1242.96,-0.08418185947102846,-0.20898321308251117,0.35627292379292913,1.3034452850822642,1.117082504858791,-1.7989912699716457,0,31.479631423950195,32.75998306274414,31.479991912841797,38.40998458862305,37.23998260498047,38.139984130859375,48.13019943237305,0.2506510317325592,47.83399963378906,47.87900161743164,48.029998779296875,47.8489990234375,47.939998626708984,47.83399963378906,36.0
1242.9679999999998,-0.08418133926403253,-0.20898256351517439,0.356272923272037,1.3034464942009794,1.1170876656290158,-1.798990066148472,0,31.479631423950195,32.75998306274414,31.479991912841797,38.40998458862305,37.23998260498047,38.139984130859375,48.13019943237305,0.21484586596488953,47.83399963378906,47.87900161743164,48.029998779296875,47.8489990234375,47.939998626708984,47.83399963378906,36.0
1242.9759999999999,-0.08418507920609866,-0.2089831970238844,0.3562674498060847,1.3034880091475636,1.1170377457993275,-1.7989146805354252,0,31.479631423950195,32.75998306274414,31.479991912841797,38.40998458862305,37.23998260498047,38.139984130859375,48.13019943237305,0.28645622730255127,47.83399963378906,47.87900161743164,48.029998779296875,47.8489990234375,47.939998626708984,47.83399963378906,36.0
1242.984,-0.08418492631167296,-0.20898269378501308,0.3562730243686516,1.3034775659982816,1.1170554850222547,-1.7989514972834142,0,31.479631423950195,32.75998306274414,31.479991912841797,38.40998458862305,37.23998260498047,38.139984130859375,48.13019943237305,0.17903539538383484,47.83399963378906,47.87900161743164,48.029998779296875,47.8489990234375,47.939998626708984,47.8489990234375,36.0
1242.992,-0.08417658922912463,-0.20898153931828337,0.3562567581088313,1.3034614618642184,1.1170418438425793,-1.7990128597778392,0,31.479631423950195,32.75998306274414,31.479991912841797,38.40998458862305,37.23998260498047,38.139984130859375,48.13019943237305,0.3938823342323303,47.83399963378906,47.87900161743164,48.029998779296875,47.8489990234375,47.939998626708984,47.8489990234375,36.0
1243.0,-0.08418051164162832,-0.20898293717390454,0.35627397524740545,1.3034440020714255,1.117109960687626,-1.7990059601605193,0,31.479631423950195,32.75998306274414,31.479991912841797,38.40998458862305,37.23998260498047,38.139984130859375,48.13019943237305,0.21484586596488953,47.83399963378906,47.87900161743164,48.029998779296875,47.8489990234375,47.939998626708984,47.8489990234375,36.0
1243.008,-0.08417292343305709,-0.2089828130944193,0.35627125357949463,1.3034322747196114,1.1170881172586906,-1.7990203888208447,0,31.479631423950195,32.75998306274414,31.479991912841797,38.40998458862305,37.23998260498047,38.139984130859375,48.13019943237305,0.32226669788360596,47.83399963378906,47.87900161743164,48.029998779296875,47.8489990234375,47.939998626708984,47.8489990234375,36.0
1243.0159999999998,-0.08417651752648159,-0.20898387018032769,0.35627492659245674,1.3034414774596097,1.117078839248813,-1.7989916488620188,0,31.479631423950195,32.75998306274414,31.479991912841797,38.40998458862305,37.23998260498047,38.139984130859375,48.13019943237305,0.32226669788360596,47.83399963378906,47.87900161743164,48.029998779296875,47.8489990234375,47.939998626708984,47.8489990234375,36.0
1243.024,-0.08418051723929412,-0.20898293962086797,0.35627912594841227,1.3034726656387048,1.117039362023066,-1.798944948365944,0,31.47966766357422,32.75998306274414,31.479991912841797,38.40998458862305,37.23998260498047,38.139984130859375,48.13019943237305,0.14323022961616516,47.803001403808594,47.87900161743164,48.01499938964844,47.8489990234375,47.939998626708984,47.8489990234375,36.0
1243.032,-0.08417219563837627,-0.20898146548644317,0.35626756402741744,1.3034305126202252,1.1170873019737677,-1.7990582433343023,0,31.47966766357422,32.75998306274414,31.479991912841797,38.40998458862305,37.23998260498047,38.139984130859375,48.13019943237305,0.35807186365127563,47.803001403808594,47.87900161743164,48.01499938964844,47.8489990234375,47.92499923706055,47.8489990234375,36.0
1243.04,-0.08417571403979623,-0.20897969077387105,0.3562637939423463,1.3034534747137467,1.1170486105390376,-1.7990787006577769,0,31.47966766357422,32.75998306274414,31.479991912841797,38.40998458862305,37.23998260498047,38.139984130859375,48.13019943237305,0.3938823342323303,47.803001403808594,47.87900161743164,48.01499938964844,47.8489990234375,47.92499923706055,47.8489990234375,36.0
1243.048,-0.08417973259333394,-0.20898455185612452,0.35626882753028905,1.3034620819164222,1.1170530556830844,-1.7989447574749269,0,31.47966766357422,32.75998306274414,31.479991912841797,38.40998458862305,37.23998260498047,38.139984130859375,48.13019943237305,0.35807186365127563,47.803001403808594,47.87900161743164,48.01499938964844,47.8489990234375,47.92499923706055,47.8489990234375,36.0
1243.072,-0.08418046394421065,-0.2089836691730201,0.3562682835066599,1.3034459558816747,1.1170687196385236,-1.7989831279233481,0,31.47966766357422,32.75998306274414,31.479991912841797,38.40998458862305,37.23998260498047,38.139984130859375,48.13019943237305,0.4296875,47.803001403808594,47.87900161743164,48.01499938964844,47.8489990234375,47.92499923706055,47.803001403808594,36.0
1243.08,-0.08417738041625747,-0.20898434863555188,0.35626864521157997,1.3034435861192126,1.1170681595454246,-1.7989648118631278,0,31.47966766357422,32.75998306274414,31.479991912841797,38.40998458862305,37.23998260498047,38.139984130859375,48.13019943237305,0.32226669788360596,47.803001403808594,47.87900161743164,48.01499938964844,47.8489990234375,47.92499923706055,47.803001403808594,36.0
1243.088,-0.08417795661446176,-0.20898133845659564,0.35627072870655724,1.3034569203432944,1.117069794236528,-1.799009197202547,0,31.47966766357422,32.75998306274414,31.479991912841797,38.40998458862305,37.23998260498047,38.139984130859375,48.13019943237305,0.21484586596488953,47.803001403808594,47.87900161743164,48.01499938964844,47.8489990234375,47.92499923706055,47.803001403808594,36.0
1243.096,-0.08417945119477792,-0.20898265548252792,0.3562686446682263,1.3034625698369033,1.1170474535321597,-1.7989552279591998,0,31.47966766357422,32.75998306274414,31.479991912841797,38.40998458862305,37.23998260498047,38.139984130859375,48.13019943237305,0.17903539538383484,47.803001403808594,47.87900161743164,48.04600143432617,47.8489990234375,47.92499923706055,47.803001403808594,36.0
1243.104,-0.08416665637191573,-0.20898400032602335,0.3562626962140024,1.3034226188541729,1.1170936810920804,-1.7990115330052274,0,31.479700088500977,32.75998306274414,31.479991912841797,38.40998458862305,37.23998260498047,38.139984130859375,48.13019943237305,0.3938823342323303,47.803001403808594,47.87900161743164,48.04600143432617,47.86399841308594,47.92499923706055,47.803001403808594,36.0
1243.1119999999999,-0.08417745162148332,-0.2089825582302242,0.35626016932205967,1.3034576670906695,1.1170538698719414,-1.7989833693622768,0,31.479700088500977,32.75998306274414,31.479991912841797,38.40998458862305,37.23998260498047,38.139984130859375,48.13019943237305,0.4296875,47.803001403808594,47.87900161743164,48.04600143432617,47.86399841308594,47.939998626708984,47.803001403808594,36.0
1243.12,-0.08417928290005249,-0.20898247202409892,0.3562695147055112,1.3034537712425083,1.1170639538744642,-1.7989922072315676,0,31.479700088500977,32.75998306274414,31.479991912841797,38.40998458862305,37.23998260498047,38.139984130859375,48.13019943237305,0.3938823342323303,47.803001403808594,47.87900161743164,48.04600143432617,47.86399841308594,47.939998626708984,47.803001403808594,36.0
1243.128,-0.08418911386239647,-0.2089800271220598,0.3562840112494512,1.3034848224595283,1.117031920198083,-1.7990105237720304,0,31.479700088500977,32.75998306274414,31.479991912841797,38.40998458862305,37.23998260498047,38.139984130859375,48.13019943237305,0.28645622730255127,47.803001403808594,47.87900161743164,48.04600143432617,47.86399841308594,47.939998626708984,47.803001403808594,36.0
1243.136,-0.08418229389674214,-0.2089826585071879,0.35627920777119493,1.3034641028503335,1.1170557531125136,-1.7989819453647644,0,31.479700088500977,32.75998306274414,31.479991912841797,38.40998458862305,37.23998260498047,38.139984130859375,48.13019943237305,0.2506510317325592,47.803001403808594,47.87900161743164,48.04600143432617,47.86399841308594,47.939998626708984,47.803001403808594,36.0
1243.144,-0.08417593485374691,-0.2089824590285633,0.35627125421750344,1.303452556757674,1.1170472035231271,-1.7990041411932438,0,31.479700088500977,32.75998306274414,31.479991912841797,38.40998458862305,37.23998260498047,38.139984130859375,48.13019943237305,0.5013031363487244,47.803001403808594,47.87900161743164,48.04600143432617,47.86399841308594,47.939998626708984,47.78799819946289,36.0
1243.152,-0.08418162071757795,-0.20898445997568035,0.35627310611166935,1.3034663218674611,1.1170430322257052,-1.7989362264125428,0,31.479700088500977,32.75998306274414,31.479991912841797,38.40998458862305,37.23998260498047,38.139984130859375,48.13019943237305,0.35807186365127563,47.803001403808594,47.87900161743164,48.04600143432617,47.86399841308594,47.939998626708984,47.78799819946289,36.0
1243.1599999999999,-0.08418795927103402,-0.20898148198020433,0.3562731875106488,1.3034859708433355,1.1170332848406035,-1.7989723655208205,0,31.479700088500977,32.75998306274414,31.479991912841797,38.40998458862305,37.23998260498047,38.139984130859375,48.13019943237305,0.2506510317325592,47.803001403808594,47.87900161743164,48.04600143432617,47.86399841308594,47.939998626708984,47.78799819946289,36.0
1243.168,-0.08416613127773014,-0.20898404834738424,0.35626207073066607,1.303413887727136,1.1170876942871235,-1.7990140231522387,0,31.479700088500977,32.75998306274414,31.479991912841797,38.40998458862305,37.23998260498047,38.139984130859375,48.13019943237305,0.35807186365127563,47.803001403808594,47.87900161743164,48.04600143432617,47.86399841308594,47.939998626708984,47.78799819946289,36.0
1243.176,-0.08418036480419734,-0.208981895907941,0.35627500794719774,1.3034681255113707,1.1170343953091773,-1.7989844185770594,0,31.479700088500977,32.75998306274414,31.479991912841797,38.40998458862305,37.23998260498047,38.139984130859375,48.13019943237305,0.21484586596488953,47.803001403808594,47.87900161743164,47.986000061035156,47.86399841308594,47.939998626708984,47.78799819946289,36.0
1243.184,-0.08417906339143147,-0.20898229671703708,0.3562806021902051,1.303445184572891,1.117080198916433,-1.7990289124545522,0,31.4797306060791,32.75998306274414,31.479991912841797,38.40998458862305,37.23998260498047,38.139984130859375,48.13019943237305,0.2506510317325592,47.803001403808594,47.87900161743164,47.986000061035156,47.83399963378906,47.939998626708984,47.78799819946289,36.0
1243.192,-0.0841790751090463,-0.20898177376179283,0.3562658258251702,1.3034508407973824,1.1170578773299717,-1.7990311790888742,0,31.4797306060791,32.75998306274414,31.479991912841797,38.40998458862305,37.23998260498047,38.139984130859375,48.13019943237305,0.35807186365127563,47.803001403808594,47.8489990234375,47.986000061035156,47.83399963378906,47.92499923706055,47.78799819946289,36.0
1243.2,-0.08417395323248367,-0.2089834888923473,0.35628076813838166,1.3034384578580542,1.117050135186309,-1.7989967042816435,0,31.4797306060791,32.75998306274414,31.479991912841797,38.40998458862305,37.23998260498047,38.139984130859375,48.13019943237305,0.2506510317325592,47.803001403808594,47.8489990234375,47.986000061035156,47.83399963378906,47.92499923706055,47.78799819946289,36.0
1243.2079999999999,-0.08418308724056768,-0.20898053211856135,0.356264529274507,1.3034678692203225,1.1170498594172618,-1.7990106317093546,0,31.4797306060791,32.75998306274414,31.479991912841797,38.40998458862305,37.23998260498047,38.139984130859375,48.13019943237305,0.32226669788360596,47.803001403808594,47.8489990234375,47.986000061035156,47.83399963378906,47.92499923706055,47.78799819946289,36.0
1243.216,-0.0841698360107489,-0.20898382983382213,0.35626182684105484,1.3034353907581302,1.1170765960143547,-1.798993122565977,0,31.4797306060791,32.75998306274414,31.479991912841797,38.40998458862305,37.23998260498047,38.139984130859375,48.13019943237305,0.17903539538383484,47.803001403808594,47.8489990234375,47.986000061035156,47.83399963378906,47.92499923706055,47.78799819946289,36.0
1243.224,-0.0841694224367947,-0.20898406714377038,0.35626539799776413,1.303419188485048,1.117094331057375,-1.7989933672453062,0,31.4797306060791,32.75998306274414,31.479991912841797,38.40998458862305,37.23998260498047,38.139984130859375,48.13019943237305,0.3938823342323303,47.803001403808594,47.8489990234375,47.986000061035156,47.83399963378906,47.92499923706055,47.81800079345703,36.0
1243.232,-0.0841680698566222,-0.20898448869461467,0.3562658245296553,1.303408005676737,1.117110538478685,-1.7990116655622705,0,31.4797306060791,32.75998306274414,31.479991912841797,38.40998458862305,37.23998260498047,38.139984130859375,48.13019943237305,0.32226669788360596,47.803001403808594,47.8489990234375,47.986000061035156,47.83399963378906,47.92499923706055,47.81800079345703,36.0
1243.24,-0.08417922988570277,-0.20898161134493629,0.3562723708865202,1.303466421749795,1.1170407284941501,-1.7990302128904998,0,31.4797306060791,32.75998306274414,31.479991912841797,38.40998458862305,37.23998260498047,38.139984130859375,48.13019943237305,0.21484586596488953,47.803001403808594,47.8489990234375,47.986000061035156,47.83399963378906,47.92499923706055,47.81800079345703,36.0
1243.248,-0.08419063795387077,-0.20898273457668284,0.3562812393197935,1.3034799655337836,1.117054056515051,-1.7989517887622988,0,31.4797306060791,32.75998306274414,31.479991912841797,38.40998458862305,37.23998260498047,38.139984130859375,48.13019943237305,0.28645622730255127,47.803001403808594,47.8489990234375,48.0,47.83399963378906,47.92499923706055,47.81800079345703,36.0
1243.2559999999999,-0.08417555671980986,-0.20898354834256017,0.35626959603154307,1.3034319245856558,1.1170865606127922,-1.7990020827277593,0,31.4797306060791,32.75998306274414,31.479991912841797,38.40998458862305,37.23998260498047,38.139984130859375,48.13019943237305,0.35807186365127563,47.803001403808594,47.8489990234375,48.0,47.83399963378906,47.92499923706055,47.81800079345703,36.0
1243.264,-0.08419925042181022,-0.20897914166703643,0.3562816657351731,1.3035180832754114,1.1170179170856946,-1.798978553117635,0,31.47975730895996,32.75998306274414,31.479991912841797,38.40998458862305,37.23998260498047,38.139984130859375,48.13019943237305,0.2506510317325592,47.83399963378906,47.8489990234375,48.0,47.81800079345703,47.92499923706055,47.81800079345703,36.0
1243.272,-0.08416367416131407,-0.2089843892103424,0.35626643629498783,1.3033886332676372,1.1171262190021154,-1.7990324045953763,0,31.47975730895996,32.75998306274414,31.479991912841797,38.40998458862305,37.23998260498047,38.139984130859375,48.13019943237305,0.17903539538383484,47.83399963378906,47.86399841308594,48.0,47.81800079345703,47.90999984741211,47.81800079345703,36.0
1243.28,-0.08418909245299507,-0.20898088501418066,0.3562838484660931,1.3034926130420261,1.1170233147509676,-1.798982133215414,0,31.47975730895996,32.75998306274414,31.479991912841797,38.40998458862305,37.23998260498047,38.139984130859375,48.13019943237305,0.35807186365127563,47.83399963378906,47.86399841308594,48.0,47.81800079345703,47.90999984741211,47.81800079345703,36.0
1243.288,-0.08418909245299507,-0.20898088501418066,0.3562838484660931,1.3034926130420261,1.1170233147509676,-1.798982133215414,0,31.47975730895996,32.75998306274414,31.479991912841797,38.40998458862305,37.23998260498047,38.139984130859375,48.13019943237305,0.32226669788360596,47.83399963378906,47.86399841308594,48.0,47.81800079345703,47.90999984741211,47.81800079345703,36.0
1243.296,-0.08417604232071621,-0.20898298558269116,0.3562656625643928,1.3034505305236916,1.117060064091024,-1.798993032118947,0,31.47975730895996,32.75998306274414,31.479991912841797,38.40998458862305,37.23998260498047,38.139984130859375,48.13019943237305,0.35807186365127563,47.83399963378906,47.86399841308594,48.0,47.81800079345703,47.90999984741211,47.81800079345703,36.0
1243.3039999999999,-0.08418725541250975,-0.20898096878300076,0.3562693524280203,1.3034882020716223,1.1170334936251136,-1.7989908517524846,0,31.47975730895996,32.75998306274414,31.479991912841797,38.40998458862305,37.23998260498047,38.139984130859375,48.13019943237305,0.21484586596488953,47.83399963378906,47.86399841308594,48.0,47.81800079345703,47.90999984741211,47.803001403808594,36.0
1243.312,-0.08418283373710021,-0.2089786041327571,0.35626199015190135,1.3034809130489533,1.1170321697820875,-1.7990484618063276,0,31.47975730895996,32.75998306274414,31.479991912841797,38.40998458862305,37.23998260498047,38.139984130859375,48.13019943237305,0.35807186365127563,47.83399963378906,47.86399841308594,48.0,47.81800079345703,47.90999984741211,47.803001403808594,36.0
1243.32,-0.08418418244674826,-0.20898202610812378,0.35627379379220736,1.303453931356904,1.1170732598396378,-1.7990194369483323,0,31.47975730895996,32.75998306274414,31.479991912841797,38.40998458862305,37.23998260498047,38.139984130859375,48.13019943237305,0.21484586596488953,47.83399963378906,47.86399841308594,48.01499938964844,47.81800079345703,47.90999984741211,47.803001403808594,36.0
1243.328,-0.08418159152999674,-0.20898306978790526,0.35627379379220736,1.3034524252339008,1.117058898018231,-1.7989930871209474,0,31.47975730895996,32.75998306274414,31.479991912841797,38.40998458862305,37.23998260498047,38.139984130859375,48.13019943237305,0.17903539538383484,47.83399963378906,47.86399841308594,48.01499938964844,47.81800079345703,47.90999984741211,47.803001403808594,36.0
1243.336,-0.08417280577490262,-0.2089831618195501,0.35627159876743025,1.303437757148058,1.1170771424143502,-1.7990114465366183,0,31.47975730895996,32.75998306274414,31.479991912841797,38.40998458862305,37.23998260498047,38.139984130859375,48.13019943237305,0.4654926657676697,47.83399963378906,47.86399841308594,48.01499938964844,47.81800079345703,47.90999984741211,47.803001403808594,36.0
1243.344,-0.08417926144411046,-0.20898332982936182,0.35626935200921195,1.3034696957873833,1.1170352339228646,-1.7989464518438403,0,31.479782104492188,32.75998306274414,31.479991912841797,38.40998458862305,37.23998260498047,38.139984130859375,48.13019943237305,0.14323022961616516,47.8489990234375,47.86399841308594,48.01499938964844,47.83399963378906,47.90999984741211,47.803001403808594,36.0
1243.3519999999999,-0.08418795927103402,-0.20898148198020433,0.3562731875106488,1.3034941045622113,1.1170131703723318,-1.7989550005327184,0,31.479782104492188,32.75998306274414,31.479991912841797,38.40998458862305,37.23998260498047,38.139984130859375,48.13019943237305,0.21484586596488953,47.8489990234375,47.86399841308594,48.01499938964844,47.83399963378906,47.92499923706055,47.803001403808594,36.0
1243.36,-0.08416040575841637,-0.20898579207048773,0.35625726448258815,1.3033974092588259,1.1171034196445524,-1.7989951697869968,0,31.479782104492188,32.75998306274414,31.479991912841797,38.40998458862305,37.23998260498047,38.139984130859375,48.13019943237305,0.2506510317325592,47.8489990234375,47.86399841308594,48.01499938964844,47.83399963378906,47.92499923706055,47.803001403808594,36.0
1243.368,-0.08418175271356138,-0.20898232631946986,0.35626935200921195,1.303470831139032,1.1170498167553684,-1.7989724561625857,0,31.479782104492188,32.75998306274414,31.479991912841797,38.40998458862305,37.23998260498047,38.139984130859375,48.13019943237305,0.21484586596488953,47.8489990234375,47.86399841308594,48.01499938964844,47.83399963378906,47.92499923706055,47.803001403808594,36.0
1243.3999999999999,-0.0841786153242917,-0.20898427581317108,0.3562685638560563,1.303439934581681,1.1170912123524508,-1.7989809405968231,0,31.479782104492188,32.75998306274414,31.479991912841797,38.40998458862305,37.23998260498047,38.139984130859375,48.13019943237305,0.35807186365127563,47.8489990234375,47.86399841308594,48.01499938964844,47.83399963378906,47.92499923706055,47.81800079345703,36.0
1243.408,-0.08416814281245626,-0.20898430981316157,0.35627242162705697,1.303423485515399,1.1170932945812888,-1.7990114738634742,0,31.479782104492188,32.75998306274414,31.479991912841797,38.40998458862305,37.23998260498047,38.139984130859375,48.13019943237305,0.2506510317325592,47.8489990234375,47.86399841308594,48.01499938964844,47.83399963378906,47.92499923706055,47.81800079345703,36.0
1243.416,-0.08418159971660757,-0.2089818230553841,0.35627492659245674,1.3034644747769533,1.1170574482998172,-1.799000547325882,0,31.479782104492188,32.75998306274414,31.479991912841797,38.40998458862305,37.23998260498047,38.139984130859375,48.13019943237305,0.2506510317325592,47.8489990234375,47.86399841308594,48.01499938964844,47.83399963378906,47.92499923706055,47.81800079345703,36.0
1243.424,-0.08417851612592356,-0.20898250259717394,0.35627528825035343,1.3034702390033697,1.117036773882821,-1.7989648662836886,0,31.47980308532715,32.75998306274414,31.479991912841797,38.40998458862305,37.23998260498047,38.139984130859375,48.13019943237305,0.3938823342323303,47.8489990234375,47.86399841308594,48.01499938964844,47.8489990234375,47.92499923706055,47.81800079345703,36.0
1243.432,-0.08418165651754919,-0.2089818173157825,0.35626985983610293,1.3034685231691554,1.1170474479048782,-1.7989919041233393,0,31.47980308532715,32.75998306274414,31.479991912841797,38.40998458862305,37.23998260498047,38.139984130859375,48.13019943237305,0.32226669788360596,47.8489990234375,47.8489990234375,48.01499938964844,47.8489990234375,47.92499923706055,47.81800079345703,36.0
1243.44,-0.08418037093274387,-0.20898135787590674,0.35627046608764223,1.3034660675893357,1.1170316554452882,-1.7990042455330875,0,31.47980308532715,32.75998306274414,31.479991912841797,38.40998458862305,37.23998260498047,38.139984130859375,48.13019943237305,0.21484586596488953,47.8489990234375,47.8489990234375,48.01499938964844,47.8489990234375,47.92499923706055,47.81800079345703,36.0
1243.4479999999999,-0.08417475060545222,-0.208983064159523,0.3562708106607407,1.3034379518332757,1.1170771327838165,-1.79901155087618,0,31.47980308532715,32.75998306274414,31.479991912841797,38.40998458862305,37.23998260498047,38.139984130859375,48.13019943237305,0.28645622730255127,47.8489990234375,47.8489990234375,48.01499938964844,47.8489990234375,47.92499923706055,47.81800079345703,36.0
1243.456,-0.08417976849848309,-0.20898190925898444,0.3562655812096534,1.3034845976626905,1.1170072356052472,-1.7989570657774443,0,31.47980308532715,32.75998306274414,31.479991912841797,38.40998458862305,37.23998260498047,38.139984130859375,48.13019943237305,0.35807186365127563,47.8489990234375,47.8489990234375,48.01499938964844,47.8489990234375,47.92499923706055,47.81800079345703,36.0
1243.464,-0.0841745253767632,-0.2089846566817634,0.3562635779111843,1.3034358981071976,1.1170786370211552,-1.7989553104347933,0,31.47980308532715,32.75998306274414,31.479991912841797,38.40998458862305,37.23998260498047,38.139984130859375,48.13019943237305,0.2506510317325592,47.8489990234375,47.8489990234375,48.029998779296875,47.8489990234375,47.92499923706055,47.81800079345703,36.0
1243.472,-0.08417780924079202,-0.2089837916197759,0.35626977846661684,1.3034581435040706,1.1170516634956749,-1.798964404359037,0,31.47980308532715,32.75998306274414,31.479991912841797,38.40998458862305,37.23998260498047,38.139984130859375,48.13019943237305,0.28645622730255127,47.8489990234375,47.8489990234375,48.029998779296875,47.8489990234375,47.92499923706055,47.81800079345703,36.0
1243.48,-0.0841794865347204,-0.20898173722344782,0.35627658471598217,1.3034636162798061,1.1170538441338467,-1.799020057029917,0,31.47980308532715,32.75998306274414,31.479991912841797,38.40998458862305,37.23998260498047,38.139984130859375,48.13019943237305,0.32226669788360596,47.8489990234375,47.8489990234375,48.029998779296875,47.8489990234375,47.92499923706055,47.81800079345703,36.0
1243.4959999999999,-0.08417307027136436,-0.20898385432969668,0.35627022090505406,1.3034529110647157,1.1170530041921825,-1.7989463799528906,0,31.47980308532715,32.75998306274414,31.479991912841797,38.40998458862305,37.23998260498047,38.139984130859375,48.13019943237305,0.2506510317325592,47.8489990234375,47.8489990234375,48.029998779296875,47.8489990234375,47.92499923706055,47.81800079345703,36.0
1243.504,-0.08417777306356691,-0.2089814746463276,0.35626689421396723,1.303462029342851,1.1170547345695965,-1.799020161700461,0,31.479822158813477,32.75998306274414,31.479991912841797,38.40998458862305,37.23998260498047,38.139984130859375,48.13019943237305,0.32226669788360596,47.81800079345703,47.8489990234375,48.029998779296875,47.81800079345703,47.92499923706055,47.81800079345703,36.0
1243.512,-0.0841830658061932,-0.2089813899097832,0.35626436660769817,1.3034715723239354,1.1170513607073773,-1.7989909670738842,0,31.479822158813477,32.75998306274414,31.479991912841797,38.40998458862305,37.23998260498047,38.139984130859375,48.13019943237305,0.2506510317325592,47.81800079345703,47.87900161743164,48.029998779296875,47.81800079345703,47.92499923706055,47.81800079345703,36.0
1243.52,-0.08418256525016928,-0.2089800182405628,0.35627653760592237,1.303486322166535,1.1170366806405003,-1.7990093687685542,0,31.479822158813477,32.75998306274414,31.479991912841797,38.40998458862305,37.23998260498047,38.139984130859375,48.13019943237305,0.21484586596488953,47.81800079345703,47.87900161743164,48.029998779296875,47.81800079345703,47.92499923706055,47.81800079345703,36.0
1243.528,-0.08417750226300691,-0.20898309049253516,0.35625964444862945,1.303455638883886,1.117066723340446,-1.7989722642000017,0,31.479822158813477,32.75998306274414,31.479991912841797,38.40998458862305,37.23998260498047,38.139984130859375,48.13019943237305,0.32226669788360596,47.81800079345703,47.87900161743164,48.029998779296875,47.81800079345703,47.92499923706055,47.81800079345703,36.0
1243.5359999999998,-0.08417916525416609,-0.20898282082452768,0.35626985983610293,1.303455206833273,1.1170629863811663,-1.7989919041233389,0,31.479822158813477,32.75998306274414,31.479991912841797,38.40998458862305,37.23998260498047,38.139984130859375,48.13019943237305,0.28645622730255127,47.81800079345703,47.87900161743164,48.0,47.81800079345703,47.92499923706055,47.81800079345703,36.0
1243.5439999999999,-0.08418524520233042,-0.20898285949899484,0.35628376705229614,1.303494454287046,1.1169973092453487,-1.798928542581828,0,31.479822158813477,32.75998306274414,31.479991912841797,38.40998458862305,37.23998260498047,38.139984130859375,48.13019943237305,0.28645622730255127,47.81800079345703,47.87900161743164,48.0,47.81800079345703,47.92499923706055,47.83399963378906,36.0
1243.552,-0.08417016417846945,-0.20898367306478924,0.3562721236639227,1.303434191565747,1.1170600339349346,-1.799004927458609,0,31.479822158813477,32.75998306274414,31.479991912841797,38.40998458862305,37.23998260498047,38.139984130859375,48.13019943237305,0.28645622730255127,47.81800079345703,47.87900161743164,48.0,47.81800079345703,47.92499923706055,47.83399963378906,36.0
1243.56,-0.0841713597356203,-0.20898308546621977,0.35626748341669645,1.3034322806601355,1.117070717189944,-1.7990318610926377,0,31.479822158813477,32.75998306274414,31.479991912841797,38.40998458862305,37.23998260498047,38.139984130859375,48.13019943237305,0.2506510317325592,47.81800079345703,47.87900161743164,48.0,47.81800079345703,47.92499923706055,47.83399963378906,36.0
1243.568,-0.08417653814478755,-0.20898154749878914,0.3562669755684823,1.3034534991296318,1.1170618029662616,-1.799030037276642,0,31.479822158813477,32.75998306274414,31.479991912841797,38.40998458862305,37.23998260498047,38.139984130859375,48.13019943237305,0.2506510317325592,47.81800079345703,47.87900161743164,48.0,47.81800079345703,47.92499923706055,47.83399963378906,36.0
1243.576,-0.08417838667554395,-0.20898094078685417,0.35626669530940686,1.3034554320935945,1.1170494168874219,-1.7990409503314007,0,31.479822158813477,32.75998306274414,31.479991912841797,38.40998458862305,37.23998260498047,38.139984130859375,48.13019943237305,0.28645622730255127,47.81800079345703,47.87900161743164,48.0,47.81800079345703,47.92499923706055,47.83399963378906,36.0
1243.5839999999998,-0.0841828760882822,-0.20898206428226213,0.35626507382406897,1.3034868733392122,1.117018927109363,-1.798964739222044,0,31.479839324951172,32.75998306274414,31.479991912841797,38.40998458862305,37.23998260498047,38.139984130859375,48.13019943237305,0.28645622730255127,47.78799819946289,47.87900161743164,48.0,47.8489990234375,47.92499923706055,47.83399963378906,36.0
1243.5919999999999,-0.0841784982125889,-0.20898113008545252,0.3562708919859896,1.3034520077713392,1.1170631317932327,-1.7990300656848024,0,31.479839324951172,32.75998306274414,31.479991912841797,38.40998458862305,37.23998260498047,38.139984130859375,48.13019943237305,0.21484586596488953,47.78799819946289,47.89500045776367,48.0,47.8489990234375,47.92499923706055,47.83399963378906,36.0
1243.608,-0.08418483623962164,-0.20898164678110273,0.3562689903134997,1.303473201085915,1.1170503769502222,-1.7989907721558915,0,31.479839324951172,32.75998306274414,31.479991912841797,38.40998458862305,37.23998260498047,38.139984130859375,48.13019943237305,0.28645622730255127,47.78799819946289,47.89500045776367,48.029998779296875,47.8489990234375,47.92499923706055,47.83399963378906,36.0
1243.616,-0.08417799119092614,-0.208982550616444,0.3562746627878998,1.3034411926395832,1.11708102273143,-1.7990107259373944,0,31.479839324951172,32.75998306274414,31.479991912841797,38.40998458862305,37.23998260498047,38.139984130859375,48.13019943237305,0.14323022961616516,47.78799819946289,47.89500045776367,48.029998779296875,47.8489990234375,47.92499923706055,47.83399963378906,36.0
1243.624,-0.08417168852293352,-0.20898288594723685,0.35627133487603324,1.3034318790358093,1.1170750716115112,-1.7990128992548737,0,31.479839324951172,32.75998306274414,31.479991912841797,38.40998458862305,37.23998260498047,38.139984130859375,48.13019943237305,0.28645622730255127,47.78799819946289,47.89500045776367,48.029998779296875,47.8489990234375,47.92499923706055,47.81800079345703,36.0
1243.6319999999998,-0.08417600695740368,-0.20898213355637596,0.3562708919859896,1.3034264692151234,1.1171088915427585,-1.7990561562773675,0,31.479839324951172,32.75998306274414,31.479991912841797,38.40998458862305,37.23998260498047,38.139984130859375,48.13019943237305,0.35807186365127563,47.78799819946289,47.89500045776367,48.029998779296875,47.8489990234375,47.92499923706055,47.81800079345703,36.0
1243.6399999999999,-0.08417856676111113,-0.2089830348598772,0.35627476337670944,1.3034601170179683,1.117069641534243,-1.798971039716602,0,31.479839324951172,32.75998306274414,31.479991912841797,38.40998458862305,37.23998260498047,38.139984130859375,48.13019943237305,0.4296875,47.78799819946289,47.89500045776367,48.029998779296875,47.8489990234375,47.92499923706055,47.81800079345703,36.0
1243.648,-0.08417101473521417,-0.208985227554899,0.3562749260439608,1.3034241471009285,1.1170950622059657,-1.7989731665644073,0,31.479839324951172,32.75998306274414,31.479991912841797,38.40998458862305,37.23998260498047,38.139984130859375,48.13019943237305,0.35807186365127563,47.78799819946289,47.89500045776367,48.029998779296875,47.8489990234375,47.92499923706055,47.81800079345703,36.0
1243.656,-0.08418732748900853,-0.20898064320496243,0.3562689903134997,1.3034743365938382,1.1170649600890779,-1.7990167762895677,0,31.479839324951172,32.75998306274414,31.479991912841797,38.40998458862305,37.23998260498047,38.139984130859375,48.13019943237305,0.35807186365127563,47.78799819946289,47.89500045776367,48.029998779296875,47.8489990234375,47.92499923706055,47.81800079345703,36.0
1243.664,-0.08418281934758479,-0.20898207001813437,0.35627014058109885,1.303486871740893,1.1170189203418954,-1.798964743139435,0,31.479854583740234,32.75998306274414,31.479991912841797,38.40998458862305,37.23998260498047,38.139984130859375,48.13019943237305,0.28645622730255127,47.81800079345703,47.89500045776367,48.029998779296875,47.86399841308594,47.92499923706055,47.81800079345703,36.0
1243.672,-0.08418122727091454,-0.2089829147846595,0.35627841913742153,1.3034480618719178,1.1170866495873477,-1.7989896581295768,0,31.479854583740234,32.75998306274414,31.479991912841797,38.40998458862305,37.23998260498047,38.139984130859375,48.13019943237305,0.28645622730255127,47.81800079345703,47.86399841308594,48.029998779296875,47.86399841308594,47.90999984741211,47.81800079345703,36.0
1243.6799999999998,-0.08416876941880523,-0.20898408622798342,0.3562610380583035,1.3034234377874325,1.117097385864343,-1.7989921093234469,0,31.479854583740234,32.75998306274414,31.479991912841797,38.40998458862305,37.23998260498047,38.139984130859375,48.13019943237305,0.28645622730255127,47.81800079345703,47.86399841308594,48.04600143432617,47.86399841308594,47.90999984741211,47.81800079345703,36.0
1243.6879999999999,-0.08418105332527441,-0.20898272890129538,0.3562741384400204,1.3034675808084941,1.1170328486197718,-1.7989660080347063,0,31.479854583740234,32.75998306274414,31.479991912841797,38.40998458862305,37.23998260498047,38.139984130859375,48.13019943237305,0.21484586596488953,47.81800079345703,47.86399841308594,48.04600143432617,47.86399841308594,47.90999984741211,47.81800079345703,36.0
1243.696,-0.08418476415924278,-0.20898197235847174,0.3562693524280203,1.3034748454344356,1.117049132407981,-1.7989909381451794,0,31.479854583740234,32.75998306274414,31.479991912841797,38.40998458862305,37.23998260498047,38.139984130859375,48.13019943237305,0.2506510317325592,47.81800079345703,47.86399841308594,48.04600143432617,47.86399841308594,47.90999984741211,47.81800079345703,36.0
1243.704,-0.08418177415927132,-0.2089814685140277,0.3562695147055112,1.303475261968882,1.1170282009861996,-1.798974755823243,0,31.479854583740234,32.75998306274414,31.479991912841797,38.40998458862305,37.23998260498047,38.139984130859375,48.13019943237305,0.21484586596488953,47.81800079345703,47.86399841308594,48.04600143432617,47.86399841308594,47.90999984741211,47.81800079345703,36.0
1243.712,-0.08416660630696217,-0.2089849328310711,0.35627133487603324,1.3034129690532517,1.1170863549352996,-1.7989952749925773,0,31.479854583740234,32.75998306274414,31.479991912841797,38.40998458862305,37.23998260498047,38.139984130859375,48.13019943237305,0.28645622730255127,47.81800079345703,47.86399841308594,48.04600143432617,47.86399841308594,47.90999984741211,47.81800079345703,36.0
1243.7359999999999,-0.08416914113249428,-0.208981284602352,0.356263024561459,1.3034200129019997,1.117095637986959,-1.7990687082749919,0,31.479854583740234,32.75998306274414,31.479991912841797,38.40998458862305,37.23998260498047,38.139984130859375,48.13019943237305,0.32226669788360596,47.81800079345703,47.86399841308594,48.04600143432617,47.86399841308594,47.90999984741211,47.81800079345703,36.0
1243.752,-0.0841771622322188,-0.2089832726655747,0.3562608765963376,1.3034644229470058,1.1170418718386192,-1.7989742474212185,0,31.479869842529297,32.75998306274414,31.479991912841797,38.40998458862305,37.23998260498047,38.139984130859375,48.13019943237305,0.28645622730255127,47.803001403808594,47.86399841308594,48.04600143432617,47.86399841308594,47.92499923706055,47.81800079345703,36.0
1243.76,-0.08418305970726228,-0.2089819279088991,0.35626890849104564,1.3034736297181946,1.1170541001313363,-1.7989711401358843,0,31.479869842529297,32.75998306274414,31.479991912841797,38.40998458862305,37.23998260498047,38.139984130859375,48.13019943237305,0.10741975903511047,47.803001403808594,47.86399841308594,47.986000061035156,47.86399841308594,47.92499923706055,47.81800079345703,36.0
1243.768,-0.0841954736290401,-0.20897968595948663,0.3562822720470477,1.3034982252315217,1.1170277711677048,-1.7989996204190424,0,31.479869842529297,32.75998306274414,31.479991912841797,38.40998458862305,37.23998260498047,38.139984130859375,48.13019943237305,0.2506510317325592,47.803001403808594,47.86399841308594,47.986000061035156,47.86399841308594,47.92499923706055,47.81800079345703,36.0
1243.7759999999998,-0.08417474374671112,-0.20898045631647594,0.3562624972717438,1.3034397839644305,1.117081777716389,-1.799066878697525,0,31.479869842529297,32.75998306274414,31.479991912841797,38.40998458862305,37.23998260498047,38.139984130859375,48.13019943237305,0.32226669788360596,47.803001403808594,47.86399841308594,47.986000061035156,47.86399841308594,47.92499923706055,47.81800079345703,36.0
1243.7839999999999,-0.0841799582425484,-0.20898123498641152,0.3562648738434294,1.3034449352387603,1.1170999129614216,-1.7990353017371068,0,31.479869842529297,32.75998306274414,31.479991912841797,38.40998458862305,37.23998260498047,38.139984130859375,48.13019943237305,0.2506510317325592,47.803001403808594,47.86399841308594,47.986000061035156,47.86399841308594,47.92499923706055,47.81800079345703,36.0
1243.792,-0.08416860110069689,-0.20898390267139708,0.35626190815233716,1.3034349950789288,1.117063550411241,-1.7989856329601508,0,31.479869842529297,32.75998306274414,31.479991912841797,38.40998458862305,37.23998260498047,38.139984130859375,48.13019943237305,0.32226669788360596,47.803001403808594,47.86399841308594,47.986000061035156,47.86399841308594,47.92499923706055,47.81800079345703,36.0
1243.8,-0.08417738624388388,-0.20898009148798863,0.35626893161641016,1.3034767824315363,1.1170400680344463,-1.799038555549806,0,31.479869842529297,32.75998306274414,31.479991912841797,38.40998458862305,37.23998260498047,38.139984130859375,48.13019943237305,0.2506510317325592,47.803001403808594,47.86399841308594,47.986000061035156,47.86399841308594,47.92499923706055,47.81800079345703,36.0
1243.808,-0.08418240587740264,-0.20898230722619257,0.356273711968616,1.3034665816019995,1.1170467617288158,-1.7989737142735576,0,31.479869842529297,32.75998306274414,31.479991912841797,38.40998458862305,37.23998260498047,38.139984130859375,48.13019943237305,0.21484586596488953,47.803001403808594,47.86399841308594,47.986000061035156,47.86399841308594,47.92499923706055,47.81800079345703,36.0
1243.816,-0.08418860291630507,-0.2089817852079769,0.35627799351114686,1.3034713592852276,1.1170589651307725,-1.7989995985619351,0,31.479869842529297,32.75998306274414,31.479991912841797,38.40998458862305,37.23998260498047,38.139984130859375,48.13019943237305,0.28645622730255127,47.803001403808594,47.86399841308594,47.986000061035156,47.86399841308594,47.92499923706055,47.81800079345703,36.0
1243.8239999999998,-0.08418768422941239,-0.2089804117282747,0.3562704855923361,1.3035108929299273,1.1169968828160886,-1.798973079030205,0,31.479883193969727,32.75998306274414,31.479991912841797,38.40998458862305,37.23998260498047,38.139984130859375,48.13019943237305,0.28645622730255127,47.78799819946289,47.86399841308594,47.986000061035156,47.83399963378906,47.92499923706055,47.81800079345703,36.0
1243.8319999999999,-0.08417790541829248,-0.2089843006261821,0.35626927063894465,1.3034523169984344,1.1170741465504248,-1.7989623214114128,0,31.479883193969727,32.75998306274414,31.479991912841797,38.40998458862305,37.23998260498047,38.139984130859375,48.13019943237305,0.28645622730255127,47.78799819946289,47.90999984741211,48.06100082397461,47.83399963378906,47.939998626708984,47.81800079345703,36.0
1243.84,-0.08418651572658853,-0.20898014393796635,0.35628043943634335,1.3034970516979445,1.1170147703591373,-1.7989917098785713,0,31.479883193969727,32.75998306274414,31.479991912841797,38.40998458862305,37.23998260498047,38.139984130859375,48.13019943237305,0.17903539538383484,47.78799819946289,47.90999984741211,48.06100082397461,47.83399963378906,47.939998626708984,47.81800079345703,36.0
1243.848,-0.08417055395362197,-0.20898526700168257,0.35626417026109847,1.3034150783971177,1.1170893717820465,-1.798976043900823,0,31.479883193969727,32.75998306274414,31.479991912841797,38.40998458862305,37.23998260498047,38.139984130859375,48.13019943237305,0.35807186365127563,47.78799819946289,47.90999984741211,48.06100082397461,47.83399963378906,47.939998626708984,47.81800079345703,36.0
1243.856,-0.08417895112014137,-0.20898140753704025,0.35627187960037754,1.3034705578966068,1.1170476593920975,-1.799010290016173,0,31.479883193969727,32.75998306274414,31.479991912841797,38.40998458862305,37.23998260498047,38.139984130859375,48.13019943237305,0.21484586596488953,47.78799819946289,47.90999984741211,48.06100082397461,47.83399963378906,47.939998626708984,47.81800079345703,36.0
1243.864,-0.08417721390157233,-0.20898120586804994,0.3562709765486068,1.3034390894744958,1.1170804901919056,-1.7990489754814476,0,31.479883193969727,32.75998306274414,31.479991912841797,38.40998458862305,37.23998260498047,38.139984130859375,48.13019943237305,0.28645622730255127,47.78799819946289,47.90999984741211,48.06100082397461,47.83399963378906,47.939998626708984,47.81800079345703,36.0
1243.8719999999998,-0.08417623208321216,-0.2089823113422509,0.35626495514019224,1.3034474513889798,1.1170622770508927,-1.798993168789359,0,31.479883193969727,32.75998306274414,31.479991912841797,38.40998458862305,37.23998260498047,38.139984130859375,48.13019943237305,0.32226669788360596,47.78799819946289,47.90999984741211,48.06100082397461,47.83399963378906,47.939998626708984,47.81800079345703,36.0
1243.8799999999999,-0.08417648128353794,-0.2089815532416892,0.35627204232415294,1.3034575443256675,1.1170517890523248,-1.7990214018938675,0,31.479883193969727,32.75998306274414,31.479991912841797,38.40998458862305,37.23998260498047,38.139984130859375,48.13019943237305,0.28645622730255127,47.78799819946289,47.90999984741211,48.06100082397461,47.83399963378906,47.939998626708984,47.81800079345703,36.0
1243.888,-0.08417984975926134,-0.2089847434345569,0.35627817506929793,1.3034547416319306,1.1170767278186708,-1.7989424074145786,0,31.479883193969727,32.75998306274414,31.479991912841797,38.40998458862305,37.23998260498047,38.139984130859375,48.13019943237305,0.35807186365127563,47.78799819946289,47.90999984741211,48.06100082397461,47.83399963378906,47.939998626708984,47.81800079345703,36.0
1243.896,-0.08418159971660757,-0.2089818230553841,0.35627492659245674,1.3034766554664805,1.1170273267671067,-1.7989745430293267,0,31.479883193969727,32.75998306274414,31.479991912841797,38.40998458862305,37.23998260498047,38.139984130859375,48.13019943237305,0.28645622730255127,47.78799819946289,47.90999984741211,48.06100082397461,47.83399963378906,47.939998626708984,47.81800079345703,36.0
1243.904,-0.0841641865489208,-0.2089841460015364,0.35626285879232844,1.3034055582977888,1.11710781788835,-1.7990312838713705,0,31.479894638061523,32.75998306274414,31.479991912841797,38.40998458862305,37.23998260498047,38.139984130859375,48.13019943237305,0.21484586596488953,47.81800079345703,47.90999984741211,48.029998779296875,47.8489990234375,47.939998626708984,47.81800079345703,36.0
1243.912,-0.08418214608894041,-0.20898091722704684,0.3562757147216808,1.3034775963610008,1.1170419193475098,-1.7990004429880373,0,31.479894638061523,32.75998306274414,31.479991912841797,38.40998458862305,37.23998260498047,38.139984130859375,48.13019943237305,0.28645622730255127,47.81800079345703,47.87900161743164,48.029998779296875,47.8489990234375,47.90999984741211,47.81800079345703,36.0
1243.9199999999998,-0.08416520413999812,-0.20898446196122716,0.3562631227271143,1.3034273348185164,1.1170698818344433,-1.7989947555525296,0,31.479894638061523,32.75998306274414,31.479991912841797,38.40998458862305,37.23998260498047,38.139984130859375,48.13019943237305,0.4296875,47.81800079345703,47.87900161743164,48.029998779296875,47.8489990234375,47.90999984741211,47.81800079345703,36.0
1243.952,-0.08418751373340985,-0.20898219918191743,0.35627251656312664,1.3034850555161694,1.117062429160695,-1.7989494142185198,0,31.479894638061523,32.75998306274414,31.479991912841797,38.40998458862305,37.23998260498047,38.139984130859375,48.13019943237305,0.32226669788360596,47.81800079345703,47.87900161743164,48.029998779296875,47.8489990234375,47.90999984741211,47.8489990234375,36.0
1243.96,-0.08418167794492462,-0.20898095951224654,0.3562700225308395,1.3034648198100933,1.1170459463797677,-1.7990115688211745,0,31.479894638061523,32.75998306274414,31.479991912841797,38.40998458862305,37.23998260498047,38.139984130859375,48.13019943237305,0.21484586596488953,47.81800079345703,47.87900161743164,48.029998779296875,47.8489990234375,47.90999984741211,47.8489990234375,36.0
1243.9679999999998,-0.08418418308012582,-0.20898166587498584,0.35626463032535255,1.3034855846685742,1.1170333176409395,-1.7989721490128623,0,31.479894638061523,32.75998306274414,31.479991912841797,38.40998458862305,37.23998260498047,38.139984130859375,48.13019943237305,0.28645622730255127,47.81800079345703,47.87900161743164,48.029998779296875,47.8489990234375,47.90999984741211,47.8489990234375,36.0
1243.9759999999999,-0.08417438682337634,-0.20898607503374142,0.35627304099297985,1.3034456219681225,1.117072607329904,-1.7989071345888303,0,31.479894638061523,32.75998306274414,31.479991912841797,38.40998458862305,37.23998260498047,38.139984130859375,48.13019943237305,0.28645622730255127,47.81800079345703,47.87900161743164,48.01499938964844,47.8489990234375,47.90999984741211,47.8489990234375,36.0
1243.984,-0.08417477944642479,-0.20898220358405123,0.356265909792253,1.3034338683350426,1.117076020940291,-1.7990316929664723,0,31.47990608215332,32.75998306274414,31.479991912841797,38.40998458862305,37.23998260498047,38.139984130859375,48.13019943237305,0.28645622730255127,47.757999420166016,47.87900161743164,48.01499938964844,47.8489990234375,47.90999984741211,47.8489990234375,36.0
1243.992,-0.08418326264599868,-0.20898332363096672,0.35627197245694087,1.3034503914145572,1.117089157024218,-1.7989705059328203,0,31.47990608215332,32.75998306274414,31.479991912841797,38.40998458862305,37.23998260498047,38.139984130859375,48.13019943237305,0.2506510317325592,47.757999420166016,47.87900161743164,48.01499938964844,47.8489990234375,47.939998626708984,47.8489990234375,36.0
1244.0,-0.08418418244674826,-0.20898202610812378,0.35627379379220736,1.3034661122989242,1.117043138319529,-1.79899343269342,0,31.47990608215332,32.75998306274414,31.479991912841797,38.40998458862305,37.23998260498047,38.139984130859375,48.13019943237305,0.14323022961616516,47.757999420166016,47.87900161743164,48.01499938964844,47.8489990234375,47.939998626708984,47.8489990234375,36.0
1244.008,-0.08418627991947109,-0.20898297218316284,0.35627712356933705,1.3034545782162263,1.117088324231304,-1.7989887966280398,0,31.47990608215332,32.75998306274414,31.479991912841797,38.40998458862305,37.23998260498047,38.139984130859375,48.13019943237305,0.35807186365127563,47.757999420166016,47.87900161743164,48.01499938964844,47.8489990234375,47.939998626708984,47.8489990234375,36.0
1244.048,-0.08417997134886805,-0.20898330500799375,0.35626864521157997,1.303453226403334,1.11706240702011,-1.7989737967490773,0,31.47990608215332,32.75998306274414,31.479991912841797,38.40998458862305,37.23998260498047,38.139984130859375,48.13019943237305,0.32226669788360596,47.757999420166016,47.87900161743164,48.01499938964844,47.8489990234375,47.939998626708984,47.83399963378906,36.0
1244.056,-0.08417480740646835,-0.20898305842056383,0.3562657439043869,1.303450134583792,1.1170470183325123,-1.7989855425807408,0,31.47990608215332,32.75998306274414,31.479991912841797,38.40998458862305,37.23998260498047,38.139984130859375,48.13019943237305,0.14323022961616516,47.757999420166016,47.87900161743164,48.01499938964844,47.8489990234375,47.939998626708984,47.83399963378906,36.0
1244.0639999999999,-0.08417163027352689,-0.20898467583660116,0.3562798980532372,1.3034013612834,1.1171297297882836,-1.7990292715010843,0,31.479915618896484,32.75998306274414,31.479991912841797,38.40998458862305,37.23998260498047,38.139984130859375,48.13019943237305,0.28645622730255127,47.81800079345703,47.87900161743164,48.01499938964844,47.8489990234375,47.939998626708984,47.83399963378906,36.0
1244.072,-0.08417644190666229,-0.20898103846676422,0.35626748341669645,1.303455237409364,1.1170494265192628,-1.7990408459908702,0,31.479915618896484,32.75998306274414,31.479991912841797,38.40998458862305,37.23998260498047,38.139984130859375,48.13019943237305,0.21484586596488953,47.81800079345703,47.87900161743164,48.01499938964844,47.8489990234375,47.939998626708984,47.83399963378906,36.0
1244.08,-0.08418097416079644,-0.2089804463181851,0.3562661874611528,1.3034832774463438,1.1170060260008818,-1.7989954115343536,0,31.479915618896484,32.75998306274414,31.479991912841797,38.40998458862305,37.23998260498047,38.139984130859375,48.13019943237305,0.537108302116394,47.81800079345703,47.87900161743164,48.01499938964844,47.8489990234375,47.939998626708984,47.83399963378906,36.0
1244.088,-0.08416654438520992,-0.20898368749976953,0.35626743544784434,1.3034165370722017,1.1171053099586328,-1.7990204870254143,0,31.479915618896484,32.75998306274414,31.479991912841797,38.40998458862305,37.23998260498047,38.139984130859375,48.13019943237305,0.32226669788360596,47.81800079345703,47.87900161743164,48.01499938964844,47.8489990234375,47.939998626708984,47.83399963378906,36.0
1244.096,-0.08418034951312167,-0.20898221569317213,0.3562703033638611,1.3034575904598562,1.117063278701228,-1.799010585087343,0,31.479915618896484,32.75998306274414,31.479991912841797,38.40998458862305,37.23998260498047,38.139984130859375,48.13019943237305,0.17903539538383484,47.81800079345703,47.87900161743164,48.01499938964844,47.8489990234375,47.939998626708984,47.83399963378906,36.0
1244.104,-0.08418159971660757,-0.2089818230553841,0.35627492659245674,1.3034685215708397,1.117047441137405,-1.7989919080408183,0,31.479915618896484,32.75998306274414,31.479991912841797,38.40998458862305,37.23998260498047,38.139984130859375,48.13019943237305,0.2506510317325592,47.81800079345703,47.87900161743164,48.01499938964844,47.8489990234375,47.939998626708984,47.81800079345703,36.0
1244.1119999999999,-0.08417379755456184,-0.20898330904969487,0.35625988838315326,1.303438183464548,1.1170678150329527,-1.7989845255452255,0,31.479915618896484,32.75998306274414,31.479991912841797,38.40998458862305,37.23998260498047,38.139984130859375,48.13019943237305,0.28645622730255127,47.81800079345703,47.87900161743164,48.01499938964844,47.8489990234375,47.939998626708984,47.81800079345703,36.0
1244.12,-0.08417788053036845,-0.20898200119952381,0.35626130256067234,1.303468136996097,1.1170474807093778,-1.7989916876100707,0,31.479915618896484,32.75998306274414,31.479991912841797,38.40998458862305,37.23998260498047,38.139984130859375,48.13019943237305,0.32226669788360596,47.81800079345703,47.87900161743164,48.04600143432617,47.8489990234375,47.939998626708984,47.81800079345703,36.0
1244.128,-0.08417012198928821,-0.20898366466777032,0.35626061153808763,1.3034387078988536,1.1170710711151428,-1.7989650853116512,0,31.479915618896484,32.75998306274414,31.479991912841797,38.40998458862305,37.23998260498047,38.139984130859375,48.13019943237305,0.2506510317325592,47.81800079345703,47.87900161743164,48.04600143432617,47.8489990234375,47.939998626708984,47.81800079345703,36.0
1244.136,-0.08417804799186591,-0.20898254487683213,0.35626959603154307,1.303465596632925,1.117020686908272,-1.7989586268455178,0,31.479915618896484,32.75998306274414,31.479991912841797,38.40998458862305,37.23998260498047,38.139984130859375,48.13019943237305,0.28645622730255127,47.81800079345703,47.87900161743164,48.04600143432617,47.8489990234375,47.939998626708984,47.81800079345703,36.0
1244.144,-0.08418994934833743,-0.20898190147373882,0.3562821089410613,1.3034967783098106,1.1170153742277111,-1.7989354694334432,0,31.479923248291016,32.75998306274414,31.479991912841797,38.40998458862305,37.23998260498047,38.139984130859375,48.13019943237305,0.28645622730255127,47.81800079345703,47.87900161743164,48.04600143432617,47.81800079345703,47.939998626708984,47.81800079345703,36.0
1244.1599999999999,-0.0841749189167758,-0.20898324767330623,0.3562699405997891,1.303434528746903,1.1170908540646134,-1.7990006622666637,0,31.479923248291016,32.75998306274414,31.479991912841797,38.40998458862305,37.23998260498047,38.139984130859375,48.13019943237305,0.2506510317325592,47.81800079345703,47.87900161743164,48.04600143432617,47.81800079345703,47.92499923706055,47.81800079345703,36.0
1244.168,-0.08418719867188713,-0.20898097451952036,0.3562744191850505,1.3034922470923753,1.1170234796150607,-1.7989822163923543,0,31.479923248291016,32.75998306274414,31.479991912841797,38.40998458862305,37.23998260498047,38.139984130859375,48.13019943237305,0.3938823342323303,47.81800079345703,47.87900161743164,48.04600143432617,47.81800079345703,47.92499923706055,47.81800079345703,36.0
1244.176,-0.08417533246378028,-0.20898301040218617,0.3562663693170258,1.303458865923229,1.11705300531063,-1.7989830522252945,0,31.479923248291016,32.75998306274414,31.479991912841797,38.40998458862305,37.23998260498047,38.139984130859375,48.13019943237305,0.28645622730255127,47.81800079345703,47.87900161743164,48.04600143432617,47.81800079345703,47.92499923706055,47.81800079345703,36.0
1244.184,-0.08418352924250297,-0.20898204519608804,0.3562694338267756,1.3034907166150445,1.11699585763538,-1.7989487186800321,0,31.479923248291016,32.75998306274414,31.479991912841797,38.40998458862305,37.23998260498047,38.139984130859375,48.13019943237305,0.28645622730255127,47.81800079345703,47.87900161743164,48.04600143432617,47.81800079345703,47.92499923706055,47.803001403808594,36.0
1244.192,-0.0841804276733659,-0.20898135213937652,0.35626539933061224,1.3034538885005558,1.1170617837052097,-1.7990302459541796,0,31.479923248291016,32.75998306274414,31.479991912841797,38.40998458862305,37.23998260498047,38.139984130859375,48.13019943237305,0.32226669788360596,47.81800079345703,47.87900161743164,48.029998779296875,47.81800079345703,47.92499923706055,47.803001403808594,36.0
1244.2,-0.08417609695834555,-0.208983180563828,0.3562749260439608,1.3034430571661944,1.1170837787228385,-1.7989907907205644,0,31.479923248291016,32.75998306274414,31.479991912841797,38.40998458862305,37.23998260498047,38.139984130859375,48.13019943237305,0.28645622730255127,47.81800079345703,47.87900161743164,48.029998779296875,47.81800079345703,47.92499923706055,47.803001403808594,36.0
1244.2079999999999,-0.08417493674740333,-0.20898462014436803,0.35627433691460525,1.3034527598573513,1.1170644958792733,-1.798935463032696,0,31.479923248291016,32.75998306274414,31.479991912841797,38.40998458862305,37.23998260498047,38.139984130859375,48.13019943237305,0.28645622730255127,47.81800079345703,47.87900161743164,48.029998779296875,47.81800079345703,47.92499923706055,47.803001403808594,36.0
1244.216,-0.08419038416882063,-0.20898080642229003,0.3562787002959453,1.3035092780173025,1.116996138457417,-1.798954888640531,0,31.479923248291016,32.75998306274414,31.479991912841797,38.40998458862305,37.23998260498047,38.139984130859375,48.13019943237305,0.28645622730255127,47.81800079345703,47.87900161743164,48.029998779296875,47.81800079345703,47.92499923706055,47.803001403808594,36.0
1244.224,-0.08418188565538864,-0.20898165771144153,0.35627371142458897,1.3034514816980114,1.1170922512822672,-1.7990073266865152,0,31.479930877685547,32.75998306274414,31.479991912841797,38.40998458862305,37.23998260498047,38.139984130859375,48.13019943237305,0.3938823342323303,47.81800079345703,47.87900161743164,48.029998779296875,47.83399963378906,47.92499923706055,47.803001403808594,36.0
1244.232,-0.08417808425945976,-0.20898486181979284,0.3562724802601632,1.3034413958175057,1.1170678508675589,-1.7989462390662967,0,31.479930877685547,32.75998306274414,31.479991912841797,38.40998458862305,37.23998260498047,38.139984130859375,48.13019943237305,0.28645622730255127,47.81800079345703,47.89500045776367,48.029998779296875,47.83399963378906,47.92499923706055,47.803001403808594,36.0
1244.24,-0.08418238442148852,-0.20898316506866077,0.3562735492428236,1.3034702846606554,1.1170482632609717,-1.7989540495573355,0,31.479930877685547,32.75998306274414,31.479991912841797,38.40998458862305,37.23998260498047,38.139984130859375,48.13019943237305,0.28645622730255127,47.81800079345703,47.89500045776367,48.029998779296875,47.83399963378906,47.92499923706055,47.803001403808594,36.0
1244.248,-0.08418959369331387,-0.20897946188284552,0.35627492703650526,1.3034910749106479,1.1170356937065749,-1.799027668567226,0,31.479930877685547,32.75998306274414,31.479991912841797,38.40998458862305,37.23998260498047,38.139984130859375,48.13019943237305,0.21484586596488953,47.81800079345703,47.89500045776367,48.029998779296875,47.83399963378906,47.92499923706055,47.803001403808594,36.0
1244.272,-0.08418682055062675,-0.20898206383663231,0.35627276106713374,1.3034838359740801,1.117032614900878,-1.7989540675001656,0,31.479930877685547,32.75998306274414,31.479991912841797,38.40998458862305,37.23998260498047,38.139984130859375,48.13019943237305,0.21484586596488953,47.81800079345703,47.89500045776367,48.06100082397461,47.83399963378906,47.92499923706055,47.83399963378906,36.0
1244.28,-0.08417775243970815,-0.2089837973580811,0.35627484522297065,1.3034459606189475,1.1170817780333335,-1.7989904125587453,0,31.479930877685547,32.75998306274414,31.479991912841797,38.40998458862305,37.23998260498047,38.139984130859375,48.13019943237305,0.28645622730255127,47.81800079345703,47.89500045776367,48.06100082397461,47.83399963378906,47.92499923706055,47.83399963378906,36.0
1244.288,-0.08418673008109255,-0.20898155727313703,0.3562784195957738,1.3034857475905197,1.1170200904775711,-1.798964684701941,0,31.479930877685547,32.75998306274414,31.479991912841797,38.40998458862305,37.23998260498047,38.139984130859375,48.13019943237305,0.32226669788360596,47.81800079345703,47.89500045776367,48.06100082397461,47.83399963378906,47.92499923706055,47.83399963378906,36.0
1244.296,-0.0841884392460605,-0.2089809041109747,0.35627948847132934,1.3035050368648677,1.1170061553420665,-1.7989634236072691,0,31.479930877685547,32.75998306274414,31.479991912841797,38.40998458862305,37.23998260498047,38.139984130859375,48.13019943237305,0.2506510317325592,47.81800079345703,47.89500045776367,48.06100082397461,47.83399963378906,47.92499923706055,47.83399963378906,36.0
1244.312,-0.08417832287042161,-0.2089827283915662,0.35627010768359574,1.3034329180011537,1.1170840103277109,-1.7990400624910399,0,31.479938507080078,32.75998306274414,31.479991912841797,38.40998458862305,37.23998260498047,38.139984130859375,48.13019943237305,0.35807186365127563,47.77299880981445,47.86399841308594,48.06100082397461,47.8489990234375,47.95500183105469,47.83399963378906,36.0
1244.32,-0.08417663862564465,-0.20898297223943232,0.35627508928719337,1.3034462792305945,1.1170570022078015,-1.798994294099259,0,31.479938507080078,32.75998306274414,31.479991912841797,38.40998458862305,37.23998260498047,38.139984130859375,48.13019943237305,0.28645622730255127,47.77299880981445,47.86399841308594,48.06100082397461,47.8489990234375,47.95500183105469,47.83399963378906,36.0
1244.328,-0.08417773761294074,-0.20898062263255845,0.3562721236639227,1.303466417513165,1.1170332118217565,-1.7990225517245209,0,31.479938507080078,32.75998306274414,31.479991912841797,38.40998458862305,37.23998260498047,38.139984130859375,48.13019943237305,0.4296875,47.77299880981445,47.86399841308594,48.06100082397461,47.8489990234375,47.95500183105469,47.83399963378906,36.0
1244.336,-0.08418031498309715,-0.20898100344655668,0.3562663693170258,1.3034855386377553,1.1170218280401236,-1.7989829658321905,0,31.479938507080078,32.75998306274414,31.479991912841797,38.40998458862305,37.23998260498047,38.139984130859375,48.13019943237305,0.2506510317325592,47.77299880981445,47.86399841308594,48.01499938964844,47.8489990234375,47.95500183105469,47.83399963378906,36.0
1244.344,-0.08417258462230369,-0.20898441705356108,0.3562741543451526,1.3034220832319314,1.1171097219982906,-1.7989815210743287,0,31.479938507080078,32.75998306274414,31.479991912841797,38.40998458862305,37.23998260498047,38.139984130859375,48.13019943237305,0.21484586596488953,47.77299880981445,47.86399841308594,48.01499938964844,47.8489990234375,47.95500183105469,47.81800079345703,36.0
1244.3519999999999,-0.08417295883823656,-0.20898366508136532,0.35626602418650527,1.3034359794237556,1.1170896253311096,-1.799000720318079,0,31.479938507080078,32.75998306274414,31.479991912841797,38.40998458862305,37.23998260498047,38.139984130859375,48.13019943237305,0.3938823342323303,47.77299880981445,47.86399841308594,48.01499938964844,47.8489990234375,47.95500183105469,47.81800079345703,36.0
1244.36,-0.08418914353332385,-0.2089808768341431,0.35627363100943915,1.3034924417778904,1.1170234699833557,-1.798982320728721,0,31.479938507080078,32.75998306274414,31.479991912841797,38.40998458862305,37.23998260498047,38.139984130859375,48.13019943237305,0.28645622730255127,47.77299880981445,47.86399841308594,48.01499938964844,47.8489990234375,47.95500183105469,47.81800079345703,36.0
1244.384,-0.08417733807992438,-0.20898256970648546,0.35627030283545236,1.3034495296343862,1.1170739706125974,-1.7990007421813692,0,31.479944229125977,32.75998306274414,31.479991912841797,38.40998458862305,37.23998260498047,38.139984130859375,48.13019943237305,0.2506510317325592,47.81800079345703,47.86399841308594,48.01499938964844,47.8489990234375,47.95500183105469,47.81800079345703,36.0
1244.392,-0.0841786153242917,-0.20898427581317108,0.3562685638560563,1.303456203505696,1.1170509840370584,-1.798946210608826,0,31.479944229125977,32.75998306274414,31.479991912841797,38.40998458862305,37.23998260498047,38.139984130859375,48.13019943237305,0.32226669788360596,47.81800079345703,47.87900161743164,48.01499938964844,47.8489990234375,47.92499923706055,47.81800079345703,36.0
1244.3999999999999,-0.08418162114405102,-0.2089809652526145,0.35627508928719337,1.3034566841690136,1.1170660540215986,-1.799028937706696,0,31.479944229125977,32.75998306274414,31.479991912841797,38.40998458862305,37.23998260498047,38.139984130859375,48.13019943237305,0.2506510317325592,47.81800079345703,47.87900161743164,48.01499938964844,47.8489990234375,47.92499923706055,47.81800079345703,36.0
1244.408,-0.08417924343239397,-0.20898195728463514,0.35626495577380635,1.3034514646217459,1.1170615916505275,-1.7990116512966525,0,31.479944229125977,32.75998306274414,31.479991912841797,38.40998458862305,37.23998260498047,38.139984130859375,48.13019943237305,0.32226669788360596,47.81800079345703,47.87900161743164,48.029998779296875,47.8489990234375,47.92499923706055,47.81800079345703,36.0
1244.416,-0.08418440137456129,-0.208982741804209,0.3562723989191606,1.3034647480012058,1.11705960551882,-1.7989627134508628,0,31.479944229125977,32.75998306274414,31.479991912841797,38.40998458862305,37.23998260498047,38.139984130859375,48.13019943237305,0.28645622730255127,47.81800079345703,47.87900161743164,48.029998779296875,47.8489990234375,47.92499923706055,47.81800079345703,36.0
1244.424,-0.08418725541250975,-0.20898096878300076,0.3562693524280203,1.303480068207225,1.117053608208825,-1.7990082166518762,0,31.479944229125977,32.75998306274414,31.479991912841797,38.40998458862305,37.23998260498047,38.139984130859375,48.13019943237305,0.28645622730255127,47.81800079345703,47.87900161743164,48.029998779296875,47.8489990234375,47.92499923706055,47.81800079345703,36.0
1244.432,-0.08417044960583225,-0.20898329601432303,0.3562616278911525,1.3034247468196019,1.1170812856537395,-1.7990225503679123,0,31.479944229125977,32.75998306274414,31.479991912841797,38.40998458862305,37.23998260498047,38.139984130859375,48.13019943237305,0.2506510317325592,47.81800079345703,47.87900161743164,48.029998779296875,47.8489990234375,47.92499923706055,47.81800079345703,36.0
1244.44,-0.08417895112014137,-0.20898140753704025,0.35627187960037754,1.3034746046042616,1.117037652199585,-1.7990016507263713,0,31.479944229125977,32.75998306274414,31.479991912841797,38.40998458862305,37.23998260498047,38.139984130859375,48.13019943237305,0.32226669788360596,47.81800079345703,47.87900161743164,48.029998779296875,47.8489990234375,47.92499923706055,47.81800079345703,36.0
1244.4479999999999,-0.08417859084188989,-0.2089828717554858,0.35626923763101986,1.3034420469450065,1.1170673892059368,-1.79900351526035,0,31.479944229125977,32.75998306274414,31.479991912841797,38.40998458862305,37.23998260498047,38.139984130859375,48.13019943237305,0.28645622730255127,47.81800079345703,47.87900161743164,48.029998779296875,47.8489990234375,47.92499923706055,47.81800079345703,36.0
1244.456,-0.08418546801165111,-0.20898248556407653,0.3562731875106488,1.3034848353009107,1.1170187020166809,-1.798946361211019,0,31.479944229125977,32.75998306274414,31.479991912841797,38.40998458862305,37.23998260498047,38.139984130859375,48.13019943237305,0.4654926657676697,47.81800079345703,47.87900161743164,48.029998779296875,47.8489990234375,47.92499923706055,47.81800079345703,36.0
1244.464,-0.08417179766826688,-0.208980741412461,0.3562600566486568,1.303448523141929,1.117070294538602,-1.799076297200762,0,31.479949951171875,32.75998306274414,31.479991912841797,38.40998458862305,37.23998260498047,38.139984130859375,48.13019943237305,0.28645622730255127,47.81800079345703,47.87900161743164,48.029998779296875,47.83399963378906,47.92499923706055,47.81800079345703,36.0
1244.472,-0.08417477944642479,-0.20898220358405123,0.356265909792253,1.303446089862204,1.1170457996474947,-1.7990056021628775,0,31.479949951171875,32.75998306274414,31.479991912841797,38.40998458862305,37.23998260498047,38.139984130859375,48.13019943237305,0.35807186365127563,47.81800079345703,47.86399841308594,48.029998779296875,47.83399963378906,47.92499923706055,47.81800079345703,36.0
1244.488,-0.08417459336644426,-0.2089816451795067,0.35626776365260077,1.3034573512401704,1.11705180545568,-1.7990212936347572,0,31.479949951171875,32.75998306274414,31.479991912841797,38.40998458862305,37.23998260498047,38.139984130859375,48.13019943237305,0.21484586596488953,47.81800079345703,47.86399841308594,48.01499938964844,47.83399963378906,47.92499923706055,47.81800079345703,36.0
1244.4959999999999,-0.08417873599444499,-0.20898391828827337,0.35627841913742153,1.3034469267904643,1.117072066593674,-1.798963653904892,0,31.479949951171875,32.75998306274414,31.479991912841797,38.40998458862305,37.23998260498047,38.139984130859375,48.13019943237305,0.21484586596488953,47.81800079345703,47.86399841308594,48.01499938964844,47.83399963378906,47.92499923706055,47.81800079345703,36.0
1244.504,-0.08417217421077836,-0.20898232317660348,0.35626740142116115,1.3034219938277565,1.1171190247602785,-1.799064669314651,0,31.479949951171875,32.75998306274414,31.479991912841797,38.40998458862305,37.23998260498047,38.139984130859375,48.13019943237305,0.32226669788360596,47.81800079345703,47.86399841308594,48.01499938964844,47.83399963378906,47.92499923706055,47.81800079345703,36.0
1244.512,-0.08418931180498355,-0.20898106023682705,0.35627276106713374,1.3034890181932188,1.1170371906027095,-1.7989714324491513,0,31.479949951171875,32.75998306274414,31.479991912841797,38.40998458862305,37.23998260498047,38.139984130859375,48.13019943237305,0.28645622730255127,47.81800079345703,47.86399841308594,48.01499938964844,47.83399963378906,47.92499923706055,47.81800079345703,36.0
1244.52,-0.08418230967516346,-0.20898179822293947,0.3562742197947628,1.3034601862148774,1.1170545000039571,-1.7990018879357648,0,31.479949951171875,32.75998306274414,31.479991912841797,38.40998458862305,37.23998260498047,38.139984130859375,48.13019943237305,0.2506510317325592,47.81800079345703,47.86399841308594,48.01499938964844,47.83399963378906,47.92499923706055,47.81800079345703,36.0
1244.528,-0.08417565672088426,-0.20898319096002627,0.35626687766823456,1.3034509317347411,1.1170557040402846,-1.7990119973522893,0,31.479949951171875,32.75998306274414,31.479991912841797,38.40998458862305,37.23998260498047,38.139984130859375,48.13019943237305,0.35807186365127563,47.81800079345703,47.86399841308594,48.01499938964844,47.83399963378906,47.92499923706055,47.81800079345703,36.0
1244.5359999999998,-0.08419356399612354,-0.20898063588187044,0.3562778306688049,1.303505822580757,1.1170191822051463,-1.7989711215277433,0,31.479949951171875,32.75998306274414,31.479991912841797,38.40998458862305,37.23998260498047,38.139984130859375,48.13019943237305,0.32226669788360596,47.81800079345703,47.86399841308594,48.01499938964844,47.83399963378906,47.92499923706055,47.81800079345703,36.0
1244.5439999999999,-0.08418190267465142,-0.20898286159112922,0.3562752720601978,1.303472465787551,1.1170314279214597,-1.7989837367531505,0,31.479955673217773,32.75998306274414,31.479991912841797,38.40998458862305,37.23998260498047,38.139984130859375,48.13019943237305,0.28645622730255127,47.81800079345703,47.86399841308594,48.01499938964844,47.8489990234375,47.92499923706055,47.81800079345703,36.0
1244.552,-0.08418154495768759,-0.20898162808544254,0.35626566307346175,1.3034679013702726,1.117043740788402,-1.7990114278492209,0,31.479955673217773,32.75998306274414,31.479991912841797,38.40998458862305,37.23998260498047,38.139984130859375,48.13019943237305,0.28645622730255127,47.81800079345703,47.86399841308594,48.01499938964844,47.8489990234375,47.90999984741211,47.81800079345703,36.0
1244.56,-0.08418169591262117,-0.2089823320590741,0.3562744187655687,1.3034708295406805,1.1170498099879422,-1.7989724600800816,0,31.479955673217773,32.75998306274414,31.479991912841797,38.40998458862305,37.23998260498047,38.139984130859375,48.13019943237305,0.28645622730255127,47.81800079345703,47.86399841308594,48.01499938964844,47.8489990234375,47.90999984741211,47.81800079345703,36.0
1244.568,-0.08417475060545222,-0.208983064159523,0.3562708106607407,1.303441998780882,1.1170671257257065,-1.799002911564064,0,31.479955673217773,32.75998306274414,31.479991912841797,38.40998458862305,37.23998260498047,38.139984130859375,48.13019943237305,0.2506510317325592,47.81800079345703,47.86399841308594,48.01499938964844,47.8489990234375,47.90999984741211,47.81800079345703,36.0
1244.576,-0.08418477949900079,-0.20898165251763046,0.3562740570705329,1.3034853800448498,1.1170202485766718,-1.7989647717943664,0,31.479955673217773,32.75998306274414,31.479991912841797,38.40998458862305,37.23998260498047,38.139984130859375,48.13019943237305,0.28645622730255127,47.81800079345703,47.86399841308594,48.01499938964844,47.8489990234375,47.90999984741211,47.81800079345703,36.0
1244.6,-0.08418260941947472,-0.20898334272690247,0.3562676125338837,1.3034668625860453,1.1170619904579726,-1.7989431572703587,0,31.479955673217773,32.75998306274414,31.479991912841797,38.40998458862305,37.23998260498047,38.139984130859375,48.13019943237305,0.2506510317325592,47.81800079345703,47.86399841308594,48.01499938964844,47.8489990234375,47.90999984741211,47.83399963378906,36.0
1244.608,-0.08416860110069689,-0.20898390267139708,0.35626190815233716,1.303439082465064,1.1170534433665307,-1.7989769072031012,0,31.479955673217773,32.75998306274414,31.479991912841797,38.40998458862305,37.23998260498047,38.139984130859375,48.13019943237305,0.35807186365127563,47.81800079345703,47.86399841308594,48.01499938964844,47.8489990234375,47.90999984741211,47.83399963378906,36.0
1244.616,-0.08417920464310252,-0.2089833355683183,0.3562744187655687,1.303465647394209,1.1170452342352442,-1.7989550950859632,0,31.479955673217773,32.75998306274414,31.479991912841797,38.40998458862305,37.23998260498047,38.139984130859375,48.13019943237305,0.32226669788360596,47.81800079345703,47.86399841308594,48.01499938964844,47.8489990234375,47.90999984741211,47.83399963378906,36.0
1244.624,-0.08418596941531264,-0.20898104981537924,0.35627965128417505,1.3034757561272747,1.1170505141358258,-1.7990092655511785,0,31.47995948791504,32.75998306274414,31.479991912841797,38.40998458862305,37.23998260498047,38.139984130859375,48.13019943237305,0.32226669788360596,47.83399963378906,47.86399841308594,48.029998779296875,47.83399963378906,47.90999984741211,47.83399963378906,36.0
1244.6319999999998,-0.08418209541663572,-0.2089803849347839,0.3562762396186577,1.3034796241654334,1.1170290655500068,-1.7990115481876428,0,31.47995948791504,32.75998306274414,31.479991912841797,38.40998458862305,37.23998260498047,38.139984130859375,48.13019943237305,0.32226669788360596,47.83399963378906,47.87900161743164,48.029998779296875,47.83399963378906,47.92499923706055,47.83399963378906,36.0
1244.6399999999999,-0.08417712006432607,-0.2089814937324417,0.35626253417315795,1.3034866338558937,1.117007453708611,-1.7989754477952928,0,31.47995948791504,32.75998306274414,31.479991912841797,38.40998458862305,37.23998260498047,38.139984130859375,48.13019943237305,0.28645622730255127,47.83399963378906,47.87900161743164,48.029998779296875,47.83399963378906,47.92499923706055,47.83399963378906,36.0
1244.648,-0.08418150961931747,-0.20898077599067594,0.35627089258219735,1.3034682425963837,1.1170322248946787,-1.7990224572945823,0,31.47995948791504,32.75998306274414,31.479991912841797,38.40998458862305,37.23998260498047,38.139984130859375,48.13019943237305,0.28645622730255127,47.83399963378906,47.87900161743164,48.029998779296875,47.83399963378906,47.92499923706055,47.83399963378906,36.0
1244.6799999999998,-0.08417809863982922,-0.208983077138715,0.3562690711582999,1.3034473004607419,1.1170737687851526,-1.7989822518561538,0,31.47995948791504,32.75998306274414,31.479991912841797,38.40998458862305,37.23998260498047,38.139984130859375,48.13019943237305,0.28645622730255127,47.83399963378906,47.87900161743164,48.029998779296875,47.83399963378906,47.92499923706055,47.81800079345703,36.0
1244.6879999999999,-0.08418159725058955,-0.20898307222834273,0.35627894449310027,1.3034444637940885,1.1170788638189015,-1.7990102606761833,0,31.47995948791504,32.75998306274414,31.479991912841797,38.40998458862305,37.23998260498047,38.139984130859375,48.13019943237305,0.35807186365127563,47.83399963378906,47.87900161743164,48.029998779296875,47.83399963378906,47.92499923706055,47.81800079345703,36.0
1244.696,-0.08416663545949557,-0.2089863228083318,0.3562706473950507,1.3034065493186393,1.1171207235350262,-1.798981784001791,0,31.47995948791504,32.75998306274414,31.479991912841797,38.40998458862305,37.23998260498047,38.139984130859375,48.13019943237305,0.17903539538383484,47.83399963378906,47.87900161743164,48.0,47.83399963378906,47.92499923706055,47.81800079345703,36.0
1244.712,-0.0841856419947768,-0.20898267139242158,0.35627746826458306,1.3034775379417283,1.1170422811981449,-1.7989439208127038,0,31.479963302612305,32.75998306274414,31.479991912841797,38.40998458862305,37.23998260498047,38.139984130859375,48.13019943237305,0.3938823342323303,47.803001403808594,47.87900161743164,48.0,47.83399963378906,47.95500183105469,47.81800079345703,36.0
1244.72,-0.08417664561792958,-0.2089820740515989,0.35626138391541023,1.3034596069532367,1.117054549201877,-1.799001563168608,0,31.479963302612305,32.75998306274414,31.479991912841797,38.40998458862305,37.23998260498047,38.139984130859375,48.13019943237305,0.32226669788360596,47.803001403808594,47.87900161743164,48.0,47.83399963378906,47.95500183105469,47.81800079345703,36.0
1244.7279999999998,-0.08418106424668623,-0.2089814933527557,0.3562702214946768,1.3034673292269838,1.117061370760657,-1.798999505920417,0,31.479963302612305,32.75998306274414,31.479991912841797,38.40998458862305,37.23998260498047,38.139984130859375,48.13019943237305,0.21484586596488953,47.803001403808594,47.87900161743164,48.0,47.83399963378906,47.95500183105469,47.81800079345703,36.0
1244.7359999999999,-0.08418730605963852,-0.20898150107691574,0.35626882753028905,1.3034780397064816,1.1170664618309856,-1.7989971113961456,0,31.479963302612305,32.75998306274414,31.479991912841797,38.40998458862305,37.23998260498047,38.139984130859375,48.13019943237305,0.21484586596488953,47.803001403808594,47.87900161743164,48.0,47.83399963378906,47.95500183105469,47.81800079345703,36.0
1244.744,-0.08419094622851844,-0.20897904016267752,0.3562745005838058,1.3034982093898635,1.117029492262358,-1.7990180098396977,0,31.479963302612305,32.75998306274414,31.479991912841797,38.40998458862305,37.23998260498047,38.139984130859375,48.13019943237305,0.28645622730255127,47.803001403808594,47.87900161743164,48.0,47.83399963378906,47.95500183105469,47.83399963378906,36.0
1244.752,-0.08418435073908435,-0.2089822095416562,0.35627292379292913,1.3034667762885026,1.1170467520996605,-1.7989738186089579,0,31.479963302612305,32.75998306274414,31.479991912841797,38.40998458862305,37.23998260498047,38.139984130859375,48.13019943237305,0.28645622730255127,47.803001403808594,47.87900161743164,48.0,47.83399963378906,47.95500183105469,47.83399963378906,36.0
1244.76,-0.08417674181988795,-0.20898258305501627,0.3562608760893747,1.3034700491149382,1.1170368038234566,-1.7989647501907833,0,31.479963302612305,32.75998306274414,31.479991912841797,38.40998458862305,37.23998260498047,38.139984130859375,48.13019943237305,0.28645622730255127,47.803001403808594,47.87900161743164,48.0,47.83399963378906,47.95500183105469,47.83399963378906,36.0
1244.768,-0.08419659582714507,-0.2089787237859836,0.35627346816769007,1.3035321269425963,1.116988161917901,-1.798971122232388,0,31.479963302612305,32.75998306274414,31.479991912841797,38.40998458862305,37.23998260498047,38.139984130859375,48.13019943237305,0.2506510317325592,47.803001403808594,47.87900161743164,48.01499938964844,47.83399963378906,47.95500183105469,47.83399963378906,36.0
1244.7759999999998,-0.0841741036856287,-0.2089825452074573,0.35626190881213166,1.3034523652708725,1.1170472266916356,-1.7990040290170304,0,31.479963302612305,32.75998306274414,31.479991912841797,38.40998458862305,37.23998260498047,38.139984130859375,48.13019943237305,0.2506510317325592,47.803001403808594,47.87900161743164,48.01499938964844,47.83399963378906,47.95500183105469,47.83399963378906,36.0
1244.7839999999999,-0.08417056113989185,-0.20898348531824446,0.3562658245296553,1.303413187773707,1.1171151146507543,-1.7990290305391972,0,31.47996711730957,32.75998306274414,31.479991912841797,38.40998458862305,37.23998260498047,38.139984130859375,48.13019943237305,0.32226669788360596,47.81800079345703,47.87900161743164,48.01499938964844,47.83399963378906,47.95500183105469,47.83399963378906,36.0
1244.792,-0.08419148747337726,-0.20897937235499042,0.35628435631759847,1.303483307112564,1.1170556435820427,-1.7990449502390773,0,31.47996711730957,32.75998306274414,31.479991912841797,38.40998458862305,37.23998260498047,38.139984130859375,48.13019943237305,0.32226669788360596,47.81800079345703,47.86399841308594,48.01499938964844,47.83399963378906,47.92499923706055,47.83399963378906,36.0
1244.8,-0.08417103551572916,-0.20898290503161993,0.3562669749080136,1.3034361286421177,1.117078126600561,-1.7990116412645487,0,31.47996711730957,32.75998306274414,31.479991912841797,38.40998458862305,37.23998260498047,38.139984130859375,48.13019943237305,0.3938823342323303,47.81800079345703,47.86399841308594,48.01499938964844,47.83399963378906,47.92499923706055,47.83399963378906,36.0
1244.8239999999998,-0.0841784982125889,-0.20898113008545252,0.3562708919859896,1.3034520077713392,1.1170631317932327,-1.7990300656848024,0,31.47996711730957,32.75998306274414,31.479991912841797,38.40998458862305,37.23998260498047,38.139984130859375,48.13019943237305,0.28645622730255127,47.81800079345703,47.86399841308594,48.01499938964844,47.83399963378906,47.92499923706055,47.83399963378906,36.0
1244.856,-0.08417648128353794,-0.2089815532416892,0.35627204232415294,1.3034575443256675,1.1170517890523248,-1.7990214018938675,0,31.47996711730957,32.75998306274414,31.479991912841797,38.40998458862305,37.23998260498047,38.139984130859375,48.13019943237305,0.28645622730255127,47.81800079345703,47.86399841308594,48.029998779296875,47.83399963378906,47.92499923706055,47.83399963378906,36.0
1244.864,-0.08418730605963852,-0.20898150107691574,0.35626882753028905,1.3034902609508723,1.1170362399350815,-1.7989710209017629,0,31.479970932006836,32.75998306274414,31.479991912841797,38.40998458862305,37.23998260498047,38.139984130859375,48.13019943237305,0.28645622730255127,47.78799819946289,47.86399841308594,48.029998779296875,47.81800079345703,47.92499923706055,47.83399963378906,36.0
1244.8719999999998,-0.08417911941838255,-0.20898159105929573,0.35627100960140773,1.3034671345407334,1.1170613803961622,-1.7989994015822615,0,31.479970932006836,32.75998306274414,31.479991912841797,38.40998458862305,37.23998260498047,38.139984130859375,48.13019943237305,0.35807186365127563,47.78799819946289,47.87900161743164,48.029998779296875,47.81800079345703,47.92499923706055,47.83399963378906,36.0
1244.8799999999999,-0.08417292343305709,-0.2089828130944193,0.35627125357949463,1.3034322747196114,1.1170881172586906,-1.7990203888208447,0,31.479970932006836,32.75998306274414,31.479991912841797,38.40998458862305,37.23998260498047,38.139984130859375,48.13019943237305,0.32226669788360596,47.78799819946289,47.87900161743164,48.029998779296875,47.81800079345703,47.92499923706055,47.83399963378906,36.0
1244.888,-0.08417794137316285,-0.20898165818232725,0.35626602418650527,1.3034504718158597,1.1170885701910185,-1.7990266380854087,0,31.479970932006836,32.75998306274414,31.479991912841797,38.40998458862305,37.23998260498047,38.139984130859375,48.13019943237305,0.35807186365127563,47.78799819946289,47.87900161743164,48.029998779296875,47.81800079345703,47.92499923706055,47.83399963378906,36.0
1244.896,-0.08417874127141173,-0.20898268032109418,0.35626935148595684,1.3034505487663848,1.117090730133927,-1.7989887037394008,0,31.479970932006836,32.75998306274414,31.479991912841797,38.40998458862305,37.23998260498047,38.139984130859375,48.13019943237305,0.21484586596488953,47.78799819946289,47.87900161743164,48.029998779296875,47.81800079345703,47.92499923706055,47.83399963378906,36.0
1244.904,-0.08417556933448161,-0.20898021813187787,0.356273454370854,1.3034472973642353,1.1170713641014087,-1.7990770162602467,0,31.479970932006836,32.75998306274414,31.479991912841797,38.40998458862305,37.23998260498047,38.139984130859375,48.13019943237305,0.4296875,47.78799819946289,47.87900161743164,48.029998779296875,47.81800079345703,47.92499923706055,47.81800079345703,36.0
1244.912,-0.08417644190666229,-0.20898103846676422,0.35626748341669645,1.3034633712237862,1.1170293121642918,-1.7990234809315369,0,31.479970932006836,32.75998306274414,31.479991912841797,38.40998458862305,37.23998260498047,38.139984130859375,48.13019943237305,0.28645622730255127,47.78799819946289,47.87900161743164,48.029998779296875,47.81800079345703,47.92499923706055,47.81800079345703,36.0
1244.936,-0.08417291943722027,-0.20898315033821932,0.3562614652554029,1.3034377603444578,1.1170771559493777,-1.7990114387016125,0,31.479970932006836,32.75998306274414,31.479991912841797,38.40998458862305,37.23998260498047,38.139984130859375,48.13019943237305,0.28645622730255127,47.78799819946289,47.87900161743164,48.029998779296875,47.81800079345703,47.92499923706055,47.81800079345703,36.0
1244.944,-0.0841948437554946,-0.20898109288783065,0.3562720736273905,1.3035202845953495,1.1170050009699055,-1.7989329671648335,0,31.4799747467041,32.75998306274414,31.479991912841797,38.40998458862305,37.23998260498047,38.139984130859375,48.13019943237305,0.35807186365127563,47.81800079345703,47.87900161743164,48.029998779296875,47.83399963378906,47.92499923706055,47.81800079345703,36.0
1244.952,-0.08415877461527908,-0.208986009912791,0.35625719942693856,1.3033821885627799,1.117146772947509,-1.7990109958031035,0,31.4799747467041,32.75998306274414,31.479991912841797,38.40998458862305,37.23998260498047,38.139984130859375,48.13019943237305,0.28645622730255127,47.81800079345703,47.86399841308594,48.029998779296875,47.83399963378906,47.95500183105469,47.81800079345703,36.0
1244.96,-0.08417361189850212,-0.2089836460014302,0.3562703841614828,1.3034357769310398,1.1170765632136976,-1.7989933390816248,0,31.4799747467041,32.75998306274414,31.479991912841797,38.40998458862305,37.23998260498047,38.139984130859375,48.13019943237305,0.35807186365127563,47.81800079345703,47.86399841308594,48.029998779296875,47.83399963378906,47.95500183105469,47.81800079345703,36.0
1244.9679999999998,-0.08417918669177354,-0.20898196302117072,0.3562700225308395,1.3034555503192482,1.1170514777043319,-1.7990029295094971,0,31.4799747467041,32.75998306274414,31.479991912841797,38.40998458862305,37.23998260498047,38.139984130859375,48.13019943237305,0.28645622730255127,47.81800079345703,47.86399841308594,48.029998779296875,47.83399963378906,47.95500183105469,47.81800079345703,36.0
1244.9759999999999,-0.08418286302561676,-0.20897999418312846,0.35626130256067234,1.3034907630220554,1.117026310473505,-1.7990002405034846,0,31.4799747467041,32.75998306274414,31.479991912841797,38.40998458862305,37.23998260498047,38.139984130859375,48.13019943237305,0.28645622730255127,47.81800079345703,47.86399841308594,48.029998779296875,47.83399963378906,47.95500183105469,47.81800079345703,36.0
1244.984,-0.08416951118065404,-0.20898369213406656,0.35626776365260077,1.3034343944762654,1.1170730961878452,-1.7990123087448935,0,31.4799747467041,32.75998306274414,31.479991912841797,38.40998458862305,37.23998260498047,38.139984130859375,48.13019943237305,0.28645622730255127,47.81800079345703,47.86399841308594,48.029998779296875,47.83399963378906,47.95500183105469,47.81800079345703,36.0
1244.992,-0.08417985023137094,-0.20898420299106962,0.35626848248578746,1.3034606460599598,1.1170540227172399,-1.7989450607647495,0,31.4799747467041,32.75998306274414,31.479991912841797,38.40998458862305,37.23998260498047,38.139984130859375,48.19097137451172,0.21484586596488953,47.81800079345703,47.86399841308594,48.029998779296875,47.83399963378906,47.95500183105469,47.81800079345703,36.0
1245.0,-0.08416547890934738,-0.2089855321746868,0.3562658245296553,1.3034065000948178,1.1170961767335226,-1.7989853155979079,0,31.4799747467041,32.75998306274414,31.479991912841797,38.40998458862305,37.23998260498047,38.139984130859375,48.13019943237305,0.21484586596488953,47.81800079345703,47.86399841308594,48.029998779296875,47.83399963378906,47.95500183105469,47.81800079345703,36.0
1245.008,-0.0841804129842506,-0.20898367734540668,0.35627850096555774,1.303442039699941,1.1170786715379886,-1.7989916661054903,0,31.4799747467041,32.75998306274414,31.479991912841797,38.40998458862305,37.23998260498047,38.139984130859375,48.13019943237305,0.4296875,47.81800079345703,47.86399841308594,48.029998779296875,47.83399963378906,47.95500183105469,47.81800079345703,36.0
1245.0159999999998,-0.08416931597059818,-0.20898318054372717,0.3562618261200473,1.303436600318357,1.1170817573343443,-1.798991918589855,0,31.4799747467041,32.75998306274414,31.479991912841797,38.40998458862305,37.23998260498047,38.139984130859375,48.13019943237305,0.28645622730255127,47.81800079345703,47.86399841308594,48.029998779296875,47.83399963378906,47.95500183105469,47.81800079345703,36.0
1245.04,-0.08416748940232945,-0.20898364192708185,0.3562514096636171,1.3034124280641406,1.1171022407522568,-1.79902162019423,0,31.479976654052734,32.75998306274414,31.479991912841797,38.40998458862305,37.23998260498047,38.139984130859375,48.13019943237305,0.4296875,47.803001403808594,47.86399841308594,48.029998779296875,47.83399963378906,47.90999984741211,47.81800079345703,36.0
1245.048,-0.08419232908221126,-0.20898070873412805,0.3562779120973485,1.3035054262348653,1.1170061360754495,-1.7989636322800786,0,31.479976654052734,32.75998306274414,31.479991912841797,38.40998458862305,37.23998260498047,38.139984130859375,48.13019943237305,0.2506510317325592,47.803001403808594,47.86399841308594,48.029998779296875,47.83399963378906,47.90999984741211,47.81800079345703,36.0
1245.056,-0.0841811210475586,-0.2089814876122742,0.3562651547383202,1.3034713776377302,1.117051370341532,-1.7989908627366984,0,31.479976654052734,32.75998306274414,31.479991912841797,38.40998458862305,37.23998260498047,38.139984130859375,48.13019943237305,0.17903539538383484,47.803001403808594,47.86399841308594,48.01499938964844,47.83399963378906,47.90999984741211,47.81800079345703,36.0
